/* XPM */
static const char *Y3lubHJlX2p2Z3Vfb25weHRlYmhhcSAoMSk__67bd5d2963f27[] = {
/* columns rows colors chars-per-pixel */
"64 64 256 2 ",
"   c #141D07",
".  c #351101",
"X  c #053901",
"o  c #0D3209",
"O  c #2C3303",
"+  c #04352C",
"@  c #013738",
"#  c #0B2E34",
"$  c #2E312C",
"%  c #011E26",
"&  c #5A0504",
"*  c #50100A",
"=  c #680A0B",
"-  c #4B3009",
";  c #6C2D00",
":  c #533236",
">  c #661E21",
",  c #054B05",
"<  c #134E0F",
"1  c #295115",
"2  c #196B0B",
"3  c #2C7E02",
"4  c #2A730A",
"5  c #337D01",
"6  c #367B08",
"7  c #286915",
"8  c #37681A",
"9  c #2A7718",
"0  c #367719",
"q  c #2A660B",
"w  c #195A38",
"e  c #0E4C2D",
"r  c #324D2E",
"t  c #1A6729",
"y  c #346825",
"u  c #387726",
"i  c #2A6D31",
"p  c #4D5715",
"a  c #4C6F13",
"s  c #455138",
"d  c #447937",
"f  c #4A702F",
"g  c #65672F",
"h  c #6D4A18",
"j  c #0B194B",
"k  c #033756",
"l  c #0D3050",
"z  c #2F3751",
"x  c #011E63",
"c  c #0B2967",
"v  c #072C7A",
"b  c #093477",
"n  c #163678",
"m  c #0E3869",
"M  c #293C6F",
"N  c #144C51",
"B  c #2D4F4E",
"V  c #276A4E",
"C  c #1B5271",
"Z  c #2E4B6F",
"A  c #306577",
"S  c #515250",
"D  c #655A55",
"F  c #70504A",
"G  c #556851",
"H  c #716B4D",
"J  c #50566A",
"K  c #686864",
"L  c #6F766E",
"P  c #536D78",
"I  c #951710",
"U  c #B0130B",
"Y  c #B1280F",
"T  c #AA372B",
"R  c #912926",
"E  c #CB0B04",
"W  c #D10F0C",
"Q  c #E50203",
"!  c #C33221",
"~  c #985D2C",
"^  c #CF5E37",
"/  c #8B694F",
"(  c #927870",
")  c #BB706D",
"_  c #A85F53",
"`  c #D07255",
"'  c #D76E58",
"]  c #1B8D01",
"[  c #1B8300",
"{  c #1D9301",
"}  c #1C9708",
"|  c #2C8201",
" . c #248D02",
".. c #288A07",
"X. c #328101",
"o. c #358A0A",
"O. c #249403",
"+. c #2B9404",
"@. c #249A04",
"#. c #2C9A05",
"$. c #24950A",
"%. c #2B950A",
"&. c #259A0B",
"*. c #2C9C0B",
"=. c #329605",
"-. c #329B05",
";. c #33950C",
":. c #339C0C",
">. c #3A9C0D",
",. c #3A960B",
"<. c #378A18",
"1. c #2C9C12",
"2. c #299713",
"3. c #339513",
"4. c #349C12",
"5. c #3B9D13",
"6. c #359B1B",
"7. c #3B9C1B",
"8. c #3A9419",
"9. c #2A8915",
"0. c #2DA10C",
"q. c #28A106",
"w. c #33A20D",
"e. c #3AA40D",
"r. c #34A60A",
"t. c #2DA313",
"y. c #2BA519",
"u. c #34A413",
"i. c #3BA414",
"p. c #35AA14",
"a. c #3BAA15",
"s. c #35A41B",
"d. c #3CA41A",
"f. c #3CAB1B",
"g. c #36A91A",
"h. c #3DB11B",
"j. c #398527",
"k. c #399827",
"l. c #368C33",
"z. c #3BA624",
"x. c #3BB123",
"c. c #459B18",
"v. c #448E14",
"b. c #42A514",
"n. c #42AB15",
"m. c #42A41B",
"M. c #42AB1C",
"N. c #49AC1D",
"B. c #49A917",
"V. c #43B11D",
"C. c #49B41D",
"Z. c #41A40D",
"A. c #438827",
"S. c #459828",
"D. c #469835",
"F. c #4F8F2E",
"G. c #42A423",
"H. c #44AC22",
"J. c #48A827",
"K. c #51A529",
"L. c #44B322",
"P. c #4BB324",
"I. c #49B727",
"U. c #53B628",
"Y. c #4AA533",
"T. c #57A839",
"R. c #59BD37",
"E. c #67962E",
"W. c #3D8E49",
"Q. c #4D9548",
"!. c #6F9151",
"~. c #59A946",
"^. c #728C70",
"/. c #619E64",
"(. c #5BC32E",
"). c #9B8A3A",
"_. c #AE954D",
"`. c #8F8D74",
"'. c #B18F6A",
"]. c #8D8954",
"[. c #D3AF73",
"{. c #CBA15E",
"}. c #FAC17C",
"|. c #032D86",
" X c #093588",
".X c #133888",
"XX c #063799",
"oX c #113494",
"OX c #033AA5",
"+X c #033BAB",
"@X c #0B3CAC",
"#X c #0637A6",
"$X c #033CB3",
"%X c #033BBA",
"&X c #0739B3",
"*X c #0F3AA8",
"=X c #243781",
"-X c #184897",
";X c #11458D",
":X c #294788",
">X c #2B5391",
",X c #336A90",
"<X c #0842A9",
"1X c #1749A8",
"2X c #0742B6",
"3X c #164CAE",
"4X c #2954B6",
"5X c #2954AA",
"6X c #3969B1",
"7X c #455989",
"8X c #52688F",
"9X c #68738D",
"0X c #4B70B0",
"qX c #758796",
"wX c #6D8EA0",
"eX c #888588",
"rX c #979999",
"tX c #8D9089",
"yX c #AA9991",
"uX c #98B193",
"iX c #ABAD97",
"pX c #8997B4",
"aX c #B6B7B5",
"sX c #ACA9A8",
"dX c #97A1AF",
"fX c #D1948B",
"gX c #CCB793",
"hX c #C2BBAB",
"jX c #EBAAA2",
"kX c #B3CAAF",
"lX c #D1C397",
"zX c #ECCF97",
"xX c #CFC8B4",
"cX c #EED9AF",
"vX c #F5E2B9",
"bX c #8999C7",
"nX c #AEB9CB",
"mX c #98A3CE",
"MX c #BAC8CA",
"NX c #B8C8EF",
"BX c #C8CAC9",
"VX c #D9DAD8",
"CX c #CFD0CD",
"ZX c #E9D3CB",
"AX c #EAEAD7",
"SX c #D9E7F0",
"DX c #E7E7E8",
"FX c #FDEAE9",
"GX c #EAFAE9",
"HX c #EAF4FB",
"JX c #FCFDF5",
"KX c #F4FDFE",
"LX c #FDFEFD",
"PX c #F8F8F5",
"IX c #F1F1F3",
"UX c #DCE2DD",
/* pixels */
"U.e.=.>.i.+. .M.4.d.4.] 1.g.p.x.s.d.M.d.:.:.f.g.*.4.4.5.5.>.a.a.N.m.4.a.q.r.V.f.g.1.*.O.O.+.n.C.p.p.=. .O.4.7.%.O.@.1.y.&.$.<.6 ",
"n.n.:.:.+.+.d.d.%.$.4.%.O.t.u.t.*.4.4.u.i.#.O.u.*.u.:.5.i.i.0.0.d.d.i.u.r.a.h.a.t.1.#.*.a.u.i.f.0.u.i.=.+.%.5.4.0.{ $.s.1.] o.6 ",
"a.e.i.+.=.i.H.i.%. .i.i.*.u.w.O.*.O.*.p.a.O.O.*.u.a.e.=.m.d.&.0.1.u.a.r.0.r.0.@.O.&.$.1.u.*.z.s.2.*.m.P.i.:.m.d.u.{ $.2.} $.| 3 ",
"a.w.w.O.i.i.:.i.%.%.M.N.i.u.:.#.&.] &.t.u.#.0.p.u.w.-.+.5.7.2.1.s.4.0.q.r.r.a.e.] O.1.s.#.*.x.y.1.4.5.U.M.i.m.H.u.*.1.$.$.u.8.X.",
"p.f.u.*.u.+.i.M.+.=.P.P.:.=.:.i.&.&.1.$.w.*.#.p.&.&.#.O.5.c.8.S.k.G.;.e.C.p.n.f.u.y.t.g.@.@.h.t.4.G.7.m.d.+.4.U.:.*.u.$.O.f.c.X.",
"t.p.f.*.#.:.L.V.:.:.P.P.=.:.i.:.w.*.d.*.#.:.u.t.&.&.p.4.J.T.D., , 8.4.i.(.P.N.m.H.L.u.a.=.+.d.H.H.m.7.4.u.O.d.M.+.:.u.O.O.m.b.3 ",
"0.&.u.*.*.f.f.n.b.i.N.M.=.m.i.=.w.O.d.5.=.d.L.x.1.t.L.R.~.t e < , c.d.*.b.B.B.>.P.P.m.c.8.<.j.S.7.i.5.4.r.#.n.u.*.i.f.*.+.d.b.| ",
"t.p.*.a.L.f.e.i.e.n.d.:.:.N.i.:.i.=.m.3.=.e.d.z.s.3.~.D.< B qXe j.J.M.u.;.5.S.S.k.j.2 , X X X X 3 N.%.#.w.r.0.V.i.i.p.a.u.:.,.| ",
"u.u.p.L.I.M.e.:.>.M.M.d.d.i.M.i.=.:.m.:.#.#.f.m.;.S.i e ,X0Xk + D.N.M.d.8.j.i e e N C A ,XP o , J.:.*.w.f.0.O.a.w.O.w.f.4.5.J.| ",
"a.:.O.:.a.d.d.e.b.M.i.i.i.e.f.i.:.=.5.i.M.M.:.7.j.< N 0X5Xv k w Y.G.Y.l.t N A ,X0X6X6X5X:X@ e ~.K.5.#.w.d.4.w.#.a.*.@.*.M.H.J.| ",
"u.*.O.+.=.:.i.:.i.:.:.i.i.i.f.:. .+.d.H.P.s.6.D.e ,X0X#X#X;X+ W.~.D.i B ,X6X6X1X#XOXXX X@ w Q.S.S.7.%.4.8...[ i.V.V.r.w.M.m.5.3 ",
"u.i.M.d.:.:.i.:.:.d.f.M.M.M.a.*. .i.i.d.N.k.2 e ,X6X#X&X&X X@ /.i V ,X6X3X&X+X&X$X2X;Xl w Q.7 , 0 S...k.S.9 ..4.f.V.V.M.i.;.,.3 ",
"i.M.N.d.>.i.i.=.;.N.H.f.i.w.w.a.M.M.i.m.N.9 + >X5XXX@X@X<Xv N V A ,X-XXXOX&X%X$XOX;Xk w Q.u 1 !.X u S.<.< X 9 S.M.e.e.a.a.:.,.X.",
"i.n.M.i.:.i.4.%.:.i.i.4.4.#.*.f.d.:.a.J.T.t N :X XXXXX@XOXv k ,X-XXX+X$X$X%X$X+X1Xk e W.k.2 uXJX`.< ~.7 kX^., T.m.e.+.#.M.5.o.5 ",
"e.a.M.i.i.i.4.5.:.%.4.4.:.*.w.a.i.O.u.Y.l.+ B 7X:Xv XXOXXXXX1XXX#X2X%X%X%X+X+X Xm + l.k.z.9 kXLXGXG y /.PXGXy A.5.-.-.e.M.i.v.5 ",
"e.:.:.=.:.5.4.d.....4.4. .O.u.u.#.:.m.D.e Z J SX9Xm  XXXOX@X+X&X%X%X%X%X2XOXXXb % i k.2.J.9 kXLXLX^.1 kXLXPXu j.5.-.M.U.M.i.c.5 ",
"M.#.=.:.=.M.d.H.i.%.d.g.] 1.g.t.&.4.S.t A m L ZXBXJ b XX<XOX&X&X%X%X%X$XXX X Xc e ~.G.2.<.7 uXLXJX`.r GXLXGXy j.;.#.H.L.d.4.8.X.",
"d.i.e.e.:.i.d.4.d.4.*.4.1.1.$.&.t.6.j.V >Xv qXAXAXnXb XX+X+X&X&X%X%X%X+X|.|.v j B i t t u 1 uXLXJXK L LXLXGXq S.7.i.4.d.d...8.3 ",
"4.m.M.b.-.e.>.+.5.i.=.=.+.O.O.*.x.k.w A ;X|.wXmX8X,X XXX@X&X$X$X2X$XOXXXXX-X1X-X:XC C N # % kXLXLXeXBXLXJXuX4 G.m.H.%.4.M.;.,.3 ",
"4.i.N.:.+.e.+.=.:.:.:.:.+.:.H.f.L.l.N ,XXXXX.Xc n n -XXX&X&X2X$X$XOX+X<X<X<X1X1X1X1X5X>X8Xz CXLXLXVXLXLXVXy D.3.4.d.4.:.M.5.o.X.",
"s.d.H.*.:.M.u.u.M.i.d.M.:.4.L.H.d.l.C 1XOX@XoX6X0X5X4X3X&X%X&X$X%X$X+XOXOXOXOXOXXX+XXX XM pXCXVXVXDXDXLXkXs 9 k.%.#.w.@.i.;.3 X.",
"O.f.f.*.u.L.L.L.u.d.d.4.%.2.6.k.k.V >XOX@XOX4X5Xc c x  X<X$X&X&X+X$X&X&X$X$X&X$X2X$X<X XNXLXLXDXVXCXeXeXLXGXy j.H.*.@.#.i.:.o.3 ",
"{ 0.u.*.g.g.f.L.u.i.e.%.6.k.l.l.u V ;XXX<X<X5Xc 8XMXnX8X|.@X$X+X2X2X&X&X&X&X&X$X$XOX<X-XHXKXLXLXLXLXrXK LXLXs 7 J.0.*.i.d.d.c.| ",
"w.O.#.#.f.d.$.a.a.-.:...9 t e e @ k >X<XXX3X.X>XHXLXLXHX0X X#X$X+X+X+X&X@X@X@X@X<X<XXX>XHXLXaXMXUXsXS BXLXDXiXf 9.{ f.M.4.d.m.| ",
"i.=.O.e.P.n.i.n.e.Z.>.k., V m  Xb .X4XXX<X1Xv bXLXLXLXKXHX:XXX2X<X<XXX*XXXXXoXoXoX Xb M HXLXCXaXrXS xXLXLXrXGX/.2 { a.d.4.4.d. .",
"J.d.e.n.n.n.C.n.C.b.b.T.i V 6XoX XoX4X#XOX1Xv mXKXLXHXHXLXmXn  Xv .X X|.v .X:XM Z Z z qXBXLXLXLXLXeXsXVXeXaXGXd 9.O.u.d.i.=.;.| ",
"G.m.N.n.w.e.N.d.b.Z.=.c.D.t N ,X;X|.3X#X@XXXv bXKXKXMXL VXDX# 9XBXP c .X-XC B L iXhX( xXeXIXLXIXLXVXS L VXGX!.7 7.*.#.-.a.i.5.| ",
"6.G.M.e.+.O.u.d.P.n.:.m.k.l.W.N C b 5X*X@X#X X0XKXKXGX^.$ iXL xXvXiXl M Z wXBXAXvXgXH iXPXeXDXLXLXLXkXuXkXG 2 k.4.i.i.e.C.B.m.| ",
"4.d.s.#.O.O.i.M.L.+.%.4.4...z.Q.w N -X*X@X2XOX;XSXLXPXGXG   iX'.zXgXz pXUXAXCXeXJ $ $ $ VXPXaXrXtXkXuX1 < j.9.$.1.H.P.M.B.Z.c.X.",
"4.4.s.4.O.4.N.i.f.*.1.%.s.*.+.6.j.e :XoX*X#X2X|.pXKXPXJXJX`.lXgXcX`.z NXdXK J M M c pXHXS MXBXL 1 8 y u F.S.&.q.0.f.N.n.b.>.,.X.",
":.i.d.d.:.:.i.e.i.V.O.%.4.1.1.2.<.< C b .XoX@XXX7XKXLXLXFXgXzX[.cXS m n c b .XoX<X3X6X0X:Xl $ y 0 T.T.K.c.J.0.q.@.0.n.N.N.Z.o.3 ",
"i.V.M.f.u.O.+.n.N.i.M.a.1.2.%.%.7.j.w l A 8Xv .XZ MXLXAXgXzXzXcXeXj b -X1X4X<X+X&X$XXX.X;Xk t F.J.5.m.m.m.m.*.@.@.r.C.P.B.,.o.6 ",
"i.a.f.a.1.O.O.i.d.i.L.L.*.1.O.O.1.z.l.9 1 qXwXZ B rXxXgXzXzXcXyXz n oX1X1X4X4XXX#XOX<X;X@ w S.5.:.:.5.b.m.=. . .0.a.i.i.N.c.o.5 ",
"i.a.u.t.1.{ { w.i.:.e.V.u.*.a.u.p.1.O.G.D.d /.G S K cXcXcXzX/ s 7X-XoXoX.X|. X.X;X;Xb k i k.%.#.#.u.N.K.m.=. .*.*.a.u.:.N.m.v.5 ",
">.d.d.1.z.1.] w.u.n.e.e.f.*.f.p.i.d.$.s.Y.A.r G r s lXlX'.- H K 7X Xv 0XwX7Xc m k @ e W.z.[ #.#.&.d.P.P.i.:.i.V.f.f.*.O.i.m.c.5 ",
"=.=.4.*.s.1.O.u.d.4.M.m.H.u.O.u.:.4.*.s.k.X r G L `.hXZXyX`.gXL C 1X.X>X8Xz l l B i l.s.#.w.0.0.#.u.m.m.5.:.a.L.f.u.*.+.i.m.c.| ",
">.O.O.O.1.1.g.L.Y.<.S.J.z.x.w.O.*.f.L.3.j.d tXaXLXLXDXJXxXVXL B m 1X@X|.c Z B B r d 9.1.h.a.L.p.*.4.d.I.P.w.&.*.O.#.i.i.i.i.c.| ",
"f.*.*.#.4.6.J.Y.7 1 1 q q S.c.*.*.M.w.3.A.f CXDXCXaXrXLXrX9X9XZ :X5X2X*Xc 9XqX^.s 8 <.&.V.u.u.f.u.M.d.f.f.u.0.0.] :.V.i.+.;.c.| ",
"t.0.w.*.u.6.G.<.1 uX`./ ; - v.3.4.u.f.$.S.1 ^.rXsXUXCXqX9X>X-X:Xk k 5XoX.X7XJ eXL 1 4 4.f.M.:.+.+.d.4.s.f.u.0.#.*.u.M.u. .O.c.| ",
"&.t.u.*.p.1.8.q s D ( ) T ; O F.S.7.#.3.A.y PXLXLXLXpXZ :X-Xb k + B C :X=Xj 9XLXrX^.q S.P.i.:.+.d.i. .*.p.@.@.p.w.#.s.s.%.=.c.| ",
"*.&.{ &.&.2.8.7 G S D fX^ U I - f S.J.<.7 1 L CXnXP :X>X-Xb + e Q.Q.P M j 8XHXLXBX`.O f J.u.O.i.m.m.:.O.&.{ { V.M.=. .*.d.4.,.| ",
"f.O.{ 0.] $.G.u G K D fX^ U U R g u F.f kXkXS J S M n b m @ i k.Y.7 MXqXnXKXLXPXJX`.. O 0 J.d.w.4.m.i.O.{ &.0.a.d.M.u.:.i.5.c.5 ",
"L.O.{ p.*.1.z.9 s D S '.' U W U jX`.O uXUXKXLXDX9Xl l # e l.D.o.5.2 ^.KXSXMXsXJXZX. * .   F.S.u.i.5.:.%.*.u.p.u.i.H.d.*.4.m.K.5 ",
"d.:.*.p.u.2.1.9.G L D ( ' Y E U fXJX`.kXDXIXPXLXSX9X% e ~.U.;.;.O.7.u r kXJXJXxXH F > * . 1 K.i.i.:.:.d.a.u.w.u.d.m.:.#.*.5.c.5 ",
"4.d.w.*.p.1.} k.r G S / ' Y E W ) PXLXaXJXJXLXsXeXrXr F.J.N.i.4. ...T.y iXVXsXrXCXFX{.h . O 6 +.*.i.f.f.a.*.#.i.m.4.&.*.4.:.c.5 ",
"i.M.:.O.1.1.&.6.d L K F ` ! E U ) PXLXhX/ FXJXDXeXuX8 <.:.a.M.i.=.c.A.!.xXZXLXPXJXcX[._.- p 4 :.i.s.u.u.f.u.#.=.:.O.$.t.p.:.c.5 ",
"M.V.e. ...2.1.k.7 r G D _ ` U U jXJXLXFXR _ FXLXtX^.q 9.:.i.M.P.4.v.g jXjXjXjXFXvX[._.~ g 1 v.H.H.:.#.u.h.u.:.:.+.] { y.g.4.c.5 ",
"n.C.e.O.7.z.2.6.u 1 K D H ) R T FXLXLXFXR = F aXtX1 j.7.d.i.f.m.c.a ; I I I I T [.{.)._.p 8 c.i.i.0.a.L.u.*.i.M.:. .{ g.x.5.c.5 ",
":.n.i.:.b.d.0.$.k.< r K D ( / ZXJXLXLXBX> = * F `.1 Y.f.e.e.a.J.E.- I W W W W U ^ {.~ ).a <.4.O.#.*.u.L.V.*.+.b.b.=.+.u.f.5.v.5 ",
"a.:.d.N.b.-.@.*.6.j.X G D D eXaXIXDXBXtX* & = * r u z.u.e.r.n.K.p ; E Q Q Q Q W Y }._.a v.8.i.a.#.O.w.V.a.:.*.:.:.=.=.u.L.N.c.5 ",
"I.:.M.N.>.w.0.O.%.k.u o G D S S eXyXyXF & = & . 8 T.4.*.r.#.p.v.; Y E Q Q Q Q E I ~ ].8 T.I.M.d.:.%.d.M.*.#.f.M.=.i.u.i.L.P.c.X.",
"L.:.d.i.=.M.a.O.+.G.T.u o $ r $ S ( F * = = & . a G.O.O.@.O.#.a ~ Y W Q Q Q E U T '.f D.G.L.M.i.d.:.i.N.4.#.u.u.w.a.h.a.i.5.c.X.",
"u.#.i.e.-.a.a.e.C.P.m.S.0 X r B $ : . * = & * . F.4.&.@.@.s.f.6 ~ Y W Q Q E Y _ '.H A.z.4.:.M.i.4.%.5.P.M.*.&.*.*.w.h.f.*.+.v.X.",
"4.:.a.a.e.u.u.i.i.P.n...Y.u X r $ : : * & * . O S.4.@.{ &.u.z.0 ~ T U E ! ! _ '.g f 7.$.*.d.d.d.4.4.5.M.f.*.@.p.#.O.*.u.i.b.c.5 ",
"i.d.n.n.e.u.4.4.%.:.:.*.G.~.F.X r $ $ F : -   0 8.s.0.t.*.%.s.v.h ` T ^ ) '.].8 6 7.*.@.u.a.:.i.H.4...+.*.*.&.*.*.O.O.O.M.U.K.X.",
"i.e.b.n.r.#.4.4... .O.#.g.J.S.A.o o r r H $ q K.7.s.&.1.*.4.d.<.p '.'.'.`.H q A.m.O.O.w.f.%.*.u.%.%.%.$.#.u.u.:.4.d.*. .i.P.c.X.",
"b.B.b.n.i.u.u.s.H.%.O.*.t.%.3.J.S.2 < X X 7 7.4.s.$.$.$...3.k.k.q !.!.f 8 j.k.3.w.w.O.M.H.*.&.&.] O.1.%.O.%.:.m.m.+.O.:.4.5.c.X.",
"b.b.b.M.M.L.1.%.H.H.*.*.u.0.:.d.3.<.j.9 j.k.s.*.*.p.s.$.O.;.8.J.8.9 0 j.S.J.2.O.0.h.e.b.i.i.i.*.*.O.%.*.O.*.d.N.m.>.:.M.M.m.c.X.",
"=.>.i.5.H.I.t.$.d.d.O.O.*.*.u.1.u.d.8.<.z.z.$.0.0.a.f.:.#.-.,.m.H.4.J.G.s.p.#.#.#.p.d.i.e.C.C.i.L.t.u.i.*.4.H.m.m.m.4.M.m.m.c.3 ",
"-.>.:.%.d.H.:.w.u.O. .*.#.&.u.t.g.4...3.g.y.$.0.r.r.u.i.-.+.>.>.e.p.L.p.0.p.0.@.p.#.*.i.a.n.d.s.g.t.u.i.:.4.M.5.J.N.4.i.4.4.c.3 ",
"n.n.#.+.4.%.+.a.a.O.*.a.f.s.1.1.u.O...4.2.t.t.*.#.-.#.d.4. .e.B.e.e.a.L.L.t.} y.x.$.%.d.N.M.d.a.*.0.w.a.w.+.=.=.H.H.4.s.4.3.c.X.",
"n.V.*.O.*.=.i.n.w.*.t.u.x.H.%.$.u.O...4.] { t.*.:.i.$.s.G...:.n.e.-.O.u.L.t.} y.} O.%.:.d.d.d.u.u.u.a.V.f.+.+.u.M.d.*.g.s.4.5.| ",
"e.a.a.@.#.i.b.d.O.t.t.{ 1.z.%.%.d.4.i.M.@.{ w.g.d.d.%.;.G.8.*.w.P.n.e.+.%.%.O.&.1.s.m.5.5.5.i.i.e.#.i.M.a.w.u.a.u.*.$.t.s.*.;.3 ",
"a.r.h.r.w.-.=.i.u.x.y.} ] 4.G.d.4.H.H.a.#.q.a.h.G.G.5.;.8.z.x.L.U.i.e.O. .4.:.i.s.d.i.=.=. .:.n.=.O.i.i.*.p.p.0.a.#.{ &.1.$...| "
};
