/* XPM */
static char *bb94456ae17e47258b2c1eb853652640GZLRL9mredwYxbdo[] = {
/* columns rows colors chars-per-pixel */
"64 64 250 2 ",
"   c #1C201D",
".  c #0D7E00",
"X  c #137D00",
"o  c #255E2C",
"O  c #6B652D",
"+  c #1C2153",
"@  c #543860",
"#  c #325F57",
"$  c #356C70",
"%  c #504D4F",
"&  c #555E5D",
"*  c #A11F1F",
"=  c #BB161C",
"-  c #B51A2A",
";  c #96292F",
":  c #A9252A",
">  c #B72327",
",  c #B72634",
"<  c #AB3238",
"1  c #C8131C",
"2  c #CC261C",
"3  c #C51926",
"4  c #DB1B28",
"5  c #F51E26",
"6  c #DB2628",
"7  c #CE2B33",
"8  c #ED232D",
"9  c #E32929",
"0  c #974D37",
"q  c #B54D31",
"w  c #927038",
"e  c #CD4D30",
"r  c #9C3D47",
"t  c #B23341",
"y  c #C63A44",
"u  c #93585B",
"i  c #B14C4E",
"p  c #986E52",
"a  c #AF704D",
"s  c #BB5967",
"d  c #B07073",
"f  c #CC5252",
"g  c #D2745B",
"h  c #CE5565",
"j  c #D16E72",
"k  c #0C8100",
"l  c #148500",
"z  c #1B8600",
"x  c #158A00",
"c  c #1C8C01",
"v  c #1D9202",
"b  c #1C9807",
"n  c #218500",
"m  c #228D01",
"M  c #2A8D01",
"N  c #249303",
"B  c #2B9404",
"V  c #259905",
"C  c #2B9906",
"Z  c #249509",
"A  c #2B9509",
"S  c #259A0B",
"D  c #2C9C0B",
"F  c #339506",
"G  c #329A06",
"H  c #389906",
"J  c #31960B",
"K  c #339C0C",
"L  c #399D0E",
"P  c #2F8E15",
"I  c #2C9D12",
"U  c #2A9818",
"Y  c #339E12",
"T  c #3A9E12",
"R  c #349918",
"E  c #26A20E",
"W  c #2EA10D",
"Q  c #30A007",
"!  c #34A10D",
"~  c #3AA20E",
"^  c #2DA313",
"/  c #2EA81A",
"(  c #34A313",
")  c #3BA414",
"_  c #35A915",
"`  c #3CA916",
"'  c #34A519",
"]  c #3CA519",
"[  c #35AA1A",
"{  c #3CAB1B",
"}  c #3DB11C",
"|  c #278524",
" . c #38A821",
".. c #3DAD21",
"X. c #3DB223",
"o. c #41A515",
"O. c #4BA617",
"+. c #42AA15",
"@. c #42A61B",
"#. c #43AC1C",
"$. c #4AAD1C",
"%. c #43B11D",
"&. c #4BB21E",
"*. c #549724",
"=. c #43AE21",
"-. c #4AAD22",
";. c #47AA2D",
":. c #44B322",
">. c #4BB423",
",. c #4CB926",
"<. c #48B828",
"1. c #4CBA2A",
"2. c #51BA25",
"3. c #55B829",
"4. c #52BC2B",
"5. c #50AA33",
"6. c #55A935",
"7. c #56B833",
"8. c #67B338",
"9. c #4BC02B",
"0. c #55C12D",
"q. c #5AC634",
"w. c #68CF3C",
"e. c #569456",
"r. c #58AB49",
"t. c #6CB14E",
"y. c #4F8C6B",
"u. c #6F9863",
"i. c #75B46A",
"p. c #74C655",
"a. c #859346",
"s. c #A4976A",
"d. c #92B169",
"f. c #D69271",
"g. c #E69E73",
"h. c #8ACE71",
"j. c #29359A",
"k. c #312FAC",
"l. c #292ABA",
"z. c #2935B8",
"x. c #3636B7",
"c. c #483D97",
"v. c #4A35AA",
"b. c #344994",
"n. c #3546B1",
"m. c #5B4F98",
"M. c #725A91",
"N. c #56778C",
"B. c #567D95",
"V. c #5551B1",
"C. c #6754A8",
"Z. c #716EB5",
"A. c #1C2FCC",
"S. c #1B28D9",
"D. c #272BCA",
"F. c #3529C5",
"G. c #2935C6",
"H. c #3536C8",
"J. c #262AD6",
"K. c #232DDC",
"L. c #2934D7",
"P. c #2332DC",
"I. c #3430D9",
"U. c #1C2AE7",
"Y. c #1C2DED",
"T. c #1B33E8",
"R. c #1928F6",
"E. c #1D2CF4",
"W. c #1C2DFC",
"Q. c #1E32F8",
"!. c #272BE5",
"~. c #222BEC",
"^. c #2633E8",
"/. c #2427F5",
"(. c #232CF4",
"). c #242CFB",
"_. c #2A2DFC",
"`. c #2332F3",
"'. c #2B32F3",
"]. c #2332FC",
"[. c #2A32FC",
"{. c #3337F0",
"}. c #4339CA",
"|. c #473CD3",
" X c #3645D1",
".X c #4E51CC",
"XX c #6C5CCC",
"oX c #5966DD",
"OX c #6F70CD",
"+X c #4F4FEF",
"@X c #7672ED",
"#X c #816F9F",
"$X c #8673AC",
"%X c #C66E83",
"&X c #8371D0",
"*X c #856CEC",
"=X c #619A85",
"-X c #75A68A",
";X c #6B88A9",
":X c #7682CC",
">X c #7787EF",
",X c #B59A94",
"<X c #89B28A",
"1X c #AC8EB0",
"2X c #9BAAAF",
"3X c #D89E93",
"4X c #EC908B",
"5X c #C8B2B1",
"6X c #F9B2B0",
"7X c #A0C59F",
"8X c #F7CC9D",
"9X c #D8C9A8",
"0X c #C6CCB9",
"qX c #EBC8A9",
"wX c #F5C9A7",
"eX c #EBCDB4",
"rX c #F3C8B9",
"tX c #FAD4B5",
"yX c #C7E5B8",
"uX c #F7E9B2",
"iX c #9091CF",
"pX c #B094D3",
"aX c #8FB2CF",
"sX c #B5B9CF",
"dX c #BDA7D8",
"fX c #918FEF",
"gX c #A697EE",
"hX c #B2AFF3",
"jX c #CEB3D1",
"kX c #CBB4EC",
"lX c #E2BEE2",
"zX c #B0CBE1",
"xX c #D5CAD5",
"cX c #E9C7C6",
"vX c #F7CDC8",
"bX c #ECCCD9",
"nX c #F6CCD4",
"mX c #E8DADB",
"MX c #F6D8D0",
"NX c #ECEBD5",
"BX c #D5CCF3",
"VX c #EED1EC",
"CX c #DAE1E0",
"ZX c #F5EDEF",
"AX c #FBF5EA",
"SX c #E8EBF9",
"DX c #FEFCF5",
"FX c #FAF4F9",
"GX c #F5FCFE",
"HX c #FDFDFD",
/* pixels */
"2.>.B K +.T X ] ] ( ] N c [ ^ X...Z <._ ( D ^ X.^ D C ) K K ) =.] <.D ` ! Q %.%.} S D ^ c N D 4.=.( ] M B B T K v S I I  .x Z R ",
"+.#.) G K B Y #.Y z ( C v S _ ^ ^ S D D { ! V V ^ ( K N +.) Y D ( #.K &.! ! %.` ( _ ^ V ( =.D :.( ( #.K B C J A I v x  .I Z Z c ",
",.K +.C m ] =.] T z N { ( ( _ v b S N K #.B c ' Z ;.5.G K #.D Z D K ( ` C ! ` N N x S V ' A ) { ( m C >.+.K ) =.{ [ . Z S I l c ",
":.C ( m B #.A ( K B :.:.) ( ( N [ k R 2XdXiX:XOXoXV.V.Z.Z.gXzXZ { D ` G ~ C K %.D x v ^ { l &.( D ) C >.2.) ) +._ V D { v I [ I ",
"_ { :.C #.D K >.B M K 4.#.C +.5.r.y.N.b.H.D.A.L.S.P.D.D.D.G. X>XaX5.) c 2.>.G 4.N { D { { x ) >.M :.L G :.K B 2.,.V ( V v ^ { ( ",
"^ ^ } W N B ` >.#.L L w.L P e.$ b.z.J.!.).).(.E.).E.S.J.!.{.K.D.z.XXi.N &.w.#.` ) 0.{ ( { D K #.#.] #.K ] B z >.N c } D c W { D ",
"( V D ( N { #.+.#.G >.+.L t.e.# b.L.^.(./.(.].)._.!.|.@XH.D.{.!.^.I.x.OX<X+.$.+.e.r.#.C N z N C ] K #.L ] ] K #.! W } ! N ! { C ",
"V } V ( <.#.) ~ K +.o.) K L #.P i.B.G.K.^.`.Y.(./.J.XXBXfXk.J.`.(.~.^.L..XaX=.e.x.y.#._ D ( #.( ) #.K n T ( K #.` ) ) } { C ! ! ",
"V { _ { q.` ] ~ C #.+.) ] ] ` #.I I -XoXA.T.T.Y.~.F.pXVXBXZ.l.U.Y.`.Y.'.K. X;Xn.L.$ ) %.1.%.( 4.4.T J K #.] m ) ) N N %._ m { ) ",
"#.! D B K #.] ) G &.+.C #.N { { Y Y ) @.>X XT.`.!.F.kXVXVXhXH.U.E.Q.).).W.Y.^.J.S.$ C ' %.>.K T >.o.K A ] =.Y N ] ` N N { { 4.( ",
"#.K z B K K K ~ ~ ~ ) D ` ) { ) Z m ~ +.i.oXS.(.K.+XhXhXfX@X^.Y.).E.[./.W.W.Y.S.A.$ ( C B ( { N J ) K K T c l N #.:.&.K ] { ( Y ",
"K ( :.{ ) ) K ] G ) +.( ,.:._ { c M @.-XXXG.^.(.!.{..Xx.G.J.'.(.E.)._.[.W.R.Q.^.A.$ C :.( K D m K ) m m ] Z k l =.] >.>.` ] m A ",
"+.K :.+.T ) #.K m #.) 1.K ( ( ( { r.Z.H.J.!.~.`.(.~.K.L.'._.[.(./.[./.R.].Q.E.Y.J.$ N ' { N m c ) ~ D I ' I Z ( { +.~ ` ) ) K B ",
"! ` +.:.K B ) T A ) ) ( Y B D ( =Xb.D.'.(.].E.R.].).(./.)./.E.`.K.D.D.L.K.Y.Y.`.!.$ _ V ( Z =.A B ~ ` ' D m c <.] +.Q N ~ ~ K D ",
"! +.&.) T >.J ] T Y J A T { c =XG.K.'.].E.Q.W.].).)./.)._.E.`.P. X>XfXOXH.!.[.R.).G.U [ D ( Y A $.2.' D ' ..S [ ] B ! B &.#.C T ",
"~ C C C B T J ) T X K #.z N # A.^.].W.W.R.W.W.W.).).).).(.(.!. XhXGXGXGXhX}.J.'.).J.| D ( :.Z =.q.&.C D A ( V ( ( B ` &.2.#.) ) ",
"+.+.m { B ] +.=.] K A =.m | A.E.(.E.).[._.).).W.).(.[.E.).~.D.fXGXGXGXHXHXOXz.J.P.A.{ D l N ) ,.) &.` K M z ] ] B B ] >.#.) A Y ",
"+.#.D ] B ) { ~ #.) K ] ( k.L.^.^.^.~.U._.).R.].E.E.E.E.].^.H.hXHXHXDXHXFX@ + j.j.b.K { C l D :.#.m >.) +.] T ] ] ) B K #.Y c R ",
"B L :.#.) K ] C B ) A T B A m o j.G.L.^.(.).].W.Q.].].W.W.U.n.BXGXHXGXGXZX+   iX:X# C ! { D K K >.~ %.B K ) m =.T 2.) N { { m  .",
"K K +.:.z K C B ) K K @.m Z =...5.=XV.H.!.).W.R.E.E.R.W.].^.n.hXGXDXHXGXFX    SXxXo ~ _ ( { +.K { ` D ! _ { ( A A K { W ( :.m R ",
">.! _ _ c :.{ C ] ] ] ] 1.N { 1.( [ c hX+X!.].).].(.].].(.L.j.iXGXHXHXHXFX& % HXxX% ` C ! 0.%.G N #.D c ( ' <.A ( c ! W N { c l ",
"x ( q.N } { _ q.#.~ { K N x ( ( c ' i.fX|.!.[.(.~.(.).K.F.V.C.iXSXHXDXHXHXjXxXFXZXmX~ ` ~ ~ +.&.m N { W x D ..c [ { C N C _ Z c ",
"V l { V C ` ( %.! _ { D x [ V S S t.OXG.P.`./._.(.~.!.|.iXjXxX0X0XNXAXDXHXHXAXcX5X5X%   ` ` +.&.( l C #.K ( N ' ' ..N ) ` ) ( <.",
"1.x D C _ %.N ~ +.~ K m D q.V ( ;.N.G.T.T.Y.[.(.`.!.I.*XVXrX9X9X9X9XMXAXHXZXeXqXO   K >.~ ! +.` D v ) =.#.Y S  .^ V K >.G ~ [ ^ ",
") K N B 4.` #.L +.~ o.B @.=.A D y.l.P.Y.`.~.'.Y.E.U.I.gXbXtXwX8XwXeXvXcXbXbXrXrX3XC ] q.) N K #.D W ,.#.D ] ^ ^ / x N #.~ K { S ",
"@.-.K #.>.) 2.#.2.$.o.$.>.@.=.N V.x.H.H.l.F.z.G.L.L.D.XXBXvXwX8X8XwXvXnXbXnXvXwX( ) N :.! D ) { ( ^ ( ) :.] Z b  .x C +.~ ) v b ",
"T #.#.$.L ~ o.+.L $.B ) K z ( i.dXdXpXdXdX1X$Xm.j.x.l.F.XXkXbXqXwXwXtXvXnXnXrX[ Y z K Y D ( ! ~ { { C { ( I Z S b ^ N B ` ~ ( ' ",
"K #.) #.G m G ) 2.>.C t.HXDXNXZXFXVXVXbXnXbXxXBXhXiXXX}.x.V.$XjXcXcXnXvXcX] ..I A X ;.GXGXC ) ) D D N D K D I Z ( N %.G +.4.#.( ",
"K ( ( D m z ( K >.( A HXGXGXGXCXHXbX1XjXjXdXdXkXxXxXkX&XF.I.k.c.m.#X1XjXr._ _ <.{ r.HXHXGXGXD :.C ! l m B =.N c D ( 0.2.+.~ ) D ",
"( B #.! N D >.) ) ` ZXHXGXGXHXZXmXHXmXkXgXm.c.C.$XpXkXC.l.}.V.Z.$XM.@ 1XD W ( C &.GXHXDXHXGX%.4.{ _ ) G C ) D I V ' ) ~ +.+.B C ",
"T K K #.] m ) ) K &.DXHXGXGXHXHXZXSXSXOXx.D.I.D.F.}.}.v.c.pXjXeXrXcX,X,X6.( N c ( HXFXHXHXGX) V _ ) >.3.F +.' [ V C $.O.O.+.D N ",
"T >.:.` ) C m K 2.] yXHXGXHXHXHXHXSXiXk.L.(.)././.!.I.v.dXcXqX8XwXwXrX5Xt.( N ( K FXHXHXGXGXC ` } ( ~ O.T -.' V V V #.&.3.H C D ",
"+.] +.) [ S v D #.K +.GXHXHXHXGXHXSX.XP.Y.Q.).(.(.!.F.&XlXrXwX8X8XwXcXjXjXjX<X] #.7XHXHXGXD N ! C C L F O.O.M . ( ! { B &.o.G M ",
"L ] ) ' V S c V ( T K #.0XZXZXHXHXiXz.P.^.^.~.[.`.K.H.fXVXvXtXeXcXxXpXC.v.c.#X5.T ( ( :.#.K B N ( D ] 3.-.F m C c ( { D +.$.+.C ",
"L K :.D ( { k D ' ( ( K #.( C :.V N.k.G.n.H.!./.`.T.K.@XVXnXcXlXiX.Xl.I.D.F.k.>.T ( c [ =.m c D N Y ) 3.O.o.) } <.:.W C B +.! ! ",
"( c ) A ( ( Z N :.' %._ :.%.B ( ;.N.V.aXzXhX+X/.].Y.U.H.&XpXpXC.k.H.D.K.~.^.$ :.#.m A I D ( C K C D #.@.) B ~ { <.( { N B #.~ Q ",
"{ N N c D Y Y { :.C C ( ! ) #.z Z <X7X) 5.gXJ.(.U.Q.].U.G.l.l.H.H.H.fX.XS.P.] 6.B B v D ' >.:.:.I Z ( #.4.%.C V V l #.D #._ ) ! ",
"<.V C ' c ] ) 1.( _ %.( N B { Y Z ..) K iXx.G.L.+XL.P.^.P.L.I.D..XfXSXhX X .r.B D { D v { ` C :.( { :.) { { D ( V c ) :.D N C { ",
"^ [ D ' D ( T { ` { %.N V ( D D N Z ,.u..XG.z.fXsXfXV.k.l.l.x.c.hXSXGXGXBX,.7.K B ( D v _ { { D m K { N 9.( D ! N ( #.,.c c N %.",
"D D :.Z ' ( B C K ) &.K N D { ( I K r.V.F.G.>Xr.#.B sXgXfXgXpXM.5XFXHXHXHXp.>.4.` c V x #.&.( C A >.C c _ _ N D ..N T T ( C D ` ",
"( C x V S D D C C M K K z { [ I =.r.V.F.x.@X<X:.4.A D ] +.d.%X; i vXFXHXFXd.C &.,.N v V { { C C { #.) K v V . ~ <.( m J D :.m ~ ",
":.K l ^ b x [ { N ) K m m ( ..D T C.k.x.OX-XD ] K #.m B ] d * > * f 6XMXMX3X! G C ! } :.D K } D ] J =.N N x K ( :.' >.C ( ) K &.",
">.{ N [ ^ b [ S ' { C -.] N NXHXSX:Xb.Z.7XC N K ] B B B t.u : = = > : i h < , G D 1.:.c :.) { K ) ) ] N V D #.) N ] >.T B ] ] 2.",
"#.K c ( [ [ Z ^ { N ) ] O < 6XAXHXGXSXt.R { K D { ) M #.t.u : 3 1 3 3 3 - - 7 f ' { V V ) ) ' ( >.T N K %._ K ] K =.( D Z K K ) ",
"~ ) ) ' V ^ x [ { x D O , > < 6XHXHXHXh.J ' D ' ( A ) +.C ,Xr * 3 1 1 1 3 > < 6XNX( D { c A :.m A D { <._ K N K =.{ D D D ) T $.",
"L +.( D c ..I Z ( [ *.< 3 3 > i 6XZXAXd.:.:.) C A =.( A K ) s.p t - 6 6 2 q 4XAXDXt.X.v Z ) A B D ] { D { ,.D z { N V v ( K M o.",
"~ &.` D z Z Z S [ ^ 0 7 3 3 = = y h f.d.K ) ( N D ' N N D C +.d.u.0 7 2 e f.tXAXHXFXx I { M Y { ,.) W c :.) ( ( K l b v <.K T O.",
"L 2.#.M K =.( D S ' w 7 3 3 1 3 3 7 i ,Xt.M { N { ' ( D K ` ) &.D t.a q g.uX9XeXAXnXO D 1.M ) B #.D D 1.#.C ( %.( C k E :.) ) o.",
"B ) +.G +.] { V V D ] w - 3 1 1 > j vXyX0Xm { D W ( ( #.+.! %.Q { { t.8.t.uXNX9XwXi < p #.#.B B B ( V { 2.#.z ( +.#.N D ( &.C K ",
") ) ~ &.#.C C N ( N B $.w , 3 > 4XMXDXDXmX5X6.:.C C ) K >.G ! %.{ c _ N C 8.uXtXg : > f $.L L :.( x C ( ,.K K D ) G C K ~ >.( K ",
"0.) G #.+.K ) N D m L o.>.a.< 4XZXHXHXFX6Xi j 6XN ( =.z ( _ _ W V S l C N ( 6.g.e 9 6 t +.>.,.~ #.m ( :.{ m _ :.] C _ ( +.4.{ +.",
">.) K %.C ) &.K c ) &.#.) { N ( HXHXHX6Xy 7 7 f 4X] ( N N c N N D D N Y T #.( q 6 5 4 < #.&.#.K #.] K { ) K W W { N %.:.) ] ~ ) ",
") G B >.m ` ) ) K 0.] ) ` K N C +.h.ZXj > 9 9 6 7 h R V v S ..A [ c V ' V I =.a 6 5 8 < K D ) #.T K B ] 0.[ N V D W } :.) N m ] ",
"+.G ) #.D _ ) ) @.>.:.B ! ( ) #.o.&.s.; > 6 9 9 7 , d Z ^ Z ..Y ' Z v S x V Y a.f 6 7 0 N ( #.) ) Y A { :.D N [ [ N c ! _ #.+.~ ",
"G ~ >.&.#.K ( K G M :.D C :.,.#.0.$.t.s < , , , - t r  .' c I ' [ N { N N ..Z I *.t < a D ( ) ) ] =.J B c ( C C V W N m C &.>.#.",
"G ~ H #.) K C ) J n c m W :.:.B $.#.! 7.d.p %Xs h s s.Z ( I I ] [ c D { A 4.' D ..u.p s.&.( N _ Z A A m V [ ( ( C { #.M m #.2.G ",
"! &.~ +.#.` ! B =.) m B ( D N ) ) K K +.B D ) D ^ C N A Z A D ) ( c _ { N <.N V V ' N D >.` N C Z l A ( c Z K T #.K M M ) L +.K ",
"! ~ +.$.] #.{ x :.,.) B { D A ,.C N ( K c { D D ^ ' ( K n A A { _ K _ #.C :.D D c <.%.! ` C ` C V S c N D Z M -.@.#.M T -.+.K :.",
"V C +.H ) 0.{ N D { ( z ( Y T c :.C ( Z K { D D ( ( >.) T L K K +.K D ( D _ ( D C ! _ { _ K q.~ :.<.Z ..( A -.3.K @.o.T -.+.=.T ",
"Q C ~ B K $.{ B ) Y c m N x ] I ' [ c A =.{ v V [ D #.K ) M K K L +.%.,.D } ( c #.D N ! { ) ) #.V { V { { B @.L T 3.o.B #.M ) Y ",
"` %.G N K B K K ,.D c ..:...( I Y I x Y D N :.D D D A ) #.n M >.` Q ` &.1.%.D v <.( N B +.>.L #.' C _ C ) B K K ) 7.( ) D D D ..",
"~ ,.` c D ~ B #.) Z ^ [ D 1.Y z K T l Z Z x D ' c #.D M >.T J T %.C N C 1._ v V D x A A K +.] K ) ( _ _ ,.K c C ( #.{ V :.' D [ ",
"o.L <.C N #.L -.T Z ^ b x ..T n T #.A <.D C m { { { Z c =.K A J ` 2.C ( x ' x Z Z D =.( ] K J $.+.G B ,.) ~ [ ^ :.( c ^ ^ ^ V S ",
"&.L _ } W C F -.M :.X.b x Z ] -.J @.,.' [ N ' ,.) { { D m ] -.@.2.,.Q ( l V ( Y ..' ..D A A M +.) B B ) ~ K } ^ C :.x b ^ S Z v "
};
