/* XPM */
static char *_1ce0ca3e782466fab05d26217997c78xQnKGdi95mPJUnUI[] = {
/* columns rows colors chars-per-pixel */
"64 64 253 2 ",
"   c #130C15",
".  c #7A1816",
"X  c #762416",
"o  c #0D7E00",
"O  c #137D00",
"+  c #3C733F",
"@  c #6A5D24",
"#  c #76652B",
"$  c #641F77",
"%  c #377F50",
"&  c #3A6772",
"*  c #494D4D",
"=  c #4F5872",
"-  c #5D6E68",
";  c #910D14",
":  c #881618",
">  c #99141B",
",  c #BA1B18",
"<  c #BA221F",
"1  c #8C1A23",
"2  c #AF1A26",
"3  c #913030",
"4  c #B32A30",
"5  c #D7131C",
"6  c #E01C1E",
"7  c #CF251E",
"8  c #ED221E",
"9  c #C81727",
"0  c #DA1924",
"q  c #EF1D25",
"w  c #D12B31",
"e  c #E62729",
"r  c #EE242F",
"t  c #9D4935",
"y  c #AE2E53",
"u  c #A32963",
"i  c #D32843",
"p  c #8C4B4A",
"a  c #AF494B",
"s  c #A46753",
"d  c #AA5E66",
"f  c #B66F6A",
"g  c #C74E4E",
"h  c #D76D5B",
"j  c #0C8100",
"k  c #148500",
"l  c #1B8600",
"z  c #158A00",
"x  c #1C8C00",
"c  c #1D9302",
"v  c #1D9906",
"b  c #228602",
"n  c #228D01",
"m  c #2A8D01",
"M  c #249303",
"N  c #2B9504",
"B  c #259905",
"V  c #2B9905",
"C  c #249509",
"Z  c #2B950A",
"A  c #259A0B",
"S  c #2C9C0B",
"D  c #339506",
"F  c #329A06",
"G  c #389906",
"H  c #31960C",
"J  c #339C0C",
"K  c #399D0E",
"L  c #3C8F19",
"P  c #299810",
"I  c #2C9D11",
"U  c #349D12",
"Y  c #3A9E12",
"T  c #359F1B",
"R  c #26A20E",
"E  c #2EA10D",
"W  c #30A007",
"Q  c #34A10D",
"!  c #39A20E",
"~  c #2DA313",
"^  c #2EA81A",
"/  c #34A313",
"(  c #3BA414",
")  c #36A915",
"_  c #3CA916",
"`  c #34A518",
"'  c #3CA519",
"]  c #35AA1A",
"[  c #3CAB1B",
"{  c #3DB11C",
"}  c #359726",
"|  c #3B953A",
" . c #38A723",
".. c #3DAD22",
"X. c #3DB323",
"o. c #459315",
"O. c #42A515",
"+. c #4BA617",
"@. c #42AA16",
"#. c #41A61A",
"$. c #43AC1C",
"%. c #4AAD1C",
"&. c #44B11D",
"*. c #4AB21E",
"=. c #4B983B",
"-. c #64983D",
";. c #48A526",
":. c #43AD21",
">. c #4BAC23",
",. c #44B323",
"<. c #4BB423",
"1. c #4CB825",
"2. c #48B828",
"3. c #4CBB2A",
"4. c #51BA25",
"5. c #55B829",
"6. c #52BC2B",
"7. c #52AD33",
"8. c #63B638",
"9. c #4BC02B",
"0. c #55C12D",
"q. c #5AC634",
"w. c #68CF3C",
"e. c #389642",
"r. c #4A8E4E",
"t. c #5AA950",
"y. c #6AA746",
"u. c #6DB153",
"i. c #548C75",
"p. c #62A068",
"a. c #6DB06D",
"s. c #7AC668",
"d. c #B49E77",
"f. c #88B16F",
"g. c #D19273",
"h. c #E38A74",
"j. c #1A1C81",
"k. c #252D93",
"l. c #1F2BBA",
"z. c #3A39AA",
"x. c #2929B8",
"c. c #332DB0",
"v. c #2832B7",
"b. c #3739B5",
"n. c #471D8B",
"m. c #4D3092",
"M. c #5130AA",
"N. c #334E94",
"B. c #364BAD",
"V. c #3647B8",
"C. c #494C8E",
"Z. c #506994",
"A. c #504FB6",
"S. c #6D4CB3",
"D. c #586DAB",
"F. c #746AB2",
"G. c #1E27CA",
"H. c #1B33C5",
"J. c #1C29D7",
"K. c #1D32DA",
"L. c #2729C6",
"P. c #352BCD",
"I. c #2833C8",
"U. c #3836C8",
"Y. c #282CD7",
"T. c #232CDB",
"R. c #2734D8",
"E. c #3335D9",
"W. c #1B29E5",
"Q. c #1B2CEB",
"!. c #1B31E9",
"~. c #1C2DF5",
"^. c #1928F8",
"/. c #1D2DFB",
"(. c #1B32F5",
"). c #1D32FB",
"_. c #272CE7",
"`. c #232CEC",
"'. c #322FE1",
"]. c #2833E8",
"[. c #3136E5",
"{. c #232CF4",
"}. c #292AF7",
"|. c #232DFC",
" X c #2833F7",
".X c #2331FC",
"XX c #433CC5",
"oX c #3747CE",
"OX c #3144E3",
"+X c #4F53D1",
"@X c #665ACA",
"#X c #6E6FCE",
"$X c #5862E3",
"%X c #646FF1",
"&X c #8C71A4",
"*X c #C67696",
"=X c #8A6FC9",
"-X c #857AEB",
";X c #68989A",
":X c #79B08E",
">X c #6F8EB6",
",X c #6A84CE",
"<X c #7084EE",
"1X c #9A8D8B",
"2X c #9EAB9B",
"3X c #9195BB",
"4X c #A590B2",
"5X c #D28C92",
"6X c #DAB796",
"7X c #E6BA94",
"8X c #CD9FB0",
"9X c #CDB1AC",
"0X c #F3B7B0",
"qX c #8BC495",
"wX c #ADCEAC",
"eX c #F4CA99",
"rX c #CBDDA7",
"tX c #F8C8AA",
"yX c #FCD5AB",
"uX c #F6C5B8",
"iX c #F0D1B0",
"pX c #F1EEB5",
"aX c #9190D1",
"sX c #AD95D4",
"dX c #9FA0DA",
"fX c #8E92F0",
"gX c #97A5F4",
"hX c #B4ADF0",
"jX c #AAB9FF",
"kX c #CAB6D0",
"lX c #EDB7C9",
"zX c #D3A3E5",
"xX c #CDB6F3",
"cX c #A6CAC7",
"vX c #D7CFC9",
"bX c #E8CAC7",
"nX c #F7C9C8",
"mX c #F7D5C6",
"MX c #E6CAD6",
"NX c #F0D2D4",
"BX c #FBD6DC",
"VX c #FFFBCA",
"CX c #FFECD9",
"ZX c #C8C5EB",
"AX c #D6D6FA",
"SX c #E8D0EF",
"DX c #D5EAFF",
"FX c #F8E9EB",
"GX c #FDF6EC",
"HX c #E9E9FF",
"JX c #F2F1F8",
"KX c #F9F7FB",
"LX c #FDFDFE",
/* pixels */
"4.<.N J @.Y O ' ' / ' M x ] ~ X...C 2.) / S ~ ,.~ S V ( J J ' :.' 1.S _ Q W &.&.{ A S ~ x M S 6.:./ ' n N N Y H c A I I  .z C I ",
"@.$.( F J N U $.U l / V c A ) ~ ~ A S S [ / A A I / J M @.( U S / $.J *.Q Q &._ / ) ~ A / :.S ,./ / $.J N V H Z I c z  .I C C x ",
"1.J @.V n ' :.' Y l M [ / / ) c v A M J $.N x ` C $.$.F J $.S A I J Q _ V Q [ M M z A B ` Z ( [ / n V <.@.J ( :.[ ] o C A I k x ",
",.V / n N $.Z / J N ,.:.( / / M ] j M V _ ( S / [ J J ! N $.S C [ S [ S Q V J &.S z c ~ [ k *./ S ( V <.6.( ( @.) B S [ c I [ I ",
") [ ,.V $.S J <.V m J 6.@.N ' / T xXhXfXfX-X<XfXgXhXxXf.b ( $.Z ( / _ n 4.<.F 6.M [ S [ [ x ( <.n ,.K F ,.J N 4.1.B / B c ~ [ / ",
"~ ~ { E M N _ <.$.K K w.J b t.;XD.A.b.P.P.Y.L.L.I.b.A.S.=XdXqXb M S ! M *.w.$._ ( 0.[ / [ S J $.$.' $.J ' N l <.M x { S x E [ S ",
"/ A S / M [ $.@.$.V <.O.t.;XoXK.K.T.'.].}.}.`.].`.J.Y.U.x.c.V.<X3Xu.( _ G @.%.@._ <.$.V M l M V ' J $.K ' ' J $.Q E { Q M Q [ V ",
"B { B / 2.$.( ! J @.>.t.C.x.E._.`.{.{.{.|.|.|.|.|..XQ.G.x.+XoXl.b.A.fXqX! :XaXF.F 1.$.) J / $./ ( $.J n Y / J $._ ( _ { [ V Q Q ",
"A [ ) [ q._ ' ! V $.@.=.r.- Z.B.I.J. X|.^.|.|././.{.W.x.F.xX@XL.T.T.R.+X<X+XI.A.u.n ( &.3.&./ 6.6.Y H J $.' n ( ( M M &._ n [ ( ",
"$.Q S N J $.' ( F *.@.V $.M :.t.i.A.I.Y.].{.^..X/._.L.A.ZXSXaXx.`. X{.W.].K.T.XXu.N V ` &.<.J Y <.O.H Z ' :.U M ' _ M M [ [ 6./ ",
"$.J l N J J J ! ! ! ( S _ ( [ ( M n p.Z.L._..X^.~.Y.M.zXnXNXzXA.G.|.{.`.W.]._.+Xa.S / V N / [ M J ( H H U x k M $.,.*.J ' [ / U ",
"J / ,.[ ( ( J ' F ( @./ 1.,.) [ n N ' $.>XR.Q.).W.x.=XlXlXlXxX@XY.{.~. X`.`.`.OXjXS V ,./ J S n J ( n n ' C j k :.' <.<._ ' n Z ",
"@.J ,.@.Y ( $.J n $.( 3.J / / / [ 1.' ;.:X+X!.!.T.+XzXzXsX=X+XE._.{.~.~.Q.{.`.R.$XqXM ) [ M n x ( ! S I ` I C / [ @.! _ ( ( J N ",
"Q _ @.,.J N ( Y Z ( ( / / N S S [ 7.p.Z.B.Y.(.Q.G.%X-XS.z.U.Y.{.{.~..X)..X.X.X!.H.fX) B / M :.Z N ! ( ` S n x 2.' @.W M ! ! H S ",
"Q @.*.( Y <.H ' U U H Z / [ x $.a.Z.v.Y._.`.|.{.].'.'.T.!.W.W. X.X~.|.{.{.~.~.(.Q.+XcX) S / U Z *.4.` S ` ..A ] ' N Q N *.$.V Y ",
"! V V V N Y H ( Y O H $.l M =.Z.v.T. X|.}.}.^.|.}.`.|././.).(.Q.!.K.R.Y.T.].(.)./.[.gXE / ,.C :.q.*.V S Z / A / / N _ *.4.$.( ( ",
"@.@.n [ N ' @.:.' H J :.x & I.R.].`./.|.|.~.|.|.{.{..X|.|..X).!.oX<XgXfX+XI.!.~./.K.fXS k M ( 1.( *._ J n l ' ' N N ' <.$.( Z U ",
"@.$.S ' N ( [ ! $.' H r.N.R.`. XQ.{.|..X.X|.|.|..X~.|.}.}.}.Q.OXjXJXKXKXHX<XR. X{.R.,X[ V k S ,.$.n <.( @.' Y ' ' ( N J $.U x T ",
"N K ,.$.( J ' V N ( % H. X{.{.Q.|..X(.~.{.|./.).).~.}.}.{.].J.%XLXLXLXLXLXJX$Xl.'.L.aX! [ S J J <.! &.N J ( n :.Y 6.( M [ [ n  .",
"J J @.,.l J V N ( & v.R.W.`.].].`.~.(.Q.|.|.~.(.(.~.|.|.`._.R.fXKXLXLXLXJXLXC.j.U.k.dX_ / _ @.J [ _ S Q ) [ / Z Z H [ E / ,.n T ",
"<.Q ) ) x ,.[ S - = = Z.B.B.V.v.T._._.}.|.|.Q.(.~.).|.|.{._.I.fXLXLXLXLXLXJX*   aXC.4XN Q 0.&.F M $.S x / ` 2.Z / x Q E M [ x k ",
"z / q.M { [ _ q.[ ! [ J P } p.>XD.A.U.P._..X(.).)././.|.|._.G.%XKXLXLXLXKXGX*   AX= 1X>.! ! @.*.n M [ E z S ..x [ [ V M V ) C x ",
"B k [ B V _ / &.Q ) [ S l ` B A A 7.dX#XE.`.~.^.|.|./.~..X{.T.+XAXLXLXLXLXLX* * HX= 1X>.[ _ @.*./ k V $.J / M ` ` [ M ( _ ( / 2.",
"3.z S V ) &.M Q [ ! J n S q.B / / I a.fXE.W.~..X}.|..X~.{.'.U.A.kXFXLXLXLXLXvXvXLXkX2XwX! Q @._ S c ( :.$.U A ..~ A J <.F ! ] ~ ",
"( J M N 6._ $.K O.! O.V #.:.Z S [ cX%X[.{./.~.{. XW. X{._.U.aXMXuX9XFXLXLXGXmXbX8X1X- 2X:.M J $.S E 1.$.S ' ~ ~ ^ z M $.! J [ A ",
"#.>.J $.<.( 5.$.5.%.O.%.<.#.:.P i.B.J.).|.|..X{.W. X}. XE.fXMXtXtXiXbXMXMXbXuXuXs     + t.S ( [ / ~ / ( ,.' C v ..z S @.! ( c v ",
"Y $.$.%.J ! O.O.K %.N ( J l ' i.V.J. X.X^..X/.~..X|.{.T.b.hXuXeXeXyXnXNXBXbXtXyX6Xl H 7.S / J ! [ [ V [ / I C A v ~ M N _ ! / ` ",
"H $.( $.F n F ( 4.<.V ' $.S r.z.I.R.Y.J.`.|.|.|.|.|.{.R.z.aXmXeXeXeXmXnXnXmXiX;.Z O U J S V ( ( S S M S J S I C / M &.F @.6.$./ ",
"J / / S n l Q J <./ M ( S } k.B.C.Z.F.-X[.}.{.|.|. XT.v.m.C.4XbXiXeXtXtXtXiX>.2.[ ( _ ! V V S ,.V Q k x N :.M x S / 0.4.@.! ( S ",
"/ N $.Q M S <._ ( ( M M S | e.} =.7.t.fXP.Y.T.T._.L.M.#XsX4X&X&X9XmXtX0X7XQ / V *.' &.$.) 2.&.6.[ ) ( F V ( S I A ` ( ! @.@.N V ",
"Y H J $.' n ( ( J *.( M S I I I m b 3Xb.v.oX#X<X+XM.&XlX0X0XlX1X= kXNXuX( / M x / / S _ Q B _ V ) ) <.5.D @.` ] B V %.+.+.@.S M ",
"Y <.<.[ ( V n J 1.' @.[ [ M ~ x ' u.A.z.A.jXDXDXAX=X8X0X0X0XuXMX3XhX&.<.[ / M / J / c ) V V V [ { / ! +.O.>.` B B B $.*.5.G V S ",
"O.' @.( ] A c S $.J @.6._ M ~ k U ;XC.dXHXKXLXJXHXkXlX0XuXuXuXMXdXaXZX>.[ ( ! ' $./ x S S S M Q V V K D +.+.n o / Q [ N *.O.F n ",
"J ' ( ` A A x A / Y J $.' M [ [  .N.dXLXLXLXLXLXLXNXmXnXnXBXkXaXA.z.B.V ( $.$.( Y / / ,.$.J N M / S ' 5.>.D n V x / [ S @.%.@.V ",
"J J ,.S / [ j S ` / / J $./ V 3.} z.HXLXLXLXKXLXLXGXbXBXSXsX@Xc.P.E.Y.J M n ! <.( / x [ :.n x S M U ( 5.+.O.( { 2.,.Q V N @.Q Q ",
"/ x ( Z / / C M ,./ &.) ,.&.N u.% A.HXLXLXLXKXLXLXKXSXxX=Xc.L.[.}.}.].O.! V $.,.@.n C S S / V S V S $.#.( N ! [ 2./ [ M N $.! W ",
"[ M M x S U U [ ,.V V / / ( :.r.+  .s.LXLXLXLXLXLXHXhX+XI.E.Y.T.}.}.L.4.*.*.( ! N N c S ` <.,.,.I C / $.6.&.V B B k $.S $.) ( Q ",
"2.B S ` x ' ( 3./ ) &./ M N [ p.a.:.t.rXKXLXLXLXKXaXz.v.G.OX%X[.{.T.Z.$.( &.N N S [ S c [ _ V ,./ [ ,.( [ [ S / B x ( ,.S M V [ ",
"~ ] S ` S / Y [ _ [ &.M M / S S M C 1.f.GXLXKXJXfXb.z.@XfXjX%X[.R.V.K N &.*.@.F N / S c ) [ [ S n H [ M 9./ S Q M / $.1.x x M &.",
"S S ,.C ` / N V J ( *.J M S [ / S J J H 2XAXhXF.M.m.S.SXLXaXv.x.V.:XJ ( &.1.&.6._ x B z $.*./ V Z <.V x ) ) M S ..M Y Y / V S _ ",
"/ V z A A S V V V n J J l [ [ I :.Y $.( a.D.m.$ u y *XKXLXZXdXdXcX( $.J ! @.V *.1.M c B [ [ V V [ $.( J c B o ! 2./ n H V ,.n ! ",
",.J k ~ v z ] [ M ( J n n / ..S U U ' 1.:Xm.$ u i 9 g lXGXLXLXKXu._ O.@.N V ! J V Q { ,.S J { S ' H :.M M z J / ,.` <.V / ( J *.",
"<.[ M ] ~ v ] A ` [ V >.' M A ` Y J $.7.>Xm.u i r 0 , a 0XKXLXFXx ( $.V J V V V S 3.,.x ,.( [ J ( ( ' M B S $.( M ' <.Y N ' ' 4.",
"$.J x / ] ] v ~ [ M ( ' [ V ~ I :.J Y cX+Xn.y e q 6 7 < 3 0XBX8.M N ( ,./ / M $.` [ A B ( ( ` / <.Y M J &.) J ' H :.` S C J J ( ",
"! ( ( ` A ~ z ] ] z S U / [ / M Z n U >Xx.M.u e r 5 5 9 2 4 a J S n N $.J Q V J S / S [ x Z ,.n Z S [ 2.) J M J :.[ S S S ( Y %.",
"K @./ S x ..I C ` ] B S M [ S C U U qXF.c.S.*X4 w e 0 w w 4 1 >.S Z 6.J M S $.( S ,...c C ( Z N S ' [ S [ 1.S l ' M B c / J m O.",
"! *._ S l C C P ] ~ z c S V S :.Z 7.f.ZXaX3XlXa , 7 w 4 g a f >.:.x ' / x [ $.C S 2.z I [ n U [ 1.( E x ,.( / / J k v c 2.J Y +.",
"J 4.$.n J :./ I A ~ B M [ 1.) / x -.BXLXLXFX8Xf t h h.h.uXCXGX8.Q ` [ S / S / l U C x S 3.n ( N $.S S 3.$.V / &./ V j R ,.( ( O.",
"N ( @.F O.' [ A B S ' 5.m ( E c T 3 a 5XlX0Xp p g.yXyXiXCXGXGXu.{ [ 2.[ [ / ( M J ( / n $.$.N V N / B [ 4.$.l / O.$.M S / *.V J ",
"( ( ! *.$.V V M / M N %.5.<.B v 3 > 2 3 3 3 X g.iXpXVXiXpXCX0X5X[ x ) B V S M $.,.( J ' @.J J ,./ z S ( 1.J J S ( F V J ! <./ J ",
"0.( F $.@.J ( M S n K O.<.1.B { : > > > 1 : 3 yXpXrXVXyXh.a w w w # k V M U x [ / ( V O.O.<.1.! $.n / ,.[ n ) ,.' V ) / @.6.[ @.",
"<.( J &.V ( *.J x ( *.$.( [ M o.: > > ; ; : s VXVXpX7Xh.4 7 6 8 q w @ / U [ / Z M Y J @.@.*.$.J $.' J [ ( J E E [ M &.,.( ' ! ( ",
"( F N <.n _ ( ( J 0.' ( _ J M o.: ; 1 1 : . d.CXVX6X3 2 9 6 q q 8 6 < # C I :.n / / / [ J S ( $.Y J N ' 0.] M A S E { ,.( M n ' ",
"@.F ( $.S ) ( ( #.<.,.N Q / ( $.# 1 . 1 1 3 bXGXCXf . ; , 0 r q e e 5 9 @ L U Z H Y [ M M / $.( ( U Z [ ,.S M ] ] M x Q ) $.@.! ",
"F ! <.*.$.J / J F m ,.S V ,.1.$.6.>.s p 3 p NXKXBXp . : > 2 w 9 0 0 r 6 w 4 -.U M S J M S / ( ( ' :.H N x / V V B E M n V *.<.%.",
"F ! G $.( J V ( H b l n E ,.,.N *.$.Q 8.5X5XwXwXvXp p a a a d y 4 2 e e w g f.S [ / x M *.! M ) C Z Z n B ] / / V [ $.n n $.4.F ",
"Q *.! @.$._ Q N :.( n N / S M ( ( J J @.N S ` S ~ y.y.y.y.u.u.vX1Xf h h h d.C B A ) M S <._ M V C k Z / x C H Y $.J m m ( J O.J ",
"Q ! O.%.' $.[ z ,.1.( N [ S Z 1.V M / S x [ S S ~ ` / J b Z Z [ ) ( u.u.V ,.S S x 2.&.Q _ V _ S A A x M S C m >.@.$.m Y >.@.J ,.",
"B V @.G O.0.[ M S [ / l / U Y x ,.V / C H [ S S / / <.( Y K J J @.J S / S ) / S V Q ) [ ) J q.! ,.2.C ../ Z >.5.J #.O.Y >.@.:.Y ",
"W V ! N J %.[ N ( U x n M z ' I ` [ x Z :.[ c B ] S $.J ( m J J J @.$.1.S { / x $.S M E [ _ ( $.B [ B [ [ N #.K Y 5.O.N $.n ( U ",
"[ &.F M J N J J 1.S x ..,.../ I U I x U S M ,.S S S Z ( $.b m <._ W _ *.3.&.S c 2./ M N @.<.J $./ V ) V ( N J J ( 6./ ( S S S ..",
"! 1.[ x S ! N $.( C ~ ] S 3.U l H U k C C z S ` x $.S n <.Y H Y *.V n V 1.) c A S z Z Z J @.' J ( / ) ) 1.J x V / $.[ B ,.` S [ ",
"O.J 2.V M $.K >.Y C ~ v z ..U b Y $.Z 2.S V n [ [ [ C x :.H Z H ' 4.S / z ` z C C S ,./ ' H H %.@.F N 1.( ! ] ~ ,./ x ~ ~ ~ B A ",
"*.J ) { E V D >.n ,.X.v z C ' >.H #.1.` ] M ` 1.( [ [ S n ' >.#.4.1.W / k A / U ..` ..S Z Z m O.( N N ( ! J { ~ V ,.z v ~ A C c "
};
