/* XPM */
static char *ae4255fa39fe4711fc729bb9f55a61d6yFczbg1GcMq5PTVi[] = {
/* columns rows colors chars-per-pixel */
"64 64 249 2 ",
"   c #1A0204",
".  c #233027",
"X  c #0D7E00",
"o  c #137D00",
"O  c #37783D",
"+  c #625C27",
"@  c #78592E",
"#  c #73712F",
"$  c #243750",
"%  c #2B585E",
"&  c #33656B",
"*  c #70605C",
"=  c #B41D1C",
"-  c #9A271A",
";  c #B01C23",
":  c #952B2E",
">  c #B82527",
",  c #AC2B30",
"<  c #A63439",
"1  c #B93235",
"2  c #CD0D1C",
"3  c #C8151B",
"4  c #D5121A",
"5  c #CB1823",
"6  c #D71925",
"7  c #E91B26",
"8  c #C7232B",
"9  c #D6252B",
"0  c #C92A34",
"q  c #CE3137",
"w  c #E7262B",
"e  c #EB252F",
"r  c #975232",
"t  c #C7463A",
"y  c #A53B43",
"u  c #96504B",
"i  c #BA4848",
"p  c #B04D51",
"a  c #AF6658",
"s  c #BA5E65",
"d  c #9E6B60",
"f  c #C65555",
"g  c #D76266",
"h  c #D36E6E",
"j  c #0C8100",
"k  c #148500",
"l  c #1B8600",
"z  c #158A00",
"x  c #1C8C00",
"c  c #1D9202",
"v  c #1C9807",
"b  c #248603",
"n  c #228D01",
"m  c #2A8D01",
"M  c #249303",
"N  c #2B9504",
"B  c #259905",
"V  c #2B9906",
"C  c #249509",
"Z  c #2C960A",
"A  c #259A0B",
"S  c #2C9C0B",
"D  c #329506",
"F  c #329A06",
"G  c #389906",
"H  c #31960C",
"J  c #339C0C",
"K  c #399D0E",
"L  c #2B8B13",
"P  c #2A9611",
"I  c #2C9D11",
"U  c #339D12",
"Y  c #3A9E12",
"T  c #379A1C",
"R  c #26A20E",
"E  c #2EA10D",
"W  c #30A007",
"Q  c #34A20D",
"!  c #3AA20E",
"~  c #2DA212",
"^  c #2EA81A",
"/  c #34A313",
"(  c #3BA414",
")  c #36A915",
"_  c #3CA916",
"`  c #34A518",
"'  c #3CA519",
"]  c #35AA1A",
"[  c #3CAB1B",
"{  c #3DB11C",
"}  c #39912C",
"|  c #38A920",
" . c #3DAD21",
".. c #3DB323",
"X. c #479619",
"o. c #42A515",
"O. c #4BA617",
"+. c #42AA16",
"@. c #42A61A",
"#. c #43AC1C",
"$. c #4AAD1C",
"%. c #44B11D",
"&. c #4AB11E",
"*. c #51962F",
"=. c #679237",
"-. c #43AD21",
";. c #4AAD22",
":. c #4BA72D",
">. c #44B323",
",. c #4BB423",
"<. c #4CB826",
"1. c #47B828",
"2. c #4CBB2A",
"3. c #51BA25",
"4. c #55B829",
"5. c #52BC2B",
"6. c #52A932",
"7. c #55BC37",
"8. c #67B137",
"9. c #4BC02B",
"0. c #55C12D",
"q. c #5AC533",
"w. c #68CF3C",
"e. c #3B8055",
"r. c #468F52",
"t. c #768A51",
"y. c #5BA951",
"u. c #6EAE4D",
"i. c #54906F",
"p. c #699773",
"a. c #5FAE67",
"s. c #6FAD6C",
"d. c #6ED15D",
"f. c #899454",
"g. c #93A66C",
"h. c #CD8D6E",
"j. c #9FC37C",
"k. c #2D3093",
"l. c #393799",
"z. c #1725B3",
"x. c #3736A9",
"c. c #292ABB",
"v. c #312AB0",
"b. c #2937B6",
"n. c #3537B8",
"m. c #4F3F91",
"M. c #335387",
"N. c #304AAD",
"B. c #3E65AD",
"V. c #4A4F95",
"C. c #4A6F8A",
"Z. c #4A4AB1",
"A. c #6B5CAE",
"S. c #4D6FAD",
"D. c #746AAD",
"F. c #1929CA",
"G. c #1C36CA",
"H. c #1D28D9",
"J. c #1C32DA",
"K. c #272BC8",
"L. c #322CCB",
"P. c #2937C8",
"I. c #3538C8",
"U. c #262AD9",
"Y. c #2933DA",
"T. c #3639D6",
"R. c #1B2AE6",
"E. c #1C2CEC",
"W. c #1D32E9",
"Q. c #1827F3",
"!. c #1C2BF4",
"~. c #1D2DFB",
"^. c #1D31F6",
"/. c #242BE4",
"(. c #272AE9",
"). c #232CED",
"_. c #312EE6",
"`. c #2832E7",
"'. c #2628F5",
"]. c #232CF4",
"[. c #242CFB",
"{. c #2B2CFD",
"}. c #2332F3",
"|. c #2432FA",
" X c #2A31F8",
".X c #3747D1",
"XX c #3D44EA",
"oX c #4D4CCD",
"OX c #5B6ACC",
"+X c #6E70CF",
"@X c #6A66E0",
"#X c #8C7AAD",
"$X c #D27D80",
"%X c #8474E9",
"&X c #568386",
"*X c #719C91",
"=X c #74A88B",
"-X c #7093A9",
";X c #788FD1",
":X c #7A8AEA",
">X c #929093",
",X c #88BA96",
"<X c #9490B3",
"1X c #B496B0",
"2X c #8AAFB2",
"3X c #D28F8C",
"4X c #EC9693",
"5X c #CFAB90",
"6X c #EAA99A",
"7X c #E99FA6",
"8X c #D6AAA5",
"9X c #D1B8AC",
"0X c #D7BAB9",
"qX c #E3B4A6",
"wX c #EDB0B0",
"eX c #91CC8B",
"rX c #B6D3B4",
"tX c #C8C3B6",
"yX c #DBC8B9",
"uX c #F8C8A7",
"iX c #E6C7B7",
"pX c #F0D3B1",
"aX c #FFECBC",
"sX c #8C8CC6",
"dX c #B4AFCB",
"fX c #9E99EC",
"gX c #98A6EF",
"hX c #ACABF3",
"jX c #C8B6D7",
"kX c #C4B6F2",
"lX c #A9CCCE",
"zX c #D7C8CD",
"xX c #F0CCCC",
"cX c #FED7D7",
"vX c #D4E9D3",
"bX c #F1EED2",
"nX c #FFE8D9",
"mX c #D3CEF5",
"MX c #E6D6EC",
"NX c #FDDDE4",
"BX c #DBE8FF",
"VX c #EAEFED",
"CX c #FCE6E7",
"ZX c #FBF4E7",
"AX c #F8EDF7",
"SX c #FBF7F5",
"DX c #FDF5FC",
"FX c #F4FDFF",
"GX c #FDFDFD",
/* pixels */
"3.,.N J +.Y o ' ' / ' M x ] ~ .. .C 1.) / S ~ >.~ S V ( J J ' -.' ,.S _ Q W %.%.{ A S ~ x M S 5.-./ ' n N M Y H c A I I | z C I ",
"+.#.( F J N U #.U l / V c A ) ~ ~ A S S [ Q A A I / J M +.( U S / #.J &.Q ! %._ / ) ~ A / -.S >./ / #.J N V H Z I c x | I C C x ",
"<.J +.V n ' -.' Y l M [ / / ) c v A M J #.N x ` C #.#.F J #.S A S H / _ V ! _ M M z A B ` Z ( [ / n V ,.+.K ( -.[ ] X C A I k x ",
">.V / n N #.Z / J N >.>.( / / M ] j M V _ ( S / [ J J ! N #.S C #.S _ F Q V J %.S z c ~ [ k &./ S ( V ,.3.( ( +.) B S [ c I [ I ",
") [ >.V #.S J ,.N m J 5.#.V ' T } & N.G.P.K.K.F.J.F.G.N.O } #.Z ( / ( n 3.,.F 5.M [ S [ [ x ( ,.n >.K F >.J N 3.<.B / B c ~ [ / ",
"~ ~ { E M N _ ,.#.K K w.K O & b.K.U.}.!.Q.^.|.~.~.~.^.E.R.U.K.M.L J ( n &.w.#._ ( 0.[ / [ S J #.#.' #.J ' N l ,.M x { S z E [ S ",
"/ A S / M [ #.+.$.N ,.o.K $.>.P e.x.(.{.[.~.~.~.].[.}.E.!.}.U.K.I.k.( _ G +.$.+._ ,.#.V M l M V ' J #.K ' ' J #.Q E { Q M Q [ V ",
"B { B / 1.#.( ! K +.( ( J K #.M 6.i.x.U.}.!.!.[. X!.].].].H.K.oXoXv.L.M.! N K N F <.#.) J / #./ ( #.J b Y / J #._ ( _ { [ V Q Q ",
"A [ ) [ q._ ' ! V #.+.( _ ' _ #.S S i.V.b.W.^.!.'.'.'.)./.K.Z.fXfXl.c.Y.U.H K #.,.n ( %.2.%./ 5.5.Y H J #.' n ( ( M M %._ n [ ( ",
"#.Q S N J #.' ( F &.+.V #.M _ [ I / ( 6.S.F.).|. X{.'.).U.v.sXmXkXZ.K.(.!./.r.>.<.N V ` %.,.J Y ,.o.H Z ' -.U M ' _ M M [ [ 5./ ",
"#.J l N J J J ! ! ! ( S _ ( [ ( M n K eX;XI.U.).].].!.E.U.OXmXMXmXOXF.E.|.R.L.} _ S / V N / [ M J ( H H Y x k M #.>.&.J ' [ / U ",
"J / >.[ ( ( J ' F ( +./ 1.>.) [ x a.-XS.n.K._.).].].[.R.F.@XfXD.N.P.`.].|.)./.v.( S V >./ J S n J ( n n ' C j k -.' ,.,._ ' n Z ",
"+.J >.+.Y ( #.J n #.( 2.J / / | *XB.G.Y././.`.).{.'.[.!.H.XXI.c.Y.).E.].Q.].).U.M.B M ` [ M n x ( ! S I ` I C / [ +.! _ ( ( J N ",
"Q _ +.>.J N ( Y Z ( ( / / N y.C.b.H. X|.!.!.E.).[.[.!.]. XR.(.(.[.!.).`.Y.H.`.`.c.i.) B / M -.Z N ! ( ` S n z 1.' +.W M ! ! H S ",
"Q +.&.( Y ,.H ' Y U H Z / a.B.G.Y.].~.Q.|.].E. X[.{.!.E.|.Q.{.{.[.).Y.I.+X+XP.Y.K.OXB ) S / U Z &.3.` S `  .A ] ' N Q N &.#.V Y ",
"! V V V N Y H ( Y o H #.r.N.G.J.E.[.[.[.].].|.].[.[.].|.!.[.[.'.].`.I.hXFXFXgXP.Y.oXT S / >.C -.q.&.V S Z / A / / N _ &.3.#.( ( ",
"+.+.n [ N ( +.-.' H J a.I.Y.R.}.].'.'.{.'.!.|.^.~.[.'.'.].].'.].E.Y.OXDXDXDXFX;Xc.n.s.S k M ( 1.( &._ J n l ' ' M N ' ,.#.( Z U ",
"+.#.S ' N ( [ ! #.' *.x.T./.Y.U./.).(.(.'.[.!.!.~.~.[.].'.'.[.|.E.P.hXGXDXGXFXBXoXx.dX[ V k S >.#.n ,.( +.' Y ' ' ( N J #.U x T ",
"N K >.#.( J ' V N :.N.x.v.c.v.n.Y.J.`./.).].'.[.~.~.].).).[.~.!.}.T.mXFXGXGXFXFXhXk.lX! [ S J H ,.! %.N J ( n -.Y 3.( M [ [ n | ",
"J J +.>.l J V N ( ' r.a.i.p.-X2X:X.XF.H.H.].[.[.[.!.E.}.}.].!.].(..XmXFXGXGXFXFX<X$ lX_ / [ +.S [ _ S Q ) [ / Z Z H [ E / >.n T ",
",.Q ) ) x >.[ V ' ( ( ' 2.M [ 7.;XP.z.F.R.].!.].].].].}.W.W.]. X(.I.mXFXDXGXSXGX>X$ eXN ! 0.%.F M #.S z / ` ,.Z / x Q E M [ x k ",
"x / q.M { [ _ q.#.J [ J M x / sXk.z.z.H.].].Q. X'.{.[.E.W.`.).U.K.x.mXGXGXGXSXGX>X. rX[ ( ! +.&.n M [ E x S  .x [ [ V M V ) C x ",
"B k [ B V _ / %.! ( [ S x ] ,Xl.z.z.F.H. X{.'.{.'.{.!.!. X`./.T.Z.A.1XnXSXGXGXDXtX* s.t.:._ +.&./ k V #.J / M ` `  .M ( _ ( / 1.",
"2.x S V ) %.M ! +.J J n S d.&Xk.z.F.H.}.'.[.{.'.[.[.~.[.].H.T.@XhXjX8XqXxXCXAXMXtX*     + ! ' [ S c ( -.#.U A | ~ A J ,.F ! ] ~ ",
"( J M N 5._ #.K o.! o.V o.s.& & C.T.U.].[.[.].].|.Q.^.|.'._.Z.hXjX8X6X4X6X8X9X9XyXd * 8.( M J #.S E 1.#.Z ' ~ ~ ^ z M #.! J [ A ",
"o.;.J #.,.( 4.#.4.$.o.$.,.6.=Xs.i.c./.].|.].}.E.Q.^.^.!.'.U.+XjX0XqX6X4X6XqXiXiX9XyXg.>.Q S ( [ / ~ / ( >.' C v | z S +.! ( c v ",
"Y #.#.#.K ! o.o.K $.N ( J l / y.& `.`.).).R.}.R.}.^.Q.~.{.U.+XmXzXwXqXqXcXCXSXSXSXVXu.U S / K ! { [ V [ / I C A v ~ M N _ ! / ` ",
"H #.( #.F n F ( 3.,.V ' #.S / y.M.(.U.K.U.Y.F.`.R.).}.).(.L.V.dXzXcXCXNXGXGXGXGXGXGXy.J S V ( ( S S M S J S I C / M %.F +.5.#./ ",
"J / / S n l ! J ,./ M ( S C c >.b.J.N.N.Z.Z.oXK./.)./.K.oXA.k.V.#XMXGXAXGXGXGXGXGXGX7./ V V S >.V Q k n N -.M z S / 0.3.+.! ( S ",
"/ N #.Q M S ,._ ( ) n M S / A I L T *X,X,X,XsXL. X).U.@XkXjX#X#X<XMXGXVXFXFXGXGXGXSX2.[ ) 1.%.5.[ ) ( F V ( S I A ` ( ! +.+.N V ",
"Y H J #.' n ( ( J &.( C S S I I T L U o.o.s.oXR.].E._.%XMXxXxXxXyXZXSXVXGXFXFXGXGXGXS _ Q B _ B ) ) ,.4.D +.` ] B V $.O.O.+.S M ",
"Y ,.>.[ ( V n J 2.' +.[ [ C ~ x ' ( H -.+.-XK.[.].).U.oX#X5XqX6X5XnXZXZXZXVXSXGXDX/ M ) V V V _ { / ! O.o.;.` B B B #.&.4.G V S ",
"o.' +.( ] A c S #.J +.5._ M ~ k S ( S S :.S.H.[.U.K._.K.l.dXiXuXqXpXiXiXyXtXVXeX#./ x S S S M Q V V K D O.O.n X / Q [ N &.o.F n ",
"K ' ( ` A A z A / Y J #.' M [ [ S ~ / B s.N.`.U..XOXY.Y.Z.hXxXuXuXqXqXpXzX0XrX( Y / / >.#.J N M / S ' 4.;.D n V x / [ S +.$.+.V ",
"K J >.S / [ j S ` / / J #./ V >.A 2.c x s.n.c.oX2X2XT.U.x.kXxXuXuXuXuXxXjXL ' ,./ / x [ -.n x S M U ( 4.O.o.( { 1.>.Q V N +.Q Q ",
"/ x ( Z / / C M >./ %.) >.%.N / S S / ( a.l.Z.=X( =X.XY.v.#XxXuXuXuXpXzXD.x.#.>.#.n C S S / V S V S #.o.( N ! [ 1./ [ M N #.! W ",
"[ M M x S U U [ >.V V / / ( #.l M / 1.' p.m.>XU [ gXY.W.K.l.>XqXiXiXzXD.n.F.F.! N N c S ` ,.>.>.I C / #.5.%.V B B k #.S #.) ( Q ",
"1.B S ` x ' ( 2./ ) %./ M N [ U M [ ( J y.1Xu.' a.OXF.J.I.+X1X8X9XyXMXmX:XP.T.L U [ S c [ _ V >./ [ >.( [ [ S / B z ( >.S M V [ ",
"~ ] S ` S / Y [ _ [ %.M M / S S M N 1.M F +.+.V fXb.P..XgX( 9X7X5XnXGXDXDXfXl.F N / S c ) [ [ S n H [ M 9./ S Q M / #.<.x z M %.",
"S S >.C ` / N V J ( &.J M S [ / S J J n V V ,.gXn.I.b.gX-.#.4X< a nXSXGXGXbX%.5._ x B z #.&./ V Z ,.V x ) ) M S  .M Y Y / V S _ ",
"/ V z A A S V V V n J J l [ [ I -.U #.( _ n hX.XK.n.sX#.#.9Xi ; > g cXSXDXeXF &.1.M c B [ [ V V [ #.( J c B o ! 1./ n H S >.n ! ",
">.J k ~ v z ] [ M ( J n n /  .S Y J o.tXlX2X.XP.c.%X*.m 5Xu , 3 5 8 f cXAX0X! J V Q { >.S J %.J ' H -.M M z J / >.` ,.V / ( J &.",
",.[ M ] ~ v ] A ` [ V ;.' M A ` U =.rXvX2XZ.K.L.A.s.N N s : = 3 6 e 9 g cX7X: V S 2.>.z >.( [ J ( ( ' M B S #.( M ' ,.Y N ' ' 3.",
"#.J x / ] ] C ~ [ M ( ' [ V ~ I u.eXAXFXhXl.b.oXdX( m #.s < > 3 5 e 6 5 f u : @ ` [ A B ( ( ` / ,.Y M J %.) J ' H -./ S C J J ( ",
"! ( ( ` A ~ z ] ] x S U / [ / X.=.CXDXFXBX-X% 2X/ Z ( @.X.3X< ; 5 3 5 > : a 3X8XS / S [ x Z >.n Z S [ 1.) J M J -.[ S S S ( Y $.",
"K +./ S x  .I C ` ] B S M [ S @ u cXDXGXFXFXzXtXZ -.( Z J ( h.i ; 0 > , h cXZXSXj.>. .c C / Z N S ' [ S [ 1.S l [ M B c / J m o.",
"! &._ S l C C A ] ~ z c S V # ; , 4XDXDXAXCX0X5XS ` M M S V +.u.s : : 4XSXAXAXNXcX1.z I [ n U [ 1.( E x >.( / / J k v c 1.J Y O.",
"K 3.#.n J  ./ I A ~ B M [ 1.; 5 > 1 wXAXNXcX$Xu g.` / J J +.! &./ =.=.NXDXDXwXs p u :.S 2.n ( N #.S S 2.#.V / %./ V j R >.( ( o.",
"N ( +.F o.' [ A B S ' 4.m ( ; 4 e 9 q g g i : : f.y./ +.+.! %.W { [ 1.[ DX7X1 8 > , f.n #.#.N V N / B [ 3.#.l / o.#.M S / &.V J ",
"( ( ! &.#.V V M / M N $.4.,.; 9 7 7 e 9 > : f 7XNXu.o.K ,.F ! %.[ z ) B V u ; 3 3 > f 8._ K K >./ x V / <.J J S ( F V J ! ,./ J ",
"0.( F #.+.J ( M S n K o.,.<.@ 5 e e e 9 < 6XCXSXCXcXg.*.` ) ) E B A k S M @ > 3 3 8 i 8.o.,.<.! #.n / >.[ n ) >.' V ) / +.5.[ +.",
",.( J %.V ( &.J x ( &.+.( [ M < 9 w w t 6XZXnXwXh i 1 i t.x M B S S M / U [ r = 3 8 i 8.+.&.#.J #.' J [ ( J E E [ M %.>.( ' ! ( ",
"( F N ,.n _ ( ( J 0.' / _ J M =.r > t h.pXnX4X1 > 8 9 5 8 i u.Z [ x M ` C I  .- 9 8 u [ J S ( #.Y J M ' 0.] M A S E { >.( M n ' ",
"+.F ( #.S ) ( ( o.,.>.N Q / ( #.O.r a aXpX5Xt 9 9 3 4 4 7 w q i f.C c A z B U X.0 , =.M M / #.( ( U Z [ >.S M ] ] M z Q ) #.+.! ",
"F ! ,.&.#.J / J F m >.S V >.1.#.0.8.j.pXaX6Xt 9 6 2 3 4 4 w w 9 1 # [ n M  .C I # y J M S / ( ( ' -.H M x / V V B E M n V &.,.$.",
"F ! G #.( J V ( H b x n E >.>.N $.#.Q d.j.h., 0 5 5 3 2 7 e w w q : S [ Z 5.` S [ *.x M &.! M ) C Z Z n B ] / / V [ #.n n #.3.F ",
"! &.! +.#._ Q N -.( n M / S M ( ( S J +.:.f.p < > 8 5 6 6 6 9 0 1 r ) [ M 1.M B A ` M S ,._ M V C k Z / x C H Y #.J m m ( K o.J ",
"! ! o.$.' #.[ x >.<.( M [ S Z ,.V n / S x [ :.f.h f q q q , < u =.( ) #.V >.S S z 1.%.Q _ V _ S A A x C S C m ;.+.#.m Y ;.+.J >.",
"B V +.G o.0.[ M S [ / l / U Y x >.V / C H [ S S ~ -.8.8.Y K J J +.J S / S ) / S V Q ) [ ) J q.! >.1.C  ./ Z ;.4.J o.o.Y ;.+.-.Y ",
"W V ! N J $.[ N ( U x n M x ' I ` [ x Z -.[ c B ] S -.J ( m J J K +.%.1.S { / x #.S M Q [ _ ( #.B [ M [ [ N o.K Y 4.@.M #.n ( U ",
"_ %.S M J N J J 1.S z  .>. ./ S U I x U S M >.S S S Z ( #.b m ,._ Q _ &.2.%.S c 1./ M N +.,.K #./ V ) V ( N J J ( 7./ ( S S S  .",
"! <._ z S ! N #.( C ~ ] S 2.Y l H Y k C C z S ` x #.S n ,.Y H Y %.S M V 2.) c A S z Z Z J +.' J ( / ) ) 1.J x V / #.[ B >.` S [ ",
"o.K 1.V M #.K ;.Y C ~ v z  .Y b Y #.Z 1.I V n [ [ [ C x -.H Z H _ 3.S / x ` x C C S -./ ' H H $.+.F N <.( ! ] ~ >./ z ~ ~ ~ B A ",
"&.K ) { E V D ;.n >...v z C ' ;.H o.1.` ] M ` <.( [ [ S n ' ;.@.3.,.W ! k A / U  .`  .S Z Z m o.( N N ( ! J { ~ V >.z v ~ A C c "
};
