/* XPM */
static char *_01e52de8c8547dfa52b86229e4f19dcMaxlCbxjRrzls1YY[] = {
/* columns rows colors chars-per-pixel */
"64 64 252 2 ",
"   c #1C0C29",
".  c #48362A",
"X  c #137C00",
"o  c #2F7C0C",
"O  c #5F6424",
"+  c #746D2F",
"@  c #2B3168",
"#  c #317C4D",
"$  c #37636E",
"%  c #505B4F",
"&  c #447279",
"*  c #B21417",
"=  c #B61A16",
"-  c #A5251F",
";  c #A91A24",
":  c #B91D21",
">  c #962E2F",
",  c #AA2629",
"<  c #B62529",
"1  c #AE3032",
"2  c #C30F0E",
"3  c #C7171A",
"4  c #D4161B",
"5  c #D2291E",
"6  c #CA1C26",
"7  c #D81A23",
"8  c #C62329",
"9  c #D72327",
"0  c #D02B34",
"q  c #E52628",
"w  c #E92435",
"e  c #8B522C",
"r  c #985C33",
"t  c #C14D2F",
"y  c #B53A43",
"u  c #A94A4E",
"i  c #A86962",
"p  c #C85353",
"a  c #CF625C",
"s  c #D06E71",
"d  c #0C8100",
"f  c #148500",
"g  c #1B8600",
"h  c #158A00",
"j  c #1C8C00",
"k  c #1D9302",
"l  c #1D9906",
"z  c #228703",
"x  c #228D01",
"c  c #2A8D01",
"v  c #249303",
"b  c #2B9504",
"n  c #259905",
"m  c #2B9906",
"M  c #249509",
"N  c #2B950A",
"B  c #259A0B",
"V  c #2C9C0B",
"C  c #329506",
"Z  c #329A06",
"A  c #32960C",
"S  c #39960A",
"D  c #339C0C",
"F  c #399D0E",
"G  c #308A15",
"H  c #2C9D12",
"J  c #299519",
"K  c #349D12",
"L  c #3A9E12",
"P  c #359F1C",
"I  c #26A20E",
"U  c #2EA10D",
"Y  c #30A007",
"T  c #34A10D",
"R  c #39A20E",
"E  c #2DA313",
"W  c #2EA81A",
"Q  c #34A313",
"!  c #3BA414",
"~  c #36A915",
"^  c #3CA916",
"/  c #34A519",
"(  c #3CA519",
")  c #35AA1A",
"_  c #3DAB1B",
"`  c #3DB11C",
"'  c #3A962C",
"]  c #38A821",
"[  c #3DAD22",
"{  c #3EB524",
"}  c #449917",
"|  c #42A415",
" . c #4BA617",
".. c #42AA16",
"X. c #41A61A",
"o. c #43AC1C",
"O. c #4AAD1C",
"+. c #43B11D",
"@. c #4AB21E",
"#. c #4B972E",
"$. c #6A9134",
"%. c #48A727",
"&. c #43AD21",
"*. c #4BAD22",
"=. c #54AC2A",
"-. c #44B322",
";. c #4BB423",
":. c #4CB926",
">. c #47B828",
",. c #4CBA2A",
"<. c #52BA25",
"1. c #55B729",
"2. c #52BC2B",
"3. c #48A635",
"4. c #58A433",
"5. c #57B835",
"6. c #62BC36",
"7. c #4BC02B",
"8. c #55C12C",
"9. c #5AC634",
"0. c #68CF3C",
"q. c #3A884F",
"w. c #56994E",
"e. c #56A946",
"r. c #5AB247",
"t. c #57AA58",
"y. c #6CB24D",
"u. c #4F916B",
"i. c #65936F",
"p. c #74B766",
"a. c #73B274",
"s. c #66C34F",
"d. c #868953",
"f. c #939E7D",
"g. c #8BB173",
"h. c #E69769",
"j. c #85C279",
"k. c #353493",
"l. c #2E1BB3",
"z. c #1C2AB8",
"x. c #2C2FAE",
"c. c #3435A6",
"v. c #3429BA",
"b. c #2A37B8",
"n. c #3434B7",
"m. c #473599",
"M. c #4735AC",
"N. c #324F95",
"B. c #386992",
"V. c #3149AF",
"C. c #3245B9",
"Z. c #59599C",
"A. c #4A7492",
"S. c #5150AE",
"D. c #6857B1",
"F. c #7170B9",
"G. c #1B31CB",
"H. c #1A2AD7",
"J. c #282CC8",
"K. c #2935C6",
"L. c #3438C7",
"P. c #282AD7",
"I. c #242CDB",
"U. c #2733D8",
"Y. c #3630D3",
"T. c #1A29E6",
"R. c #1C2BEB",
"E. c #1730E9",
"W. c #1C29F7",
"Q. c #1C2CF4",
"!. c #1E32F5",
"~. c #272AE6",
"^. c #232CED",
"/. c #2933E5",
"(. c #2332EC",
"). c #323AE7",
"_. c #2628F6",
"`. c #232CF4",
"'. c #242DFA",
"]. c #292DFC",
"[. c #2232F4",
"{. c #2333FB",
"}. c #2A35FD",
"|. c #493AD1",
" X c #3A48C9",
".X c #3747D6",
"XX c #2342EB",
"oX c #4E53C9",
"OX c #6C59D9",
"+X c #5065CC",
"@X c #6F72D0",
"#X c #4E59E3",
"$X c #6D70EA",
"%X c #94769F",
"&X c #9178D5",
"*X c #639496",
"=X c #6AAD8E",
"-X c #7C90CB",
";X c #88BA90",
":X c #838EAF",
">X c #A198A0",
",X c #98B1B3",
"<X c #B4B4AF",
"1X c #D68D87",
"2X c #E89492",
"3X c #CEAD91",
"4X c #E8AB94",
"5X c #D1B8B1",
"6X c #F4B7B6",
"7X c #99CE8D",
"8X c #ACD2B0",
"9X c #D3C49B",
"0X c #E7C797",
"qX c #F7CB9C",
"wX c #D6C4B1",
"eX c #F9C9A9",
"rX c #F0D1AE",
"tX c #E9C9B9",
"yX c #F6CAB7",
"uX c #E1E8B7",
"iX c #908BD1",
"pX c #A098CC",
"aX c #B3ACD4",
"sX c #8E91F0",
"dX c #A994ED",
"fX c #90A5EC",
"gX c #B0B1F7",
"hX c #CAB0D1",
"jX c #FFBFC3",
"kX c #CCB1EA",
"lX c #A7C7DE",
"zX c #DAC5C7",
"xX c #CED4CE",
"cX c #E6CBC6",
"vX c #F3CECB",
"bX c #F7D6D4",
"nX c #D1E9CC",
"mX c #F8EECE",
"MX c #CECCF6",
"NX c #E8D3EB",
"BX c #DDE6F6",
"VX c #EBECE9",
"CX c #FEE8E5",
"ZX c #FDF5EB",
"AX c #EAEBFF",
"SX c #F9ECF8",
"DX c #EDF3FD",
"FX c #F7F4F7",
"GX c #FCFDF4",
"HX c #FEF4FD",
"JX c #F5FCFE",
"KX c #FDFCFE",
/* pixels */
"<.;.b D ..L X ( ( Q ( v h ) E { [ M >.~ Q V E >.E V m ! D D ( &.( >.V ^ T Y +.+.` B V E j v V 2.&.Q ( x b b L A k B H H ] h M H ",
"..o.! Z D b K o.K g Q N k B ~ E E B V V _ Q B B H Q D v ..! K V Q o.D @.T R +.^ Q ~ E B Q &.V -.Q Q o.D b m A N H k h ] H l M j ",
":.D ..m x ( &.( L g v _ Q Q ~ k l B v D o.b j / M o.o.Z D o.V B V D Q ^ m R ^ v v h B n / N ! _ Q x m ;...D ! &._ ) X M B H f j ",
"-.m Q x b o.N Q D b -.-.! Q Q v ) d v m ^ ! V Q _ V D R b o.V M _ V ^ m T m D +.V h k E _ f @.Q V ! m ;.2.! ! ..~ n V _ k H _ H ",
"~ _ -.m o.V D ;.m c D 2...b ^ Q V M _ x a.gXgXfXfXsXdXdXkXp.o.N ! Q ! j <.;.Z 7.v _ V _ _ j ! ;.x -.F Z -.D b <.:.n Q n k E _ Q ",
"E E ` U v m ^ ;.o.F F 0.F z F D %.w.i.F.D.S.b.K.G.K.n.M.M.S.fXlXb V R x @.0.o.^ ! 8._ Q _ V D o.o.^ o.D ^ b g ;.v j ` V h U _ V ",
"Q B V Q v _ o...o.m ;.| D *.r.w.A.N.n.J.P.~.~.T.T.~.P.J.P.U.U..X$XgX=.^ Z ..+...^ ;.o.m v g v m ^ D o.F ^ ^ D o.T U ` T v Q _ m ",
"n ` n Q >.o.! R D ..! ! D } %.$ K.I.~.].]._.`.`.Q.^.I.J.I.~.W.[.P.L.@XlXR b F b Z :.o.~ D Q o.Q ! o.D z L Q D o.^ ! ^ ` _ m T T ",
"B _ ~ _ 9.^ ^ R m o...! ^ ^ %.3.# N.I.^.].`.(.T.^.H.K.$XL.J.^.'.`.I.G. X-X%.D =.;.x ! +.,.+.Q 2.2.L C D o.( x ! ! v v +.~ x _ ! ",
"o.T V b D o.^ ! Z O...m o.b _ _ 3.*XA.c.P.H.H./.T.Y.c.gXdXc.P._.'.Q.R.U.b.F.a.i.N.' m / +.;.D L ;.| A N ( &.K v ^ ^ v v _ _ 2.Q ",
"o.D g b D D D R R D ! V ^ ! _ ! x x e.sXoXJ./.T.~.l.F.NXkX%Xv.P.[.{.^.(.(.U.V.c.J.q.Q m b Q _ v D ! A A L j f v o.-.@.D ^ _ Q K ",
"D Q -._ ! ! D ^ Z ! ..Q :.-.~ _ x c ^ ..gX#XH.T.~.l.&XhXhXkXOXP.R.!.'._.{.(.G.G.H.u.V -.Q D V x D ! x x ( M d f &.^ :.;...^ x N ",
"..D -...L ! o.D x o.! ,.D Q Q Q _ -.^ gX$XU.!.[.~.|.dXkXpXdX$XP.^.{.]._.R.E.XXH.H.& v / _ v x j ! R V H / H M Q _ ..R ^ ! ^ D b ",
"T ^ ..-.D b ! L N ! ! Q Q b V V _ e.iXS.J.~.Q.R.~.Y.OXD.m.M.J.U.(.R.].].{.E.T.E.I.& [ v Q v &.N m R ! / V x h >.^ ..Y v R R A V ",
"T ..@.! L ;.A ( L K A N Q _ j o.p.& c.J.~.`.^.`.^.~.P.P././.~.T./.H.}._.W.}.!.R.H.B.t.~ V Q K N @.<./ V / [ B ) ^ b T b @.o.m L ",
"R m m m b L A ! L X A o.g v m e.$ J.).(._._._.^.`.`.Q.Q.W.'.T.U. X#X.X/./.^.'.'.(.N.i.V Q -.M &.9.@.m V N Q B Q Q b ^ @.;.o.! ! ",
"....x _ b ! ..&.( A D &.j j 3.# U.(.[.}.[.`.]._._.`.R.`.'.].J.$XBXAXMX@Xb.U.[.!.R.U.*XV f v ! :.! @.^ D x g ( ( b b ^ ;.o.! N K ",
"..o.V ^ b ! _ R &.^ A ( Q V # I.^.}.!.!.{.R.W.].'.R.(.[.].~.oXBXHXKXKXAXfXC.I.[.(.G.A.r.m f V -.o.x ;.! ..^ L ( ( ! b D o.K j P ",
"b F -.o.! D ^ m b ! C L b G P.].'.}.[.!.{.!.!.{.[.[.!.T.Q.P.$XDXJXKXKXJXJXfXb.J.J.b.& e._ V D A ;.R +.b D ! x &.L 2.! v _ _ z ] ",
"D D ..-.g D m b ! D A ( x M q.V.I.I./.(.Q.!.{.Q.Q.!.Q.{.`.J.sXJXKXFXKXFXKXkX@ c.c.@ i.^ Q _ ..D _ ^ V T ~ _ Q N N A _ U Q -.x P ",
";.T ~ ~ j -._ m ^ ^ ^ ^ ,.M t.=XA.M.v.Y._.}.}.Q.'.'.Q.{.Q.H.@XJXJXJXFXFXHXhX  Z.aX. y.m T 7.+.Z v o.V h Q / >.N Q j T U v _ j f ",
"h Q 9.v ` _ ^ 9.o.R _ D b h Q / J pX&X|.~.W.W.}.`.'.{.Q.^.U.S.DXJXJXVXFXSXzX  >XhX% =._ R R ..@.x v _ U h V [ j _ _ m v m ~ M j ",
"n f _ n m ^ Q +.R ! _ V h ) n B B / ;XsXU.`.}.W.'.'.].`.I.x.k.aXDXGXFXSXHXNX% <XVX*.A R ^ ^ ..@.Q f m o.D Q v / / _ v ! ^ ! Q >.",
",.h V m ~ +.v R ..D D x V 9.n Q Q p.iXV.G.(.T.{.W.]._.P.oXiXpX5XxXmXCXKXSXHXVXVXZXnXD 6.p.%.| ( V k ! &.o.K B ] E B D ;.Z R ) E ",
"! D v b 2.^ o.F | R | m X.-.N V 3.gXb.z.G.H.(.R.`.^.P.OXkXcXtXrXrX9XbXGXKXSXZXcX<X% % % % r.D o.V U :.o.N ( E E W h v o.R D _ B ",
"X.*.D o.;.! 1.o.1.O.| O.;.X.&.v ,XN.C. X+X Xz.U.~.}.Y.sXNXrXeXeXqXrXtXbXCXbX5XtX3X. o #.t.L ! _ Q E Q ! -.( M l ] h V ..R ! k l ",
"L o.o.o.F R | | F O.b L D g Q a.Z.S.gXAXDXMX@Xx.P.~.U.$XNXyXeXeXeXeXvXcXcXtXrXrXrXG V K V Q F R ` _ m _ Q H M B l E v b ^ R Q / ",
"A o.! o.Z x Z ! <.;.m ( o.V 3.Z.Z.AXJXJXHXHXSX@Xv.P.U.n.iXzXvXeXeXeXvXvXvXtXrX9X} G K K V m ! ! V V v V D V H M Q v +.Z ..2.o.Q ",
"D Q Q V x g R D ;.Q v ! V M ' $ MXHXHXHXHXHXHXAXoXz.U.U.x.D.>XwXrXeXeXyXyXwX<Xs.*.! ( Q m m V -.m T f x b &.v h V Q 8.<...R ! V ",
"Q b o.D v V ;.^ ! ~ v v V Q J u.xXKXHXKXHXHXHXHXgX@XL.J.v.M.%X3X3X3X4X4X6XcX*.m @.! -._ ~ >.+.2._ ~ ! Z m ! V H B Q ! R ....b m ",
"L A D o.^ x ! ! D -.! M V V E a.nXGXKXGXGXGXKXHXNXaXdXM.m.&XzX9X0X0X0X1XyXbXv ' p.y.&.5.( n ^ n ~ ~ ;.1.C ../ ) n m O. . ...V v ",
"L ;.-._ ! m x D ,.^ .._ _ v E j 8XGXGXGXGXGXKXHXNXaX&XM.D.hXwX0X0X0XrX4X5XtXxXj.8XJXKX5.%.D m ^ ` Q R  .} *./ n n n o.@.6.S m V ",
"| ^ ..! ) B k V o.D ..2.^ v E f g.VXJXGXGXGXKXHXgX@X|.v.D.zXtXqX0XqXrX5XtXwXwXGXGXGXKXGX! V v T m m F C  . .x X Q T _ b @.| Z x ",
"F ^ ! / B B h B Q L D o.^ v _ _ V xXMXAXJXDXBXiXV.K.P.J.@XNXtXqXqXeXtX5XzXzXVXGXZXGXGXGX8XD m v Q V ^ 1.=.C x m j Q _ V ..O...m ",
"F D -.V Q _ d V / Q Q D o.Q m -.n s.fXS.F.@XS.c.J.I.(.J.D.NXyXqXqXqXxXp.8XxXVXKXHXKXKXJX7Xx j V v K ! 1. .| ! ` >.-.U m b ..T T ",
"Q j ! N Q Q M v -.Q +.~ -.+.b Q V 8XF.S.-XsXdX@XoXU.I.J.n.dXvXyXyXvXxX| ! xXxXHXHXHXJXJXV Q m U m V o.X.! b R _ >.Q _ v b o.R Y ",
"_ v v j V K K _ -.m m Q Q 4.a s f.8XpXlX;X=.m N ,XiXL.U.I. X&XhXaXhXp.<.@.@.xX7XKXKXJXnX! ;.-.-.E v Q o.2.+.m n n f o.V o.~ ! T ",
">.n m / j ( ! ,.Q ~ +.Q A > , u cXBX8Xp.m o.D ^ b r.+XH.(.I.c.m.k.S.:X;X! +.m p.j.y.V k _ ^ m -.Q _ -.! ` _ V Q n h ! -.D v m _ ",
"E ) V / V Q L _ ^ _ +.b < , > 6XHXAXaX#.C ....N j ] +X~.~.Y.n.n.J.Y.L.D.,X1.o.Z A ( V k ~ _ _ V x D _ v 7.E V + ] Q o.:.j h v +.",
"V V -.M / Q b m D ! o.0 6 < u bXHXkXm.S.*X3.;.&.o.3.L.I.J.*X,X$XL.P.P.Y.M.:Xj.2.^ j n h o.@.Q m N ;.m h #.r 0 r y.v L L Q m V ^ ",
"Q m h B V V m m m x 0 9 4 = u CXHXpXx.L.b. X=X-.2.A.U.K.A.&.m r.gX+XL.P.Y.L.@XlX:.v k n _ ^ m m _ .. .+ 0 9 9 r 5.Q x C m -.x R ",
"-.D f E n h ) _ v s < 8 3 : y CXHXaXS.b.K.K.b.C.B.K.G.C.%.b D m Q r.sX.XI./.z.+XMXT ` -.V D +.Y 4.+ > 6 7 7 8 $.-./ ;.m Q ! D @.",
";._ v ) E B ) m nXZX2X1 = : 1 6XHXSX8XfXS.b.J.U.U.G.V.u.! -.D m j ! o.=X+XG.U.K.Z.,X-.h -.! _ D + ; < 6 * : e X.v ( ;.L b ^ ^ <.",
"o.D j Q ) ) M d.CXZXZX4X1 < ; y %Xy.g.! ;X-XoXv.z.C.u.o.-.2.o.D v v ! ;.a.@XK.x.k.gX;Xv ! o.( r.1X1 = = 8 , $.( A &.Q V M D D ! ",
"R ! ! / B E o y 2XCXZXZX1X> , > N #.L ;.v / ( 3.#.K ! ..m ;.^ V V x b o.D 8X@Xk.:XDXNXzXi ;XnXGXmXa - = - + v D &._ V V V ! L O.",
"F ..Q V j [ 6 6 y 6XZXZXZXi O M L K L ( -.-.! m m &./ N D ! ^ o.V m 2.L v V MXMXDXKXHX6Xu a CXZXmX3Xa 1 e 1.V g _ v n k Q D c | ",
"R @.^ V g O 3 7 w p jXZXnXL D &.N _ K Q D ! Q v V / v v V m ..o.&.j ..! v _ HXHXKXKXCX2X0 < 4XmX9XuXqXi -.! Q Q D f l k >.D L  .",
"F <.o.x K < 3 4 w 0 p V _ :._ Q j H ! L D x _ M _ / Q V D ^ ! @.T / _ D Q V zXHXKXCXs 1 q q t 4XuXmXrX,...m Q +.Q m d I -.! ! | ",
"b ! ..Z + 3 3 4 w 1 ^ 1.c ! U k E m ( M ( j _ V U Q Q o.^ T +.Y ` _ >._ _ Q zXbX6Xp < 9 q q t h.mXuXX._ <.o.g Q | o.v V Q @.m D ",
"! ! R @., 8 : , + S b O.1.-.n l n ~ Q Q D o.K -.m m ! D ;.Z R +._ h ~ n m V g.u 1 < 9 q q 9 5 h.rX#.m Q <.D D V ! Z m D R ;.Q D ",
"8.! Z O.$.S $.} V x F | ;.:.n ` n f Q V ! :.! :.v Q -.g Q ~ ~ U n B f m v K $.1 < 6 9 4 4 3 3 p 6.x Q @._ x ~ -.^ m ~ Q ..2._ ..",
";.! D +.m ! @.D j ! @...! _ v ~ T m b V T D ! x ( D Q n v h v v V V v Q K _ %.p 8 9 3 2 3 6 < + o.^ A _ ! D U U _ v +.-.! ^ R ! ",
"! Z b ;.x ~ ! ! D 8.^ Q ^ D v m ..<.o.m m ^ ! m o.&.V B k B [ N _ j v / M H [ a 8 q 4 4 6 ; + =.L D b ( 8.) v B V U ` -.! v x ^ ",
"..Z ! o.V ~ Q Q X.;.-.b T Q ! o.| @...R ! R -.D b Q h M E M [ K / M k B h n K 1X< 6 9 = < $.o.! ! K N _ -.V v ) ) v h T ~ o...R ",
"Z R ;.@...D Q D Z c -.V m -.:.o.2.o.+.8.^ m ! ! v _ / H / j H / _ v _ v v [ M g.> 1 1 u $.Q ! ! ( &.A b j Q m m n U v x m @.;.O.",
"Z R Z o.! D m Q C z j x U -.-.b @.o.T ;.! X V _ Q _ Q M Q H H ( _ j V _ N 2./ V d.i d.} -.Q v ~ M N N x n ) Q Q m _ o.x x o.<.Z ",
"R @.R ..o.^ T b &.! x b Q V v ! ! D D ..b V / V E m v N M N V ! / j ~ _ v >.v n B / v V ;.^ v m M f N Q j M A L o.D c c ! F | D ",
"R R | O.^ o._ h -.:.! b _ V N :.m v Q V j _ V V E / Q D z N N _ ~ D ~ o.m -.V V h >.+.T ^ m ^ V B B j v V M c *...o.c L *...D -.",
"n m ..Z | 8._ v V _ Q g Q K L j -.m Q M A _ V V Q Q ;.! L F D D ..D V Q V ~ Q V m T ~ _ ~ D 9.R -.>.M [ Q N *.1.D X.| L *...&.L ",
"Y m R b D O._ b ! K j x v h ( H / _ j N &._ k n ) m o.D ! c D D F ..+.>.V ` Q j o.V v T _ ^ ! o.n _ n _ _ b X.F L 1.X.b o.x ! K ",
"^ +.V v D b D D :.V h [ -.[ Q H K H h K V v -.V V V N ! o.z c ;.^ Y ^ @.,.+.V k >.Q v b ..;.F o.Q m ~ m ! b D D ! 5.Q ! V V V [ ",
"R :.^ h V R b o.! M E ) V ,.L g A L f M M h V / j o.V x ;.L C L +.V v m ,./ k B V h N N D ..^ D ! Q ~ ~ :.D j m Q o._ n -./ V _ ",
"| F >.m v o.F *.L M E l h [ L z L o.N >.V m x _ _ _ M j &.A N C ^ <.V Q h / h M M V &.Q ( A C O...Z b :.! R ) E -.Q h E E E n B ",
"@.F ~ ` U m C *.x -.{ l h M ( *.S X.:./ ) v / :.! _ _ H x ( *.X.2.;.Y R f B Q K [ / [ V N N c | ! b b ! R D ` E m -.h l E B M k "
};
