/* XPM */
static char *_c6201ff68994839831573b6fede8349980LDFsIB21iWERA[] = {
/* columns rows colors chars-per-pixel */
"64 64 251 2 ",
"   c #7D181D",
".  c #137D00",
"X  c #7B5123",
"o  c #757433",
"O  c #262A44",
"+  c #346F68",
"@  c #635B56",
"#  c #970C13",
"$  c #89171A",
"%  c #981417",
"&  c #B01116",
"*  c #BA161C",
"=  c #891A25",
"-  c #AA1C26",
";  c #BA1F24",
":  c #922E31",
">  c #AA2627",
",  c #B7262C",
"<  c #B92A32",
"1  c #AB3037",
"2  c #C6161D",
"3  c #D7181E",
"4  c #E81C1C",
"5  c #C51923",
"6  c #D81B26",
"7  c #EA1E27",
"8  c #CB2529",
"9  c #DA2527",
"0  c #CD2D35",
"q  c #C83538",
"w  c #E92529",
"e  c #F42627",
"r  c #F02633",
"t  c #924630",
"y  c #A4553A",
"u  c #916A3F",
"i  c #B03341",
"p  c #AB4F4B",
"a  c #BB4853",
"s  c #9B605A",
"d  c #B5726D",
"f  c #CC5256",
"g  c #D47273",
"h  c #0C8100",
"j  c #148500",
"k  c #1B8600",
"l  c #158A00",
"z  c #1C8C00",
"x  c #1D9202",
"c  c #1C9807",
"v  c #218600",
"b  c #228D01",
"n  c #2A8D01",
"m  c #249303",
"M  c #2B9504",
"N  c #259905",
"B  c #2B9905",
"V  c #249509",
"C  c #2B950A",
"Z  c #259A0B",
"A  c #2C9C0B",
"S  c #329506",
"D  c #329A06",
"F  c #389906",
"G  c #32960B",
"H  c #339C0C",
"J  c #399D0E",
"K  c #2A9615",
"L  c #2C9D12",
"P  c #349D12",
"I  c #369C17",
"U  c #3A9E12",
"Y  c #26A20E",
"T  c #2EA10D",
"R  c #30A007",
"E  c #34A10D",
"W  c #39A20E",
"Q  c #2DA313",
"!  c #2EA81A",
"~  c #34A313",
"^  c #3BA414",
"/  c #36A915",
"(  c #3CA915",
")  c #34A519",
"_  c #3CA519",
"`  c #35AA1A",
"'  c #3CAB1B",
"]  c #3DB11C",
"[  c #38922A",
"{  c #38AA22",
"}  c #3DAD22",
"|  c #3EB323",
" . c #41A415",
".. c #4BA617",
"X. c #42AA16",
"o. c #41A61B",
"O. c #43AC1C",
"+. c #4AAD1C",
"@. c #44B11D",
"#. c #4BB21E",
"$. c #479A21",
"%. c #6C9339",
"&. c #43AD21",
"*. c #4AAD22",
"=. c #47A52B",
"-. c #44B323",
";. c #4BB423",
":. c #4CB926",
">. c #47B828",
",. c #4CBB2A",
"<. c #53B927",
"1. c #52BC2B",
"2. c #57A736",
"3. c #52AC33",
"4. c #63B235",
"5. c #4BC02B",
"6. c #55C12C",
"7. c #59C634",
"8. c #67CC3D",
"9. c #368155",
"0. c #4C9449",
"q. c #5AA946",
"w. c #59B643",
"e. c #6BAB52",
"r. c #68B553",
"t. c #4F8B6B",
"y. c #54867A",
"u. c #6E9568",
"i. c #6BAC73",
"p. c #7CC563",
"a. c #86904F",
"s. c #96A371",
"d. c #C29B77",
"f. c #313391",
"g. c #151FAE",
"h. c #1A2DB7",
"j. c #2D33AC",
"k. c #262AB6",
"l. c #2736B9",
"z. c #3837B6",
"x. c #4B3A84",
"c. c #4638AD",
"v. c #395496",
"b. c #396E9A",
"n. c #2D47AE",
"m. c #5D5B9D",
"M. c #4E7191",
"N. c #4F51B3",
"B. c #676EA7",
"V. c #1A1CCB",
"C. c #1D29CC",
"Z. c #1D33CB",
"A. c #1C28D7",
"S. c #1C33DC",
"D. c #282DC6",
"F. c #252DCD",
"G. c #392ACB",
"H. c #2835C5",
"J. c #3636CA",
"K. c #262BD8",
"L. c #2634D8",
"P. c #3333D8",
"I. c #131EEA",
"U. c #1B2BE8",
"Y. c #1C32E9",
"T. c #1929F7",
"R. c #1C2CF5",
"E. c #1D2DFD",
"W. c #1533F6",
"Q. c #1D32F4",
"!. c #1B32FC",
"~. c #222DE2",
"^. c #232CEC",
"/. c #292BE9",
"(. c #322BE3",
"). c #2633E6",
"_. c #2431ED",
"`. c #2728F5",
"'. c #232CF4",
"]. c #232DFC",
"[. c #2A2DFB",
"{. c #2332F3",
"}. c #2331FC",
"|. c #2A33F8",
" X c #453BCF",
".X c #3744CD",
"XX c #3E41F0",
"oX c #5B57C9",
"OX c #4C51D0",
"+X c #5C52D9",
"@X c #5968DA",
"#X c #6C6ED1",
"$X c #6C73EE",
"%X c #83638A",
"&X c #8977B6",
"*X c #D77E83",
"=X c #8879CF",
"-X c #8472E2",
";X c #4F888B",
":X c #72918D",
">X c #72A98D",
",X c #6A9DA6",
"<X c #7EC082",
"1X c #718CD1",
"2X c #7287ED",
"3X c #95B88C",
"4X c #A990BD",
"5X c #95B8AD",
"6X c #AFA3AA",
"7X c #DA8A83",
"8X c #E49092",
"9X c #D5BC97",
"0X c #D3B4B5",
"qX c #F0B5B4",
"wX c #93CB8D",
"eX c #ACD699",
"rX c #93C3A4",
"tX c #D9D3AF",
"yX c #D8C7B0",
"uX c #ECC5AB",
"iX c #EECCB6",
"pX c #F8CABB",
"aX c #908FD4",
"sX c #8B8CF3",
"dX c #AA99F6",
"fX c #A6A2E0",
"gX c #B4B0F5",
"hX c #DDAFC8",
"jX c #F5B7C8",
"kX c #C199E0",
"lX c #CDB2ED",
"zX c #A7CACC",
"xX c #BDCEFF",
"cX c #D1CBCF",
"vX c #E6CAC8",
"bX c #F9CBC7",
"nX c #E8D6C8",
"mX c #FDD7C8",
"MX c #F2D0D7",
"NX c #FDD7D9",
"BX c #DFE1D7",
"VX c #F6E7D5",
"CX c #D7C8EE",
"ZX c #E4D9FC",
"AX c #FDEAE9",
"SX c #EFEFF2",
"DX c #F8ECF4",
"FX c #FEFCF5",
"GX c #FEF4FC",
"HX c #F8F8F8",
"JX c #FEFDFD",
/* pixels */
"<.;.M H X.U . _ _ ~ _ m l ` Q | } V >./ ~ B Q >.Q A B ^ H H _ &._ :.A ( E R @.@.] Z A Q z m A 1.&.~ _ b M M U H x Z L K { l V L ",
"X.O.^ D H M P O.P k ~ B x Z / Q Q Z A A ' E N N L ~ H m X.^ P A ~ O.H #.E E @.( ~ / Q N ~ &.A -.~ ~ O.H M B G C L x l { L V V z ",
":.H X.B b _ &._ U k m O.~ ~ / x c Z m H O.M z ) V O.O.D H O.A N H H W ( B E ( m m l Z N ) C ^ ' ~ b B ;.X.H ^ &.' ` . V Z L j z ",
"-.B ~ b M O.C ~ H M -.-.( ~ ~ m ` h m B ( ~ A ~ ' H H W M O.A V O.A ( D E B H @.A l x Q ' j #.~ A ^ B ;.<.^ ^ X./ N A ' x L ' L ",
"/ ' -.B O.A H ;.M n J 1.X.M _ ~ A V ' b ~ A x ~ ] m E b v ^ O.C ^ ~ ^ b <.;.D 1.m ' A ' ' z ( ;.b -.J D -.H M <.:.N ~ N x Q ' ~ ",
"Q Q ] T m M ( ;.O.J W 8.H v J H ' V ' 3.=.=.w.Q Z x ' W O.;._ k m B W b #.8.O.( ^ 6.' ~ ' A H O.O._ O.H _ M k ;.m z ] A l T ' A ",
"~ N A ~ m ' O.X.+.B -._ =.<XgX2X#X@X+XOXOXOX@X@X$X-XsXdXgXzXA ) H H ^ ( D X.+.X.( ;.O.B m k m B _ H O.H _ _ H O.E T ] E m E ' B ",
"N ] N ~ >.O.^ W J X.^ 2.t.v.n.Z.F.K.K.(.~.~.S.A.K.G.G.z.z.OX2XsXrX@.( X.W M H M D ,.O./ H ~ O.~ ^ O.H b U ~ H O.( ^ ( ] ' B E E ",
"N ' / ' 7.( _ W B O.X.3.0.+ l.Z.S.Y._.`.'.}.Q.Q._.~.(.P.K.A.L.F.OXB.r.X.n D J O.;.b ^ @.,.@.~ 1.1.U G H O._ b ( ( m m @./ b ' ( ",
"O.E A M H O._ ^ D +.X.B #.0.y.v.l.S.^.[.].E.!.!.R.|.`.`.{.{._.K.D.k.n.:X=.^ o.-.,.M B ) @.;.H U ;. .H C _ &.P m ( ( m m ' ' 1.~ ",
"O.H k M H H H W W W ^ A ( ( ' q.y.v.F.^.T.}.}.E.!.].].[.'.U.A.C.OXk.F.h.M.e.<.^ ( A ~ B M ~ ' m G ^ H H I z j m O.-.#.H _ ' ~ P ",
"H ~ -.' ^ ^ H _ D ^ X.~ :.-./ ' b i.M.J._.R.E.E.}.E.[.`.^.L.H.OXgXN.C._.L.v.r.z ( A B -.~ H A b H ^ b b _ V h j &._ ;.;.X._ b C ",
"X.H -.X.U ^ O.H b O.^ ,.H ~ ~ ~ ' :.w.#XJ.|.E.}.].'.].}.~.k.N.lXCX&Xk.U.Y.L.v.0.m N m ) ' m b z ^ W A L ) K V ~ ' X.W ( ^ ^ H M ",
"E ( X.-.H M ^ U C ^ ^ ~ P M A A ' ) H zX$XA.E.E.].{.R.|.C.OXgXZXCXaXJ._.}.}.K.M.K x / N ~ V &.C M W / ) A b l >._ X.R m W W H A ",
"E X.#.^ U ;.G _ I P G C ~ ' z O.&.5XdX$XXX).U.}.].}.^.C.D.-XlX=XoXD.(./.`.].].l.i.c N / A ~ P C +.<.) A ) } Z ` _ M E M #.O.B U ",
"W B B B M U G ^ U . H O.k m B i.;XN.l.F.K._.'.R.E.R.{.A.P.+Xz.z.F.)./.~.`.].E.).M.3.x A ~ -.V &.7.#.B A C ~ N ~ W M ( #.;.O.^ ^ ",
"X.X.b ' M _ X.&.( H A &.b K >Xb.F.K.).Y.^.].E.E.E.].Q._._.^.).L./.~.Y.Y.~.|.]./.v.i.' A j m ( :.^ #.( H b k _ _ M M _ ;.O.^ C P ",
"X.O.A _ M ( ' W O._ H _ =.t.n.Y.Q.R.W.Q.].].E.E.].'.Q.Q.E.].].'.[.A.L.$XsX.XK.).l.>XH ' B j A -.O.b ;.^ X._ U _ _ ( M H O.P z I ",
"M J -.O.^ H _ B M ^ C =.+ .XS.U.{.'.R.Q.|.`.'.R.'.^.Q.Q.E.].].].`.L.$XSXHXxX.XZ.L.,XB E ' A H H ;.W @.M H ( b &.U <.^ m ' ' b { ",
"H H X.-.k H B M ^ H P 0.H.^.Q.Q.'.}.R.R.'.^.'.{.^.'.Q.!.E.].'.'.[.P.gXHXHXHXsXl.C.b.W ( ~ ' X.H ' ( A E / ' ~ C C H ' T ~ -.b I ",
";.E / / z -.' B _ _ =.n._.'.'.'.'.[.].].].].].Q.].].E.E.].'._._.~.OXSXJXJXJXZXN.l.M.( B E 6.@.D m O.A l ~ ) :.C ~ z E T m ' z j ",
"l ~ 7.m ] ' / 7.O.H 9.Z.A.).K.K./.^.[.[.].}.Q.!.].].].].].'.Q.Y.A.$XHXJXJXJXJXB.f.0.~ ( E W X.#.b m ' T l A } z ' ' M m B / V z ",
"N j ' N B ( ~ @.E / ' [ + ;X;X@X.XC.K.~.U.{.W.W.E.].'.`.`.].!.Q.~.$XHXJXJXJXHX@ O e.b W ( ( X.#.~ j B O.H ~ m ) ) } m ^ ( ( ~ >.",
",.l A B / @.m W X.W H b A 7.N zXOXh.V.V.A.Q.W.!.E.].`./.`.].E.Q.C.$XHXJXJXJXFX@ @ r.H ;.W W  ._ A x ( &.O.P Z { Q N H ;.D W ` Q ",
"^ H m M 1.( O.J  .W  .M o.&.A 1Xg.C.V.V._.Q.!.!.E.].^.{.|.T.]./.D.N.SXJXJXJXJX@ u.2.s.8.( m H O.A T :.O.A _ Q Q ! l m O.W H ' Z ",
"o.*.H O.;.^ <.O.<.+. .+.;.o.>Xn.h.V.A._.^.{.E.E.}.E.|.R.R.{.(. X#X&XcXDXJXFXFXnX0X( b -.E A ^ ' ~ Q ~ ( -._ V c { l B X.W ^ x c ",
"U O.O.+.J W  . .J +.M ^ H [ M.g.g.C.^.'.U.{.].}.|.I.T.}.Q.C.N.fXCXvX0X0XMXAXmXiXyXk G P A ~ J W ' ' B ' ~ L V Z c Q m M ( W ~ ) ",
"H O.^ O.D b D ^ <.;.B _ O.0.x.N..XA.{.].|.|.T.].'.|.[.'.Y.H.=XMXiXpXmXmXbXpXuXuX2.. U H A B ^ ^ A A m A H A L V ~ m @.D X.1.O.~ ",
"H ~ ~ A b k ~ H ;.~ m ( A K 0.i.2XL.R.E.'.^.}.].].`.`./.{.H.fXvXmXpXbXbXbXpXuXiX' ( / ~ B B A -.B E j b M &.m l A ~ 6.<.X.W ( A ",
"~ M O.H m A ;.( ^ / m m A ~ Z =.@XL.'.].[.'.!.T.]./.G.G.K.J.&XvXuXmXbXbXbXpXuXe.@.( @.' / >.@.1.' / ^ D B ( A L N ) ^ W X.X.M B ",
"U H H O._ b ^ ^ H #.^ m A A L i.D._.{.'.`.].!.!.R.P.#XdX+Xk.x.0XbXpXvXnXnXvX0XC ~ ~ A ( E N ( B / ( ;.1.S X.) ` N B +.....X.A m ",
"U ;.-._ ^ B b H ,._ X.' ' m Q ;XH.K.F.XX/.].!.W.'.G.kXlXN.c.4X0X0XyXVXFXJXGXHX_ H ~ m / B B B ( ] ~ W ..U *.) N N N O.#.1.F B A ",
" ._ X.( ` Z x A O.H X.1.( m Q y.f.oXsX$X(.`.}.R.}.J.kXhX%X4XvXyXyXBXJXJXGXJXJX4.O.~ z A A A m E B B J S ....b . ~ E ' M #. .D b ",
"J _ ^ ) N Z l N ~ U H O._ m ' i.>X3XgXz.(.[.].R.R.P.&XhX0X0XyXnXBXFXJXJXJXJXJXHXU ~ Q -.O.H M m ~ A _ <.*.S b B z ~ ' A X.+.X.B ",
"J H -.A ~ ' h A ) ~ ~ H O.~ B -.N ,.1XH.~.'.R.!.!.~.oXkX0XuXiXFXBXJXJXJXJXJXJXJX_ ~ z ' &.b z A m P ^ <... .^ ] >.-.T B M X.E E ",
"~ z ( C ~ ~ V m -.) @./ -.@.M ~ A =.@XD.F.P.F.L._.~.D.m.0XuXnXFXSXGXFXFXJXJXJXJXp.b V L A ~ B A B A O.o.^ M W ' >.~ ' m M O.W R ",
"' m m z A P P ' -.B B ~ ~ ( O.k V } OXk.oX-XaX#XJ.C.P.c.hXqXnXFXDXDXJXJXJXJXJXJXM M x A ) ;.-.-.L V ~ O.1.@.B N N j O.A O./ ^ E ",
">.N B ) z _ ( ,.~ / @.~ m M ' P V >.t.#XlX*.H =.dX.XK.OXhXiXvXcXBXSXFXFXHXJXJXeXA ' A x ' ( B -.~ ' -.( ' ' A ~ N l ^ -.A m B ' ",
"Q ` A ) A ~ U ' ( ' @.m m ~ A A V V zXe.D X.X.B =.#XP. XlXbXvX6X6Xo.DXHXJXJXwXD M ~ A x / ' ' A b H ' m 5.~ A E m ~ O.:.z z m @.",
"A A -.V ) ~ M B H ^ @.H m A ' ~ L 2.2.b B B :.O.&.2XF.J.4XcXfXx.B.CXH BXBXeX4.1.( z N l O.#.~ B C ;.B z / / m A | m U U ~ B A ( ",
"~ B l N Z A B B B b H H k ' ' q.7Xf g qXX.b O.-.zXN.F.l.1XaXn.l.l.#X3XJ W X.B -.:.m x N ' ' B B ' O.^ H x N . W >.~ b G B -.b W ",
"-.H j Q c l ` ' m ^ H b b ~ e.p q q 1 d wXH A r.1Xl.J.m.5X=.2XH.Z.l.B.2.M B W H B E ] -.A H ] A _ G &.m m l H ~ -.) ;.B ~ ( H #.",
";.' m ` Q c ` B ) ' B *.o.s - 8 8 f qXcXcXB 2.1XH.F.c.u.^ #.w.,Xn.F.c.:XH B B B A ,.>.l -.( ' H ^ ^ _ m N A O.( m _ ;.U M _ _ <.",
"O.H z Q ` ` V Q ' m ^ 2.t - 2 6 q qXAXJXBXaXM.j.H.l.y.*.-.1.O.q.;Xl.G.N.i.~ m O.) ' N N ( ( ) ~ ;.P m E @./ H _ H &.~ A V H H ^ ",
"W ^ ( ) N Q l ` ' z _ 9Xy > 5 5 f AXFXJXgX.Xl.l.n.,X=._ B ;.( A 3.y.F.L.M.i.B H B ~ A ' z C -.b C A ' >./ H m H &.' A A A ^ U +.",
"J X.~ A z } L Z ) ' tXuX7X1 * - g AXFXGX#Xj.l.OX>X&.~ C H ^ _ O.A i.;XL.h.y.r.( A -.} x V ^ C M A _ ' A ' :.A k ' m N x ~ H n  .",
"W #.( A k V V Z ` d 9XVXVXd > , f AXFXJXgXx.M.>XA ) V N H B X.O.&.z wX+ l.j.:X3XA >.l L ' b P ' :.( T z -.^ ~ ~ H j c x >.H U ..",
"J <.O.b H } ~ A > > p pXAXNXa > : *XAXJXSXlXi.V ' ~ ~ A H ( ^ #.T ) ' >Xv.N.ZXAXvXs.r.=.w.q.a.a.a.%.A ,.O.B ~ @.~ B h Y -.^ ^  .",
"M ^ X.D  ._ ' 0 9 w 8 f VXAXjXa q < g vXwXz ' A T ~ ~ O.X.E @.R ] ' >.w.5XSXGXGX*Xp d nXtX9X: > > > t y u %.k ~  .O.m A ~ #.B H ",
"^ ^ W #.O.B t w e 4 w 5 g AXDXqXq q *X~ H O.P -.B B ^ H ;.D E @.' x / 3.SXJXGXjX1 > a NXDXqX< * 5 * 6 9 , t $.A ^ D B H W ;.~ H ",
"6.^ D O.X.G 2 r e 7 r 5 1 8XFXeX8X8X~ H _ :.( :.m ~ -.k ~ / / T N Z l 2.AXGXNXa > , f NXDXqX, 2 5 5 2 ; t o / -._ B / ~ X.1.' X.",
";.^ H @.B ; 3 e w e 7 5 - : s.r.^ B B H E H ^ b _ H ~ N m l m m L L N ~ yXbXa , * 0 f NXGXqX1 * & # % t a.E E E ' m @.-.^ _ W ^ ",
"^ D M ;.X 6 3 4 w 6 w 6 0 1 a.B X.<.O.B B ( ^ B O.&.A Z x Z } C ' z N ~ a.1 8 9 4 6 f bXAXqX: % % $ t 2.6.' m N A T ] -.^ m b _ ",
"X.D ^ O.9 e w 2 5 5 8 0 f d.( O. .#.X.W ^ W -.H M ~ l V Q V } P ) m x Z o < w 4 e 9 < jX8X:   $ $ o C ' -.A m ` ` m l E / O.X.W ",
"D W ;.#.9 r r 5 , X o a.I -.:.O.1.O.@.6.( B ^ ^ m ' ) Q ) l K ) ' m ' m %.< w e w 8 - i = = = : %.&.G M z ~ B B N T m b B #.;.+.",
"D W F X.t q X $.G v v b T -.-.M #.O.J ;.^ . A ' ~ ' ~ V ~ L L _ ' l A ' I 1 w w 2 & % % $ = o o.V C C b N ` ~ ~ B ' O.b b O.<.D ",
"E ;.W X.O.( E M &.^ b M ~ A m ^ ^ H H X.M A ) A Q B m C V C A ( ~ z / ' m t , & # # $ $ : 2.m B V j C ) z V H U O.H n n ^ J  .H ",
"E W  .+._ O.' l -.:.( M ' A C :.B m ~ A z ' A A Q ) ~ H v C C ' / H / O.B s = = = =   u ( B ( B Z Z x m A V n *.o.O.n U *.X.H -.",
"N B X.F  .6.' m A ' ~ k ~ P U z -.B ~ V H ' A A ~ ~ ;.^ U J H H X.H A ~ A / e.s @ u 2.' / H 7.W -.>.N } ~ C *.<.H o. .U *.X.&.U ",
"R B W M H +.' M ( P z b m l _ K ) ' z C &.' x N ` B O.H ^ n H H J X.@.>.A ] ~ z O.A m E ' ( ^ O.N ' N ' ' M o.J U <. .n O.b ^ P ",
"( @.D m H M H H :.A l } -.} ~ A P L z P A m >.A A A C ^ O.v n ;.( R ( #.,.@.A x >.Q M M X.;.J O.~ B / B ( M H H ^ 1.~ ( A A A } ",
"W :.( l A W M O.^ V Q ` A ,.I k H I j V V l A ) z O.A b ;.U G U @.B m B ,./ x N A l C C H X._ H ^ ~ / / :.H z B ~ O.' N -.) A ' ",
" .J >.B m O.J *.P V Q c l } I v U O.C >.A B b ' ' ' V z &.H C G ( <.B ~ l ) l V V A &.~ _ H G +.X.D M ,.^ W ` Q -.~ l Q Q Q N Z ",
"#.J / ] T B S *.b -.| c l V _ *.G o.:.) ` m ) :.( ' ' L b _ *.o.<.;.R E j N ~ P } ) } A C C n  .^ M M ^ W H ] Q B >.l c Q Z V x "
};
