/* XPM */
static char *_abaed443172431dbc26240ad197fc07UooHrkbnfxAbaEHC[] = {
/* columns rows colors chars-per-pixel */
"64 64 249 2 ",
"   c #1F1D26",
".  c #7B1D1E",
"X  c #77312E",
"o  c #0D7E00",
"O  c #137D00",
"+  c #28751D",
"@  c #7F642E",
"#  c #222268",
"$  c #335A56",
"%  c #3C7852",
"&  c #335976",
"*  c #497A69",
"=  c #457879",
"-  c #9D1B19",
";  c #AF281A",
":  c #B01E26",
">  c #972728",
",  c #8C2C30",
"<  c #AD2E2E",
"1  c #C51312",
"2  c #C9181A",
"3  c #D61518",
"4  c #D6231D",
"5  c #C61923",
"6  c #C72528",
"7  c #DA2629",
"8  c #C83337",
"9  c #EB2121",
"0  c #ED222A",
"q  c #E82429",
"w  c #A44E35",
"e  c #86683A",
"r  c #9F554E",
"t  c #AC4E54",
"y  c #916D51",
"u  c #AA736B",
"i  c #C45654",
"p  c #CC7176",
"a  c #0C8100",
"s  c #148500",
"d  c #1B8600",
"f  c #158A00",
"g  c #1C8C00",
"h  c #1D9302",
"j  c #1D9906",
"k  c #228803",
"l  c #228D01",
"z  c #2A8D01",
"x  c #249303",
"c  c #2B9404",
"v  c #259905",
"b  c #2B9905",
"n  c #249509",
"m  c #2C960A",
"M  c #259A0B",
"N  c #2C9C0B",
"B  c #329506",
"V  c #329A06",
"C  c #389906",
"Z  c #31960B",
"A  c #339C0C",
"S  c #399D0E",
"D  c #348718",
"F  c #269B10",
"G  c #2C9D11",
"H  c #339D12",
"J  c #3A9E12",
"K  c #389A1A",
"L  c #26A20E",
"P  c #2EA10D",
"I  c #30A007",
"U  c #33A20D",
"Y  c #39A20E",
"T  c #2DA313",
"R  c #2EA81A",
"E  c #34A313",
"W  c #3BA414",
"Q  c #36A915",
"!  c #3CA916",
"~  c #34A518",
"^  c #3CA519",
"/  c #35AA1A",
"(  c #3CAB1B",
")  c #3DB11C",
"_  c #398F32",
"`  c #38A822",
"'  c #3DAD21",
"]  c #3DB322",
"[  c #429D10",
"{  c #42A515",
"}  c #4BA617",
"|  c #42AA16",
" . c #41A51A",
".. c #43AC1C",
"X. c #4AAD1C",
"o. c #44B11D",
"O. c #4AB21E",
"+. c #519632",
"@. c #6B933A",
"#. c #43AD21",
"$. c #4AAD23",
"%. c #4AA52A",
"&. c #44B323",
"*. c #4BB423",
"=. c #4CB825",
"-. c #47B828",
";. c #4CBA2A",
":. c #51BA25",
">. c #55B728",
",. c #52BC2B",
"<. c #55B82E",
"1. c #4DA638",
"2. c #54A839",
"3. c #64AB33",
"4. c #53C12C",
"5. c #5AC634",
"6. c #68CF3C",
"7. c #4A924F",
"8. c #6F9F47",
"9. c #52A74C",
"0. c #6EAF54",
"q. c #518F74",
"w. c #639777",
"e. c #5CA667",
"r. c #71B56B",
"t. c #948650",
"y. c #8AA15F",
"u. c #A88E78",
"i. c #8CAB72",
"p. c #D58765",
"a. c #34338A",
"s. c #2D1FB0",
"d. c #1930B5",
"f. c #252BA9",
"g. c #382EA9",
"h. c #2A37A9",
"j. c #3839A4",
"k. c #252AB9",
"l. c #322AB7",
"z. c #2938B8",
"x. c #3636BA",
"c. c #553D93",
"v. c #4A39B0",
"b. c #314D95",
"n. c #36658C",
"m. c #1F43A8",
"M. c #3649A7",
"N. c #775B91",
"B. c #5C6A90",
"V. c #514AB4",
"C. c #6B5BBB",
"Z. c #4F6BAD",
"A. c #6A67B7",
"S. c #7970B2",
"D. c #1E27CB",
"F. c #1B34CD",
"G. c #1A29D6",
"H. c #272BC9",
"J. c #2834C8",
"K. c #3636C8",
"L. c #292CD4",
"P. c #262CDA",
"I. c #322FD2",
"U. c #2733D7",
"Y. c #1B2BE8",
"T. c #1D32E7",
"R. c #1C2CF3",
"E. c #1B2AF8",
"W. c #1E31F4",
"Q. c #242CE4",
"!. c #242CED",
"~. c #2929E9",
"^. c #2533E8",
"/. c #232CF4",
"(. c #292CF4",
"). c #2729F8",
"_. c #242CFA",
"`. c #2631F6",
"'. c #2331FD",
"]. c #3643CE",
"[. c #4845C8",
"{. c #5353C9",
"}. c #675ECC",
"|. c #666ED6",
" X c #6064E2",
".X c #9A7DAA",
"XX c #DB7B83",
"oX c #8372CA",
"OX c #669195",
"+X c #74B193",
"@X c #7A86D2",
"#X c #748BDC",
"$X c #90B48B",
"%X c #AEB38F",
"&X c #9286B4",
"*X c #A78AAF",
"=X c #95ABBE",
"-X c #B7B3AE",
";X c #D69491",
":X c #E88A8E",
">X c #D7AE91",
",X c #EFB598",
"<X c #C090A0",
"1X c #D2B2AE",
"2X c #EEB7AB",
"3X c #FCB8A7",
"4X c #8BC58D",
"5X c #A2C99C",
"6X c #B0CBAC",
"7X c #D0C897",
"8X c #FAC99B",
"9X c #DBC4A9",
"0X c #DBCAB2",
"qX c #FACCA6",
"wX c #F8D3A8",
"eX c #E8CAB1",
"rX c #F8C9BA",
"tX c #FCD4BA",
"yX c #8C93D9",
"uX c #AB91CE",
"iX c #B2AAD3",
"pX c #8A91EE",
"aX c #93ABF4",
"sX c #B5B4FA",
"dX c #D1B0CE",
"fX c #EBBCCD",
"gX c #D6B4F0",
"hX c #AFCCD7",
"jX c #B8C9F2",
"kX c #D3CDD0",
"lX c #FACAC6",
"zX c #EBD2CC",
"xX c #EACCD9",
"cX c #F9CAD4",
"vX c #F9D6D4",
"bX c #D5E8D0",
"nX c #FBF1D4",
"mX c #CFC6E5",
"MX c #D9DCFD",
"NX c #EACEEC",
"BX c #D2E3F2",
"VX c #E8E5E8",
"CX c #FCEAE6",
"ZX c #FDF7EB",
"AX c #E9E9FC",
"SX c #ECF3F3",
"DX c #FEFCF5",
"FX c #FAF6F9",
"GX c #FDFDFD",
/* pixels */
":.*.c A | J O ^ ^ E ^ x f / T ] ' n -.Q E N T -.T N b W A A ^ #.^ -.N ! U I o.o.) M N T g x N ,.#.E ^ l c c J Z h M G G ` f n G ",
"| ..W V A c H ..H d E m h M Q T T M N N ( U M M T E A x | W H N E ..A O.U Y o.! E Q T M E #.N &.E E ..A c b Z m G h f ` G n n g ",
"=.A | b l ^ #.^ J d x ..E E Q h j M x A ..c g ~ n ....V A ..N M N A E ! b Y ! x x f M v ~ m W ( E l b *.| A W #.( / o n M G s g ",
"&.b E l c ..m E A c &.&.W E E x / a x H 1.1.7.9.e.9.+.%.K ..N n ..N ! N U b A o.N f h T ( s O.E N W b *.,.W W | Q v N ( h G ( G ",
"Q ( &.b ..N A *.b z A ,.| b { W _ % = M.k.H.L.P.L.H.K.x.M.= w.9.E Y W g :.O.V ,.x ( N ( ( g W *.l &.S V &.A c :.=.v E v h T ( E ",
"T T ) P x c ! *...S S 6.S k % b.J.D.G.^./._.).).).!.~.L.f.f.f.M.q.9.Y x O.6...! W 4.( E ( N A ....^ ..A ^ c d *.x g ) N f P ( N ",
"E M N E x ( ..| ..b *. .$ f.J.L.^.T.T././.).).(./.(.~.H.j.{.k.L.J.].B.e.V | X.| ! *...b x d x b ^ A ..S ^ ^ A ..U P ) U x U ( b ",
"v ) v E -...W Y A | W W _ 7.* b.H.U.Q./.).).!.!.Y.^.H.l.oXsX[.L.^.G.U.z.w.9.* $ V =...Q A E ..E W ..A k J E A ..! W W ) ( b U U ",
"M ( Q ( 5.! ^ Y b ..| W ! ^ $.e.* M.H.~.)._.R.T.T.d.l.C.mXNXoXs.P.`.Y.G.J.b.U.z.9.l W o.;.o.E ,.,.J Z A ..^ l W W x x o.! l ( W ",
"..U N c A ..^ W V X.| b ..x ( ( H +XZ.h.Q.Y.W.G.G.k.V.gXvXvXuXa.D./._./.Q.Y.Y.D.w.c b ~ o.*.A J *.{ Z m ^ #.H x ^ ! x x ( ( ,.E ",
"..A d c A A A Y Y Y W N Q Q Q W n l  .OXz.Q.Y.T.G.l..XfXrXrXdXB.d.Y.!.!.!.!.R.D.w.N E b c E ( x A W Z Z J g s x ..&.O.A ^ ( E H ",
"A E &.( W W A ^ V W | E -.o.Q ( l c ^ r.|.D.^.Y.P.{.gX1XfXdXiXA.J.T.!.~.(._._.U.OXE b &.E A N l A W l l ^ n a s #.^ *.*.! ^ l m ",
"| A &.| J W ..A l ..W ;.A E E E ( r.sX@X[.P.Y.G.k.pXgXdXuXC.[.H.T.W.`.(.).).(.U.n.e.x E ( x l g W Y N G ~ G n E ( | Y ! W W A c ",
"U ! | &.A c W J m W W E E c N 1.@XZ.M.l.L.^./.^.K.}.V.v.v.l.P./.E.R././././.(.Q.d.q.Q v E x #.m c Y W ~ N l f -.^ | I x Y Y Z N ",
"U | O.W J *.Z ^ J H Z m E 0.OXZ.z.L.L.~.~.R.E.Y.P.L.I.L.L.P.(.)._.R.!./.!./.`.!.T.b.1.Q N E H m O.:.~ N ~ ' M / ^ c U c O...b J ",
"Y b b b c J Z W J O Z 9.* n.z.G.^.R./.(.)./.E.'.`.!./././.R.`.Q.P.J.].].J.H.P.Q.Y.z.7.N E &.n #.5.O.b N m E M E E c ! O.:...W W ",
"| | l ( c ^ | #.^ Z 7.n.J.U.T.T.R./.'././.(._._./././.E._._.(.H.}.sXMXAXjX|.].U./.H.w.N s x W -.W O.! A l d ^ ^ c c ^ *...W m H ",
"| ..N ^ c W ( Y O.7.m.G.!./.E.R.W.R.E././.(./._.R.R._._._./.P.[.MXGXFXGXGXFXpXJ.Q.L.= #.b s N &...l *.W | ^ J ^ ^ W c A ..H g K ",
"c S &...W A ^ b _ J.G.^.~.!.'.E._.E.'.'.).R.R._.'./.).).).Q.J.pXFXGXGXGXFXGXMXa.k.K.& ^ ( N A Z *.Y o.c A W l #.J ,.W x ( ( k ` ",
"A A | &.d A b D b.b.b.b.b.m.z.G.P.Q.!.!./.'.'._._./.).)./.P.d.aXGXGXGXGXGXGXSX  # g.& ( E ( | A ( ! N U Q ( E m m Z ( P E &.l K ",
"*.U Q Q g &.( _ #.%.1.2.r.e.w.OXn.M.H.~.(./.R.'.R.R.(./.(.^.F.pXFXGXGXGXGXGXkX  & S.$ c Y 4.o.V x ..N f E ~ -.m E g U P x ( g s ",
"f E 5.x ) ( ! 5...Y ( A c f E ~ _ =X}.I.Q._.E.E.W.W.`.R./.^.J.#XGXGXGXGXFXGXbX  N.mX$ ! Y Y | O.l x ( P f N ' g ( ( b x b Q n g ",
"v s ( v b ! E o.Y W ( N s ~ v M M 5XaX XY._._.E.R.W.E._./.~.I.{.FXGXFXGXGXFXSX$ -XVX= Y ! | | O.E s b ..A E x ~ ~ ( x W ! W E -.",
";.f N b Q o.x Y | A A l N 5.v E hX@Xx.H./.E.E.'.W.R.E.R.~.K.{.S.iXGXGXGXDXDXDXnXCXvXi.*.Y Y { ^ N h W #...H M ` T M A *.V Y / T ",
"W A x c ,.! ..S { Y { b  .&.H w.M.J.U.Y.E.'./.~.Q.Q.`.P.x.oXxXeX9X9XzXZXCXCXzX0X2Xu.  5.W x A ..N P -...m ^ T T R f x ..Y A ( M ",
" .$.A ..*.W >...>.X.{ X.*.$.q.b.H.T.R.E.'.G.H.l.[.].H.x.V.NXrX8XwX9X>X1X1XfXzXlXrXu x &.U N W ( E T E W &.^ n j ` f N | Y W h j ",
"J ....X.S Y { { S X.c J A 7.j.I.^.Y._./.G.z.A.iXAXMXpXa.S.NXlX8X8XqXqXtXcXcXcXlXeXd Z H N E U Y ) ( b ( E G n M j T x c ! Y E ~ ",
"Z ..W ..V l V W :.*.b ^ ..& L.~.P.U.H.K.[.@XAXGXDXGXGX&XN.fXrXqX8X8X8XwXlXcXcX0Xm O H A N b W W N N x N A N G n E x o.V | ,...E ",
"A E E N l d Y A *.E x W _ k.U.L.x.v.A..XmXAXGXDXDXGXGXkX.X1X2XqXqXqX8XwXtXlX0.-.( W W U b b N &.b U s l c #.x f N E 4.:.| Y W N ",
"E c ..U x N *.W W Q x x _ = = n.A.dXxX1XxXVXGXGXGXDXGXkX1X>X;X>X,X,XeX9X>XP E b O.W o.( Q -.o.,.( Q W V b W N G M ~ W Y | | c b ",
"J Z J ..^ l W W A &.W n N G ` e.%XrXtX2XkXVXSXGXFXGXGX0X2X,X3X,X>X%X-X%XW E x f E E N Q U v W v Q Q *.<.B | ~ / v b X.} } | N x ",
"J *.*.( W b l A ;.W | ^ ( x T %.r.1XfXdXiXMXFXGXGXGXFX1X3X3X,XqX9X1X0.=.( E x E A E l Q b b b ! ) E Y } [ $.~ v v v ..O.<.C b N ",
"{ ^ | W / M h N ..A | ,.! x T 9.= V.v.v.{.yXsXFXGXGXxX;X3X,X,XwX9X0X5X2.| W Y ^ ..E g N N N x U b b S B } } l o E U ( c O.{ V l ",
"S ^ W ~ M M f M E J A ..^ x ( e.h.F.L.L.I.z.j.A.iXdX1XlX3X3XqXqX9XzXDX0.6X....W J E E &...A c x E N ^ >.$.B l b g E ( N | X.| b ",
"S A &.N E ( a N ~ E E A ..E %.7.z.F.L.L.D.U.U.f.a.iXNXcXrXtXqXqX1XCXDXbXhXl Y *.W E g ( #.l g N x H W >.} { W ) -.&.U b c | U U ",
"E g W m E E n x &.E o.Q &.o.9.% j.#XyX#X{.J.D.U.h.yXNXxXvXrXlXeXeXZXZXbXBXb ..*.| l n N N E b N b N .. .W c Y ( -.E ( x c ..Y I ",
"( x x g N H H ( &.b b E E W ..+ =XE -.W r.aX{.J.U.K.uXNXNXxXzX1XZXDXGXVX4Xo.! Y c c h N ~ *.&.&.G n E ..,.o.b v v s ..N ..Q W U ",
"-.v N ~ g ^ W ;.E Q o.E x c ( H K ( W A b ..pXJ.G.H.c.N.&XuXN.&XFXSXbXkXW o.c c N ( N h ( ! b &.E ( &.W ( ( N E v f W &.N x b ( ",
"T / N ~ N E J ( ! ( o.x x E N N x x -.c V | pXJ.U.x.*XdXN.a.g.V.hX6XkX0.O.o...V c E N h Q ( ( N l Z ( x 4.E N U x E ..=.g f x o.",
"N N &.n ~ E c b A W O.A x N ( E N A A l b b |.H.J.}.NXNXgXV.H.].4XA S W O.=.o.,.! g v f ..O.E b m *.b g Q Q x N ' x J J E b N ! ",
"E b f M M N b b b l A A d ( ( G #.H ..W ( 9. XH.z.pXNXxX-X}.J.d.+XW ..S Y | b O.-.x h v ( ( b b ( ..W A h v o Y -.E l Z b &.l Y ",
"&.A s T j f / ( x W A l l E ' N J A ^ *.&.sX[.H.V.hX%Xi.r.j.J.z.+X! { | c b Y A b U ) &.N A ) N ^ Z #.x x f A E &.~ *.b E W A O.",
"*.( x / T M / M ~ ( b $.^ x M ~ H Z ..W A yXk.J.A.c c $X{.J.l.}.n W ..b A b b b N ;.-.f &.W ( A W W ^ x v N ..W x ^ *.J c ^ ^ :.",
"..A g E / / n T ( x W ^ ( b T G #.H J W 4XZ.d.x.iX%.6X=Xh.k.v.+Xx c W &.E E x ..~ ( M v W W ~ E *.J x A o.Q A ^ Z #.E N n A A W ",
"Y W W ~ M T f / / f N H E ( E x m l J &.aXh.h.C.^ $X6XAX@Xa.S.A N l c ..A U b A N E N ( g m &.l m N ( -.Q A x A #.( N N N W J X.",
"S | E N g ' F n ~ / v N x ( N n J H J hXZ.M.a.uX<X%XGXGXAXiX$X..N m ,.A x N ..W N &.] h n W m c N ^ ( N ( -.N d ( x v h E A z { ",
"Y O.! N d n n F / T f h N b N #.m ( 6XhXAXMXmX<XX r CXGXFX$X....#.g | W g ( ..n N -.f G ( l H ( -.W P g &.W E E A s j h -.A J } ",
"S :...l A #.E G M T v x ( -.Q E g $X6XVXSXFXvXX . , ;XFXFXi.W O.U ~ ( N E N E d H n g N ;.l W c ..N N ;...b E o.E b a L &.W W { ",
"c W | V { ^ ( M v N ^ >.z W P h ` $XSXSXVXDXvXX . - < :Xp i.o.I ) ( -.( ( E W l A W E l ....c b c E v ( :...d E { ..x N E O.b A ",
"W W Y O...b b x E x c X.>.*.v j 0.r.FXDXDXCXcXX X , > > > t.E o.( f Q v b N x ..&.W A ^ | A S &.E f b E =.A A N W V b A Y *.E A ",
"4.W V ..| A W x N l S { *.=.v ) y p :X:X:XXXt u zXvXrX:X< r $.P v M s b x H g ( E W b { { *.=.Y ..l E &.( l Q &.^ b Q E | ,.( | ",
"*.W A o.b W O.A g W X...W ( x @.< 6 : - < > p CXDXDXlXt : < y +.N N x E H ( E m x J A | | O...A ..^ A ( W A P P ( x o.&.W ^ Y W ",
"W V c *.l ! W W A 4.^ W ! A Z e 8 2 2 6 : t vXDXFXvXi : 6 5 8 < t.K v ~ n G #.l E E E ( A N W ..J A c ^ 4./ x M N P ) &.W x l ^ ",
"| V W ..N Q W W  .*.&.c U ~ 3.< 7 3 2 ; > 3XZXZXCXp : 5 1 1 0 q 8 @ 8.M f v H m Z J ( x x E ..W W H m ( -.N x / / x f U Q ..| Y ",
"V Y *.O...A E A V z &.N b &.t.6 q 3 1 ; p.>X0XeX;X< : 2 3 7 3 0 0 7 e K x ' n H x N A x N E W W ^ #.Z c g E b b v P x l b O.*.X.",
"V Y C ..W A b W Z k l l T &.e 8 7 4 ; w ,XeX7X7Xp.; 4 3 3 3 7 q 9 q < @.m ,.~ N ( E g x O.Y x Q n m m l v / E E b ( ..l l ..:.V ",
"Y O.Y | ..! U c #.W l c E N +., > < 8 i tXnXnXwXp.; 4 9 9 9 4 1 : : > e +.-.x v M ~ x N *.! x b n s m E g n Z J ..A z z W S { A ",
"Y Y { X.^ ..( f &.=.W c ( N m <.@.u p p >X%X%X7Xr > 8 7 7 6 < < r y @.y.N &.N N f -.o.Y ! b ! N M M g x N n z $.| ..z J $.| A &.",
"v b | C { 4.( x N ( E d E H J g &.b %.3.0.0.` 2.0.i.;XXX:X;Xy.2.$.A N E N Q E N b U Q ( Q A 5.Y &.-.n ' E m $.>.A  .{ J $.| #.J ",
"I b Y c A X.( c W H g l x f ^ G ~ ( g m #.( h v ( N O.S W z A A S | o.-.N ) E g ..N x U ( W W ..v ( x ( ( c  .S J >. .c ..l W H ",
"! o.N x A c A A -.N f ' &.' E N E G g H N x -.N P N m W ..k z *.! I ! O.;.o.N h -.E x c | *.S ..E b Q b W c A A W <.E W N N N ' ",
"Y =.! f N Y c ..W n T / N ;.J d Z E s n x f N ~ g ..N l *.J Z J o.b x b ;.Q h M N f m m A | ^ A W E Q Q -.A g b E ..( v &.~ N ( ",
"{ S -.b x ..S $.J n T j f ' J k J ..m -.N b l ( ( ( m g #.Z m Z ! :.N E f ~ f n n N #.E ^ Z Z X.| V c =.W Y / T &.E f T T T v M ",
"O.S Q ) P b B $.l &.] j f n ^ $.Z  .-.~ / x ~ =.W ( ( N l ^ $. .:.=.I Y s M E H ' ~ ' N m m z { W c c W Y A ) T b &.f j T M n h "
};
