/* XPM */
static char *bee4f1c77ca9483fc1018e704b5fae7e8CIIv3NPa4XBuLZR[] = {
/* columns rows colors chars-per-pixel */
"64 64 256 2 ",
"   c #1A1219",
".  c #782216",
"X  c #0D7E00",
"o  c #137D00",
"O  c #396A24",
"+  c #60581E",
"@  c #735030",
"#  c #6E6F2C",
"$  c #26287B",
"%  c #367157",
"&  c #316571",
"*  c #5E625F",
"=  c #467272",
"-  c #8E1914",
";  c #B01819",
":  c #8C2414",
">  c #9F201D",
",  c #B21C28",
"<  c #982729",
"1  c #983331",
"2  c #B8262A",
"3  c #B72836",
"4  c #AE3331",
"5  c #C71619",
"6  c #D5141A",
"7  c #E41E1F",
"8  c #C91B25",
"9  c #D51C24",
"0  c #D0172D",
"q  c #E21B28",
"w  c #D82329",
"e  c #C72D36",
"r  c #CC2D31",
"t  c #EB2830",
"y  c #924F2F",
"u  c #A1593A",
"i  c #933D45",
"p  c #AE3B45",
"a  c #C93C42",
"s  c #B64F54",
"d  c #A15D5E",
"f  c #8E6F4A",
"g  c #AD6B47",
"h  c #CC4A4C",
"j  c #CE5B69",
"k  c #CE7379",
"l  c #E46C6E",
"z  c #0C8100",
"x  c #148500",
"c  c #1B8600",
"v  c #158A00",
"b  c #1C8C00",
"n  c #1D9303",
"m  c #1D9906",
"M  c #248702",
"N  c #228D01",
"B  c #2A8D01",
"V  c #249303",
"C  c #2B9404",
"Z  c #259905",
"A  c #2B9906",
"S  c #249509",
"D  c #2B950A",
"F  c #259A0B",
"G  c #2C9C0B",
"H  c #339506",
"J  c #329A06",
"K  c #32960B",
"L  c #339C0C",
"P  c #399D0E",
"I  c #318E1A",
"U  c #2A9713",
"Y  c #2C9D12",
"T  c #339D12",
"R  c #3A9E12",
"E  c #379918",
"W  c #26A20E",
"Q  c #2EA10D",
"!  c #30A007",
"~  c #34A10D",
"^  c #39A20E",
"/  c #2DA212",
"(  c #2EA81A",
")  c #34A313",
"_  c #3BA414",
"`  c #36A915",
"'  c #3CA916",
"]  c #34A519",
"[  c #3CA519",
"{  c #35AA1A",
"}  c #3CAB1B",
"|  c #3DB11C",
" . c #39942B",
".. c #38A723",
"X. c #3DAD21",
"o. c #3EB424",
"O. c #429415",
"+. c #41A515",
"@. c #42AA16",
"#. c #41A61A",
"$. c #43AC1C",
"%. c #4AAB1B",
"&. c #43B21D",
"*. c #4BB21E",
"=. c #4B992C",
"-. c #68933E",
";. c #47A627",
":. c #43AD21",
">. c #4AAD23",
",. c #44B322",
"<. c #4BB423",
"1. c #4CB926",
"2. c #47B828",
"3. c #4CBB2A",
"4. c #52B927",
"5. c #52BC2B",
"6. c #57AA39",
"7. c #52B030",
"8. c #65AD38",
"9. c #55C12C",
"0. c #5AC634",
"q. c #68CE3D",
"w. c #398643",
"e. c #49944D",
"r. c #709A52",
"t. c #54A947",
"y. c #56AB48",
"u. c #68AA4F",
"i. c #65B647",
"p. c #5F9573",
"a. c #6EAF68",
"s. c #77C65A",
"d. c #909B5A",
"f. c #AF946F",
"g. c #8BB569",
"h. c #D2866F",
"j. c #CF966D",
"k. c #85C56C",
"l. c #1F319F",
"z. c #2E3497",
"x. c #3230AE",
"c. c #2A2CB7",
"v. c #2936B9",
"b. c #4E3B94",
"n. c #4639B3",
"m. c #314B92",
"M. c #386B85",
"N. c #3147AF",
"B. c #535698",
"V. c #6B5284",
"C. c #4E6E8E",
"Z. c #70799C",
"A. c #4D4EAF",
"S. c #6754B9",
"D. c #6969B0",
"F. c #1D1EC6",
"G. c #1C2ECA",
"H. c #1D28D8",
"J. c #272AC8",
"K. c #2733C6",
"L. c #3438C8",
"P. c #2729D8",
"I. c #232DDC",
"U. c #2833D9",
"Y. c #3230D2",
"T. c #1C29E7",
"R. c #1C2CEC",
"E. c #1D31EC",
"W. c #1929F2",
"Q. c #1C2CF4",
"!. c #1C2CFA",
"~. c #1C32F2",
"^. c #1B31FB",
"/. c #222DE3",
"(. c #2829E7",
"). c #232CEB",
"_. c #2632E8",
"`. c #3338EA",
"'. c #232CF3",
"]. c #242CFB",
"[. c #292BF9",
"{. c #2732F7",
"}. c #2332FB",
"|. c #4338CE",
" X c #3B4FC5",
".X c #4D4FD1",
"XX c #675AC8",
"oX c #546CCB",
"OX c #6C6CCD",
"+X c #6C70E7",
"@X c #9378A6",
"#X c #8878D3",
"$X c #8C7DF2",
"%X c #719492",
"&X c #67A092",
"*X c #73A793",
"=X c #718CB5",
"-X c #7A8EEB",
";X c #AC908E",
":X c #86B491",
">X c #ADAF89",
",X c #939CAA",
"<X c #AD8EB7",
"1X c #B0B0AA",
"2X c #CF938D",
"3X c #F19898",
"4X c #CFB19B",
"5X c #E9BA9C",
"6X c #CABCA8",
"7X c #D9BAAA",
"8X c #D3B3B4",
"9X c #EAB1A9",
"0X c #8EC78A",
"qX c #A5D4A0",
"wX c #B3CCB0",
"eX c #EACD9A",
"rX c #F4CA9C",
"tX c #C8C8B7",
"yX c #D3CAB0",
"uX c #F9CAA9",
"iX c #E7D6A7",
"pX c #F0D1AC",
"aX c #E9C4B7",
"sX c #F4CBB7",
"dX c #9A8AD5",
"fX c #AB8CD6",
"gX c #8FA7D4",
"hX c #B1B4D0",
"jX c #8D8BED",
"kX c #A697E4",
"lX c #97A2F5",
"zX c #A8B0FB",
"xX c #C7ACCF",
"cX c #D8BAD7",
"vX c #E7BFC2",
"bX c #CFB6E9",
"nX c #BDC5FF",
"mX c #D4CBD0",
"MX c #E9CAC5",
"NX c #FAC8C7",
"BX c #F6D1C9",
"VX c #F2CFD4",
"CX c #D9EDD2",
"ZX c #F4E6D8",
"AX c #D3CDF2",
"SX c #E7CCF1",
"DX c #DDE4EC",
"FX c #E9ECE9",
"GX c #FAE9E6",
"HX c #FAF8EA",
"JX c #E5E9FB",
"KX c #EAF4FD",
"LX c #FCF5F6",
"PX c #FEFCF4",
"IX c #F6FDFD",
"UX c #FDFDFD",
/* pixels */
"4.<.C L @.R o [ [ ) [ V b { / o.X.S 2.` ) G / 2./ G A _ ^ L [ :.[ 2.G ' ~ ! &.&.| F G / b V G 5.:.) [ N C V R L n F Y U ..v S Y ",
"@.$._ J L C T $.T c ) A n F ` / / F G G } ~ ..a.:X:X0Xy.$._ T G ) $.L &.~ ~ &.' ) ` / Z ) :.G ,.) ) $.P C A K D Y n v X.Y F S b ",
"1.L @.A N [ :.[ T c V } ) ) ` n m F Z t.jX+X.X.X X X.X.X+XjXzXwXL L ^ ' A ~ ' V V v F Z ] D _ ' ) N A <.@.P _ :.} { X S F Y x b ",
",.A ) N C $.D ) L C ,.,._ ) ) V 7.w.= m.J.P./.T./.I.I.P.P.J.L. X-XzXy.J ~ A L &.G v n / } x &.) G _ A <.5._ _ @.` Z G } n Y { Y ",
"` } ,.A $.G L <.C B L 5.$.A ;.e.M.v.K.U.(.).R.~.{.'.P.P.P.(.)./.H.L.OX,X5.<.J 5.V } G } } b _ <.N ,.P J ,.L C 4.2.Z ) Z n / } ) ",
"/ Q | Q V C ' <.$.P P q.P M w.l.U.I./.'.].}.~.R.W.).F.Y.J.P.].!.].).J.n.%Xs.$.' _ 9.} ) } G L $.$.' $.L ' C c <.V b | G b Q } G ",
") Z G ) V } $.@.$.C *.+.P *.;.% & N.I.'.Q.W.~.Q.].(.x.OX.XF.R.!.Q.{._.J.v.C.a.>.' <.$.A V c V A ' L $.P ' ' L $.~ Q | ~ V ~ } A ",
"Z | Z ) 2.$._ ^ P @._ _ L P $.V y.&XM.N.I.T.~.Q.].P.A.AXlXA.J./.'.R.R._./.K.m.= & c.$.` L ) $.) _ $.P M T ) L $.' _ ' | } A ~ ~ ",
"Z } ` } 0.' ' ^ A $.@._ ' ' ' $.Y G ;.&Xm.G.E.~.].J.S.SXSXhXA.c.H.{.'.'._.I.H.H.P.l._ &.3.&.) 5.5.R K P $.[ N _ _ V V &.' N } _ ",
"$.~ G C L $.' _ J *.@.A $.V } } Y ) _ ^ gX XT.R.T.J.#XSXSXSXjXL.T.!.].'.R.~.}.T.H.m.A _ &.<.L T <.+.L D [ :.T V ' ' V V $.} 5.) ",
"$.L c C L L L ^ ^ L _ G ' _ } _ N N ^ >.zXoX).].'.J.$XbXkXXX.XI.{.].].[.'.'.!.].).m.;.A C ) } V K _ K L R b x V $.,.&.L ' } ) T ",
"L ) ,.} _ _ L ' J _ @.) 1.,.` } b V u.Z.L.P.'.'.(.P..XA.x.J._.{.W.].].T.].[.W.].'.N.t.,.) L G N L _ N N [ S z x :.' 1.<.' ' N D ",
"@.L ,.@.R _ $.L N $._ 3.L ) ) ) t.&XN.K.I.).'.[.[.[.P.P./._.T.).[.[.).R.].].Q.[.'.J.p.) } V N b _ ^ G Y ] Y S ) } @.^ ' _ ' L C ",
"~ ' @.,.L C _ T D _ _ ) T C G t.C.K.I.E.R.}.].'.'.[.'.[.Q.{.R.).P.J.K.K.I.).{.R.'.P.C.=.) V :.D C ^ ` ] G N b 2.' @.! V ^ ^ L G ",
"~ @.&._ R <.K [ R T L D T }  .M.U.T._.'.R.~.~.~.Q.Q.Q.}.'.'.'./. XlXnXlX.XJ.).Q.).U.m.a.G ) T D *.4.] G ] X.F { ' C ~ C *.$.A T ",
"^ A A A C R K _ T o L $.c U & I.).[.'.R.~.~.~.Q.Q.}.Q.Q.[.'.).L.zXIXIXUXJX+XL.I.U.K.z.p.) ,.V :.0.*.A G D ) Z ) ) C ' *.4.$._ _ ",
"@.@.N } C _ @.:.[ L K :.N % U.).).[.].!.!.^.!.}.'.).'.Q.].'.U.+XKXIXLXUXLXJXz.l.v.x.= e.x V _ 1._ &.' L N c [ [ V C ' <.$._ D T ",
"@.$.G ' C _ } ^ :._ L [  .x.Y.U.U./.[.].!.!.].W.'.'.R.{.].).J.jXIXUXPXPXLXmX  m.OX$ C.u.A x G ,.$.N <._ @.' T [ [ _ C L $.T b E ",
"C P ,.$._ L ' A C _ H R I e.= N.v.G.I.'.].].[.[.].}.!.Q.W./.G.lXKXUXPXPXUXmX  Z.UX* % 7.} G L L <.^ &.C L _ N :.R 5._ V } } N ..",
"L L @.,.c L A C _ L K [ N V ,.a.gX=X.XJ.(.(.).[.].!.^.Q.'.U.K.-XIXIXIXUXUXmX  1XUX* r.7.) ' @.K } ' G ~ ` } ) D D L } Q ) ,.N E ",
"<.~ ` ` b ,.} A ' ' ' ' 3.V } 3.) { :XdX.XY.).Q.!.W.Q.{.U.J.x.B.KXIXUXUXUXUX,XFXPXZXg.=.>.5.&.J V $.G b ) ] 2.D ) b ~ Q V } b x ",
"v ) 0.V | } ' 0.$.L } L V v ) ) b ) S wX$XY.T.[.}.{.T.H.x.+XkXhXhXFXPXUXLXUXUXFXtX>X* O =._ @.*.N V } Q v G X.b { } A V A ` S b ",
"Z x } Z A ' ) &.^ _ } G v { Z F F ] u.dX|.J.).].W.{.).L.#XcXmXtXyX4XaXGXLXLXGXMX6X    O r.@.@.*.) x A $.L ) V ] ] } V _ ' _ ) 2.",
"3.v G A ` &.V ^ @.L L N G 0.Z ) ) Y <Xb.x.v.J.(._.).(.|.xXBXyXeXeXaX9X8X8XMX7XsXsX7Xu.i.^ ~ +.' G n _ :.$.T F X./ Z L <.J ^ { / ",
"_ L V C 5.@.$.P +.^ +.C #.,.T u.>XcX<X@XD.A.x.x.J.I.(.|.bXMXuXrXrXsXNXNXNXMXsXuXuX4Xi.0._ V L $.G Q 1.$.G _ / / ( v V $.^ L } F ",
"#.>.L $.<._ 4.$.4.8.8.k.wX7XsXaXVXSXSXSXSXxXbXdXXXA.J.|.fXVXsXuXrXuXNXNXBXBXpXuX5Xg.V ,.~ 7.wXtXmX..) _ ,.[ S F X.v A @.^ _ n m ",
"T $.$.*.P ^ _ 8.UXIXJXKXPXyX7XMXcXSXSXSXVXBXBXMXVXxXdXb.n.dXcXBXsXsXBXNXNXMX7X4X>Xc G T a.qXCXHXwXtXa.} ) Y Z F m / V C ' ^ ) ] ",
"L $._ $.J N J PXPXUXIXDXHXUXVX;XV.V.V.@X8X8XMXMXMXVXSXkXx.x.V.d f.2X9X9XaXMXa.[ D x T 6.qXFXUXUXUXCX0XR L G Y S ) V &.J @.5.$.) ",
"L ) ) G N c s.PXPXUXLXLXDXDXAXZ.z.b.@XxX5.AXD.D.fXbXbXOXv.x.V.;X4X4X4XV C ` ` 2.} _ ` wXCXPXUXUXUXIXu.y.C :.V b G ) 9.4.@.^ _ G ",
") C $.L V G s.IXUXUXUXUXIXKXhX% I a.a.P wXOXc.c.n.S.#XA.c.XXcXsXsXpX5X7XC ! ) A &._ 5.tXUXUXUXUXIXIXCX6.A _ G Y Z ) _ ^ @.@.C A ",
"T L T $.' N ' UXUXUXUXIXIX0X..Y I M P +.#Xc.P._.U.P.P.Y.n.fXBXuXuXuXuX5Xg.) ;.g.wXwX6XmXFXUXUXUXUXUXFXs.H @.] { Z A %.%.%.@.G V ",
"R <.<.[ _ A N L wXUXIXCX>.V Y b R R K ,Xn.I.).].].].].P.S.cXsXuXuXuXuX5X4X7X6XtXtX6XtXwXtXLXIXIXUXLXGXg.+.>.] Z Z Z $.*.5.H A G ",
"+.' @._ { F n G $.L @.5.' V / x G _ R D.K.Q.^.Q.Q.].].P.S.mXsXuXsXuXNXaXyXMXyX6X6X6Xa.G ;.mXKXIXLXGXMX-.;.%.V X ) ~ } C *.+.J N ",
"P ' _ ] Z F b Z ) T L $.' V } } G / 0XA.K.I.I._.T.Q.].(.S.bXmXxX<X<X<X<X,XAX$.;.;.) ) ,.$.L 0XmXyXg.3Xj i H D A b ) } G @.*.@.A ",
"P L ,.G ) } z G ] ) ) L $.) A ,.Z 3.gXm.A.XXXXx.Y.[.}.).J..X.XA.n.c.K.K.K.+X1X<._ T b { :.N b G =.3Xh , 3 1 -.| 2.,.L A C @.~ ~ ",
") b _ D ) ) S V ,.] &.` ,.&.C ) G G a.=XwX7. .%X|.(.R.'./._._.I./._.Q.Q.~.Y.S.1X@.N S G G ) A vXl e w t 0 , d } 2.) } V C $.^ ! ",
"} V V b G T T } ,.A A ) ) _ $.c V / 1.[ C @.A ;.oX`.R.~.).T.T.H.H.H.H./.T.I.J.S.xX6.S G ] i.4Xj r w t 9 0 , K Z Z x $.G $.` _ ~ ",
"2.Z A ] b [ _ 3.) ` &.) V C } T S X._ P J $.L *XL.I.H.T.).R./.U.K.+X=X.XJ.U.c.OXJX1X;X;XtXHX9X< 8 6 6 9 r y G ) Z b _ ,.G V A } ",
"/ { G ] G ) T } ' } &.V V ) G G V D 1.V J $.*X XU./.U.I.)._.I.v.OX:XP p.A.z.D.JXUXvXi k LXPXBXu > ; 5 8 > ) G ~ V ) $.1.b b V &.",
"G G ,.S ] ) C A L _ &.L V G } ) T L T N A &X XG.K.L.A. XL..XoX=Xi.G L _ :XgXJXUXUXLXj s GXHXeXj.u > ; ; O.` V G o.V T R ) A G ' ",
") A v Z F G G A A N L L c } { Y 6.T $._ p.L.U.K.D.K K #.@.[ A } _ _ $.P 6.qXIXUXPXNXp 4 5XiXiXpXh.: - < n Z o ^ 2.) N K A ,.N ^ ",
",.L x / m v { } V _ L N =.) 0XIXUXJXZ.A.x.L.c.e.P #.N B ' C L A ) ' +.@.C L FXPXZXs 2 2 h.eXZXeXg : - V V x L ) ,.] <.A ) _ L *.",
"<.} V { / m { A ] } A 8.# 9XPXPXUXJXA.z.z.= V G ' C C C _ ,.L A b _ $.A L A 0XBXl r w ; g pXrXg : - [ V Z A @._ V [ <.T C ' ' 4.",
"$.L b / { { S / } V =.@ 1 s NXLXLXUXlXC.I } ~ G } _ B $.,.5.$.L V C _ <._ ) V j r t q 5 4 h.g . . O.V L | ] T [ L :.) G V L L _ ",
"^ _ _ ] Z / v { { b @ < , , s NXLXUXT <.V ] G ] ) G _ } A <.' L G N C $.L ~ A e t t q 5 > : - : + G } 2.` L V L :.} G G G _ R %.",
"P @.) G b X.Y F ] g.2Xk 4 3 < p 2XE T [ ,.,._ A D :.) D L _ ' $.G D 5.L V A $.4 9 6 t w ; > > . K [ } G } 1.G c } V Z n ) L B +.",
"^ *.' G c S S U { HXGXLXVXk p < y ;.T _ L _ ) V G ] V V G A @.$.:.b @._ b } $.# , 9 5 8 ; , < -.1._ Q b ,._ ) ) L x m n 2.L R %.",
"P 4.$.N T :.] Y d h.NXGXLXLX9Xy # Y _ T L N } V } ] ) G L ' _ &.~ ] } L ) G ) c @ 2 ; ; 2 > f P $.G G 3.$.A ) &.) A z W ,._ _ +.",
"C _ @.J +.' } # e r e l NXLX0X[ / A [ V [ b } G Q ) ) $.' ~ &.! | } 2.} } ) _ N O.. . < 1 f r.C V ) A } 4.$.c ) +.$.V G ) &.A L ",
"_ _ ^ *.$.A A 3 9 t w r h 9Xi.m Z { ) ) L $.T ,.A A _ L <.J ~ &.} b ` Z A G V $.:.-.d.f.f.8.P ,.) v A _ 1.L L G _ J A L ^ <._ L ",
"9._ J $.@.L _ 3 8 9 5 5 8 h f.| Z x ) G _ 1._ 1.V ) ,.c ) ` ` Q Z F x A V T b } ) _ A +.#.<.1.) $.N ) ,.} N ` ,.' A ` ) @.5.} @.",
"<._ L &.A _ &.e ; 5 5 5 t w 2 d.~ A A A ~ L _ N [ L ) Z V b V V G G V ) T } ) D C T L @.@.,.$.T $.[ L } _ L Q Q } V &.,._ ' ^ _ ",
"_ J C <.N ' _ 2 8 8 9 5 7 t t g 7.4.$.A A ' _ A $.:.G F n F X.D { b Z ] S Y :.N ) ) ) } L G _ $.R P V [ 9.{ V Z G Q | ,._ V N ' ",
"@.J _ $.G ` _ # 2 5 5 9 9 q t e d.*.@.^ _ ^ ,.L V ) b S / S X.T ] S n F v Z T D L T } V V ) $._ _ T D } 2.G V { { V b ~ ' $.@.^ ",
"J ^ <.&.$.L ) L y r 9 w 9 0 w 3 i 8.&.9.' A _ _ V } ] Y ] b Y ] { V } V V X.S T V G L V G ) _ _ [ :.K V b ) A A Z Q V N A &.<.%.",
"J ^ J $._ L A _ K g h a 3 p p s f >.~ <.' o G } ) } ) S ) Y Y [ { b G } D 5.] G { ) b V &.) V ` S D D N Z { ) ) A } $.N N $.4.J ",
"~ <.^ @.$.' ~ C :._ E r.u.;.E [ _ L L @.C G ] G / A V D V D G _ ) b ` } V 2.V Z Z ] V G <.' V A S x D ) b V L R $.L B B _ L +.L ",
"~ ^ +.%.' $.} v ,.1._ V } G D 1.A V ) G b } G G / ] ) L M D D } ` L ` $.A ,.G G b 2.&.~ ' A ' A Z F b V G V B >.@.$.B R >.@.L ,.",
"Z A @.J +.9.} V G } ) c ) T T b ,.G ) V L } G G ) ) <._ R P P L @.L G ) G ` ) G A ~ ` } ` L 0.^ ,.3.S X.) D >.4.P #.+.R >.@.$.L ",
"! A ^ C L *.} C _ T b N V v [ Y ] X.b D :.} n Z { A $.P _ B P P P @.&.1.G | ) b $.G V ~ } ' _ $.Z } Z } } C #.P R 4.#.V $.N _ T ",
"@.&.A V L C L L 1.G b X.,.X.) G T Y b T G V 2.G G G D _ $.M B <.' ! ' &.3.&.G n 2.) V C @.<.P $.] A ` A _ C L L _ 5.) _ G G G X.",
"^ 1.' b G ^ C $._ D / { G 3.T c L R x S S v G ] b $.G N <.R K T &.A V A 3.` n Z G v D D L @.' L _ ) ` ` 1.L b A ) $.} V 2.] G { ",
"+.P 2.Z V $.P >.T S / m v X.R M T $.D ,.G A N } } } S b :.L D K ' 4.A ) v ] v S S G :.) [ L K *.@.J C 1._ ^ { / ,.) b / / / Z F ",
"*.P ` | Q A H >.N ,.o.m v S [ >.K #.1.] { V ] 1._ } } Y N [ >.#.5.1.! ) x Z ) T X.] X.G D D B +._ C C _ ^ L | / A ,.v m / F S n "
};
