/* XPM */
static char *_c9d18dabe3c4f17f2f79d4587451335kIUNQh8cEP9C0SqX[] = {
/* columns rows colors chars-per-pixel */
"64 64 252 2 ",
"   c #3E7609",
".  c #6B590B",
"X  c #74560C",
"o  c #775616",
"O  c #73520F",
"+  c #4C7B0C",
"@  c #58730D",
"#  c #5B6C14",
"$  c #4A7B16",
"%  c #577813",
"&  c #4D6C0B",
"*  c #61660B",
"=  c #686817",
"-  c #766912",
";  c #547B21",
":  c #656B16",
">  c #BA1B05",
",  c #AA1D0C",
"<  c #8C3709",
"1  c #983508",
"2  c #983711",
"3  c #99300A",
"4  c #AA2A08",
"5  c #B7260A",
"6  c #A53204",
"7  c #A8330C",
"8  c #B92B13",
"9  c #AB3411",
"0  c #C61C07",
"q  c #D31D10",
"w  c #C72709",
"e  c #D82B0B",
"r  c #CA3507",
"t  c #D93409",
"y  c #C62513",
"u  c #D72915",
"i  c #DB3515",
"p  c #CD3412",
"a  c #E6360D",
"s  c #EA3817",
"d  c #FD3D14",
"f  c #F63A18",
"g  c #EB3010",
"h  c #F53C25",
"j  c #884509",
"k  c #8B4A11",
"l  c #8B6C1A",
"z  c #B46E17",
"x  c #CD4D0E",
"c  c #F6480D",
"v  c #F6570E",
"b  c #EC4519",
"n  c #F44414",
"m  c #FD4415",
"M  c #F54B14",
"N  c #FC4C14",
"B  c #F4441B",
"V  c #FD441B",
"C  c #F44B1B",
"Z  c #FD4B1B",
"A  c #FB5315",
"S  c #FC531B",
"D  c #F55B1B",
"F  c #FB5C1B",
"G  c #F75816",
"H  c #EC540D",
"J  c #D36E13",
"K  c #EC650E",
"L  c #F6680C",
"P  c #F8760D",
"I  c #ED6619",
"U  c #F96818",
"Y  c #F67616",
"T  c #EE7115",
"R  c #FC4622",
"E  c #FC5822",
"W  c #EC5526",
"Q  c #F96924",
"!  c #F97827",
"~  c #F2712C",
"^  c #1B8B01",
"/  c #1F8F09",
"(  c #1D9202",
")  c #1C9C0A",
"_  c #1E9807",
"`  c #199D14",
"'  c #238D02",
"]  c #288C09",
"[  c #3B8B0C",
"{  c #249404",
"}  c #2B9505",
"|  c #259905",
" . c #2B9A06",
".. c #24950A",
"X. c #2C950A",
"o. c #259B0C",
"O. c #2C9C0B",
"+. c #319505",
"@. c #329C06",
"#. c #32960A",
"$. c #339C0C",
"%. c #3A9D0D",
"&. c #3A960A",
"*. c #398711",
"=. c #249C11",
"-. c #2D9D11",
";. c #2A9915",
":. c #339D12",
">. c #3A9E13",
",. c #349C1B",
"<. c #389715",
"1. c #2A8E10",
"2. c #1EA212",
"3. c #26A30D",
"4. c #2DA20D",
"5. c #2BA609",
"6. c #33A20D",
"7. c #3AA20E",
"8. c #32AA0E",
"9. c #34A406",
"0. c #26A111",
"q. c #2DA213",
"w. c #2CA718",
"e. c #34A313",
"r. c #3BA414",
"t. c #35AA15",
"y. c #3CAA15",
"u. c #34A519",
"i. c #3CA51A",
"p. c #35AA1B",
"a. c #3CAB1A",
"s. c #3CB21C",
"d. c #39B216",
"f. c #3B9E25",
"g. c #3CAE21",
"h. c #3AA722",
"j. c #38B324",
"k. c #42980C",
"l. c #478716",
"z. c #558418",
"x. c #459C1B",
"c. c #459818",
"v. c #539819",
"b. c #52890D",
"n. c #78851A",
"m. c #678B15",
"M. c #41A40B",
"N. c #43A415",
"B. c #43AB15",
"V. c #42A51B",
"C. c #43AB1B",
"Z. c #4BAC1D",
"A. c #4AA517",
"S. c #52A619",
"D. c #44B11D",
"F. c #4BB21C",
"G. c #44B315",
"H. c #50AD0F",
"J. c #4E9525",
"K. c #679C24",
"L. c #44AD22",
"P. c #4AA923",
"I. c #45B221",
"U. c #4BB322",
"Y. c #47B627",
"T. c #50B724",
"R. c #4DAA27",
"E. c #56C423",
"W. c #9A9012",
"Q. c #C99F1A",
"!. c #F48708",
"~. c #F69618",
"^. c #F29210",
"/. c #CBA119",
"(. c #F6A416",
"). c #F6AE15",
"_. c #F8882A",
"`. c #FC922D",
"'. c #FD9C2D",
"]. c #FA9527",
"[. c #FD8D33",
"{. c #FD8E39",
"}. c #FA8332",
"|. c #FD9232",
" X c #FD9B34",
".X c #FB9839",
"XX c #EF8227",
"oX c #DAA626",
"OX c #FDA22E",
"+X c #FCAE2C",
"@X c #FBA829",
"#X c #FBB52C",
"$X c #FBB92C",
"%X c #F6B82A",
"&X c #FDA433",
"*X c #FCAA34",
"=X c #FDAB3B",
"-X c #FBA637",
";X c #FEB433",
":X c #FCBC33",
">X c #FAB63B",
",X c #CF9D22",
"<X c #FCD31D",
"1X c #F8CB19",
"2X c #FBC823",
"3X c #FCD728",
"4X c #FAC13C",
"5X c #FBD836",
"6X c #FDE52D",
"7X c #F7EA1F",
"8X c #FDB445",
"9X c #FCBB4B",
"0X c #FDB947",
"qX c #FDAA40",
"wX c #FCC549",
"eX c #FCC453",
"rX c #FACC57",
"tX c #FBD65B",
"yX c #FAD749",
"uX c #F9E551",
"iX c #FDDD63",
"pX c #FCD768",
"aX c #FBDB76",
"sX c #FCE267",
"dX c #FEE47B",
"fX c #FBE675",
"gX c #F6F16F",
"hX c #FADE8E",
"jX c #FEE483",
"kX c #FEE68A",
"lX c #FEE98B",
"zX c #FEEA95",
"xX c #FDEC9C",
"cX c #FCE594",
"vX c #FDF298",
"bX c #FDEDA3",
"nX c #FDEEAB",
"mX c #FCF2AC",
"MX c #FAF1A7",
"NX c #FDF3B4",
"BX c #FEF5BA",
"VX c #FEF9B7",
"CX c #FFECB3",
"ZX c #FEF4C3",
"AX c #FFF6C9",
"SX c #FDFACB",
"DX c #FCF9C5",
"FX c #FEFBD4",
"GX c #FEFDDD",
"HX c #FFF6D8",
"JX c #FEFDE3",
"KX c #FFFAE9",
/* pixels */
"T.F.%.%.r.#.} :.u.:.e. .{ O.t.s.p.e.a.r.e.4.e.p.4.-.$.@.>.c.7.i.j.g.%.r.9.6.D.s.a.4.q.O.(  .$.I.L.i.e.O.' } >.#...{ -.;.u.....;.",
"C.r.7.%.#.#.:.r.:.X.O. .| 4.e.4.q.o.q.e.e.O.| O.q.e.%.5.q.&.w.q.%.N.r.C.e.8.d.8.q.O.4.q.O.e.e.C.i.e.r.%.} } %.%.=.....=.=.=...' ",
"D.r.7. .} r.i.i.$.' O.e.6.e.6.| o.( { 6.r.$.} :.q.e.k.7.8.u.,.1.w.>.e.5.6.e.t.5.| { {  .O.O.e.r.O.O.e.V.V.%.%.a.t.O.{ o...o...' ",
"s.t.6.} O.r.:.r.$.} r.U.r.6.e.$.o.( { O.r.$.O.e.f.6.6.#.} c.j j = <.8.9.9.$.%.y.| { { O.e.} e.y.O.@.%.V.U.r.6.Z.a.O. .q...o.-.O.",
"t.t.a.6.$.e.$.V.%.} V.T.r.@.%.6.e. .$.} $.}  .q.,.| 5.} | * 0 a w k + @.F.Z.r.P.6.e.6.y.a.} r.C.r.r.>.r.r.%.@.C.t.O.6.4.{ o.a.e.",
"t.q.a.e. .$.r.U.r.%.V.U.r.@.6.%.:.O.e.@.O.O.e.t.w.| 6.V.h.j p W n g 2 & U.E.G.C.r.I.a.e.$.{ $.e.r.V.r.>.r.@.} a.6.O.e. .| 4.a.$.",
"4.4.4.O.O.e.y.V.y.r.N.Z.r.r.r.%.e.O.%.r.} r.a.a.i.$.a.T.: 5 s Z v C g 9 % y.B.B.r.U.a.$.} { O.$.r.r.>.>.r.%.@.a.6.6.r.6. .4.t.O.",
"| t.4.e.I.D.r.7.6.y.r.N.%.r.V.$.p.q.O.r.' r.r.a.N.O.y.R.2 i m N c Z V r j z.e.@.6.D.a.y.e.e.6.r.V.r.#.#.r.r.%.C.e.e.r.D.4.4.6.e.",
"O.e.e.y.U.U.r.7.$.B.B.7.B.r.a.y.u.O.$.r.$.@.r.i.@.3.*.k p M d B Z v Z R w . M.C.C.O.6.D.I.C.y.I.U.r.$.$.r.i.:.:.r.O.} r.y.%.r.e.",
"a.e.O.O.r.r.r.r.$.V.r.%.r.6.r.r.-.$.r.7.r.V.r.e.{ ] O u b N D M c M Z M i < A.C.C.$.$.e.y.a.y.r.Z.r.$.:.i.u.O.O.r.e. .O.e.r.C.a.",
"a.$.} } %.%.%.r.%.r.r.%.a.y.y.e.} } r.r.C.C. .O.,.O w g M N Z m Z F F c s 4 J.a.a.$. .6.6.e.e.X.%.%.$.$.:.' ^ ..a.I.y.e.r.r.r.O.",
"r.e.r.r.r.r.r.%.@.r.r.r.C.D.a.e.X.@.r.r.C.y.{ O.b.4 b G b m i s f Z A c s 4 v.-.6. . .y.e.O.O.' %.%.} X.:...^ ..r.D.D.C.C.r.X.{ ",
"r.r.Z.C.r.r.r.:.O.r.C.V.r.e.6.e.e.a.r.r.B.r.$.e.@ 8 m c r 6 < < 9 e m A s 3 l./ { { O.a.e. .X.' $.>.O.O.e.O.{ -.r.a.r.7.y.r.X.O.",
"7.y.Z.V.%.:.r.$.$.:.r.i.$.O.O.e.p.e.e.B.C.r.$.X.$ 8 d a 2 l.;.q.% 4 s M s 3 *.( ( { O.6.6.O.$.X.@.r.r.e.:...o.h.V.r.$. .7.r.$.O.",
"7.r.y.r.r.r.r.:.:.X.O.:.O.O.O.r.i.} %.B.B.r.$. .<.2 i e 2 V.O.q.s.o y f t j 1._ O.O.O. .O.e.:.r.C.C.r.:.e.q.q.u.r.@.$.6.B.C.r.:.",
"6.@. .@.$.:.>.>.:.X.X.:.} X.} r.>.} r.r.$.a.a.t.d.l.1 u 3 %.8.;.8.c.5 f w . ( ..g.q.O.O.e.e.:.L.T.F.r.O.O.O.O.q.%. .r.D.F.C.:.e.",
"r.e.O.$.O.r.a.i.r.O.:.e.{ { e.u.O.#.r.4.a.I.I.y.t.q.$ o = x.A.} @.[ 4 i 5 [ o.;.l.; c.$.' ..7.L.a.D.r.%.} } e.:.O. .r.U.Z.i.-.;.",
"C.r.%.r.@.r.V.r.r.r.:.r.:.O.O...$.e.4.O.O.t.a.t.N.0.q.@.$.= 2 O [ z.4 q O ;.l.X 6 w . i.| ( :.C.a.$.r.r.6.e.$.C.e.r.%.%.r.:.' ,.",
"%.7.V.Z.r.>.>.#.$.>.#.$.#.} X.X.i.p._ O.} >.$.4.w.t.r.b.j u u 5 # = 0 8 # X 6 w g e 6 c.8.O.<.6.I.6.a.e.e.r.X.>.r.a.e.O.e.i...u.",
"@.%.V.r.} @.%.} %.r.%.:.$.X.e.a.h.h.' %.%.4.| $.e.x.= 9 y f V e < . > > 9 e f h R b w j i.B.r.O.r.r.e.O.e.i.r.<.:.:.e.5.6.a.X.;.",
"r.r.C.e. .r.a.e.r.r.r.r.r.O.g.g.u.u.{ :.t.-.X.0.l.k 8 s m M B M w p e i s d R B d B s 0 = a.G.i.X.e.O.| O.r.L.:.O.O.O. .O.e.{ ^ ",
" .6.s.t.e.a.D.D.a.e.y.6. .{ q.q.X.>.o.w.L.q...  2 w B m N Q Z n R d n R S G I M B C Z i 5 b.d.L.|  .4.O. .:.:.-.e.u. .| 6.e.....",
"{ { 6.O.6.t.y.D.y.r.r.O.{ O.O.q.O.O.4.V.R.0.& 6 e b N d Q .X! F D Q ! _._.}.[.U B d m n e k x.C.| ( 6.r.:.-.=.q.u.a.O.6.t.e.e.p.",
"y. . .| y.y.6.6.y.r.@.} $.Y.O.-.e.) O.L.p.@ 6 i d R C ! |._.{.{.{.|.|.`.|.`.{.XXM m V C B 5 = M.q.{ e.D.r.-.q.w.0.O.O.C.7.6.p.w.",
"r.%.} 6.Z.C.B.r.y.r.x.>.e.s.q.O.8.{ $.w.[ 1 s s n D ! [.|.`.`.|.|.|.|.|.|.|.|.[.D d m b M e j i.:.0.a.a.y.r.-.w.0.( O.B.r.6.q.0.",
"V.V.>.r.Z.C.C.Z.Z.Z.>.V.Z.r.e.<.o.O.e.*.j e d V Q ! [.|.|.|.|.|.|.|.|.|.|.|.|.|.Q m V V m f 4 v.e.q.e.r.r.e.o.=.q.( } 6.7.6.O...",
">.C.V.r.N.7.r.C.A.V.O.>.>.} :.X./ i.Y.. 0 R M G }.{..X|.`.|.|.[.|.|.|.|.|.[.[.[.! M V V V h > % t.e.e.r.r.e.o.o.=.| O.$.7.y.e.-.",
"$.i.V.r.@.} $.7.F.Z.e.r.e.O.c.j.c.. k 6 s R C ! |.|.`.|.|.[.[.|.|.|.|.|.[.[.[.|.[.D V B V B 0 = w.$.| O.:.:.O.{ | e.y.y.B.C.a.e.",
":.:.e.$.{ { 6.e.D.r. .4.6.| =.h.o w e t B d E {.|.`.`.|.|.|.|.|.|.|.|.|.|.|.|.|.{.~ m C B B w o e.O.( { X.:.O.{ | y.D.B.B.B.r.:.",
":.$.e.e.{  .y.y.y.a.} | %.o.2.* 5 b V V m M ! {.`.|.|.|.|..X.X|.|.|.|.|.|.|.|.|.|.}.N B R m a 7 c.t.6.6.$.>.:.O.o.e.B.B.B.N.$. .",
":.r.r.a.e.O.6.e.r.a.$.} &.=.*.3 g B d V V N ! .X`.|.|.|..X X X X.X.X|.|.|.|.|.|.`.{.D m V m f y : s.B.Z.r.x.u.q.o.O.B.H.H.N.O.| ",
"i.C.C.V.r.} } %.D.r.a.N.e.=.X u m V E m V C }.`.|.|.|..X X.X X-X-X X.X|..X.X.X.X`.{.Q m V M M u X e.k.S.r.P.w._ |  .B.F.H.M. .| ",
"7.V.C.r.e.o.^ q.i.%.N.Y.8.*.7 s d Z m Z V Z [.`.|.|..X&X=X-X-X0XqX=X&XOX&X&X&X X|.|.! C V V R e 3 ;.%.N.v.M.{ ^ O.e.e.e.C.B.+.| ",
"7.r.a.e.q.O.^ o.u.9.e.x.7.* w B Z M n n m M _. X X X&X&X&X&X=XeXeX9X=X&X&X&X&X&X|.|._.C V m Z s 2 *.e.Z.S.%.} X.$.e.e.6.B.C.7. .",
"%.$.e.e.e.-.{ ..u.8.l.% B.j e Z V M F Q F H XX X X&X*X*X*X*X0XtXtXrX9X>X=X=X=X-X X X[.D V m Z b 5 % a.U.Z.6.%.V.a.a.t.O.@.r.7.6.",
"6.} O.-.-.-. .O.g.r.o X V.2 a B d M }.|.}.! _..X X&X=X>X=X=XwXtXsXiXrXwX0X8X=X=X&X'.|.D m m m B w @ t.N.A.%.e.t.s.t.e.O.O.r.r.$.",
"a. .{ ....-.e.a.a.[ 7 l e.2 a Z m G |.-X&X&X X&X&X-X8X8X8X9XrXiXiXiXiXtXrX9X8X8X&XOX.XD m N m B 5 + t.Z.Y.t.3.6.O.| O.e.e.r.6.6.",
"s.O. . .O.e.e.I.a.+ 5 l } < a Z Z G '.@XOX*X&X*X&X-X9X0X0XeXtXiXtXiXsXsXiXrX9X8X*XOX.XD Z Z Z B w % g.a.v.z.+ O.( { i.C.$.{  .t.",
"e.4.e.-.:.e.e.r.t.= y l { j e Z C F  X*XOX&XOX@X&X=X0X9X9XrXpXiXiXiXiXsXiXtXeX8X*X&X.XD Z Z Z B 6 $ l.* 1 w 4 l.3.O.V.a. .( | a.",
"O.q.e.O.O.e.O.O.5.k q l _ O e C Z F  X*X&X*X&X&X&X*X0X9XeXiXsXiXsXsXiXiXpXpXeX8X*X&X.XD Z N Z s > 9 w e s h y % p.O.%.:.6.O.O.r.",
":.O.( o.| O.O.O.[ < y l { @ 5 b N A _.+X+X&X=X@X*X;X;XwXpXfXdXfXdXfXfXfXfXpXeX0X*X*X].v Z Z S c d b V m Z Z w o P.u. .#.O.t.@.%.",
"C.$.( o.....O.e.*.j > l  .l.7 g N N ! *X+X*X;X+X*X;X;XeXaXjXjXdXjXdXdXdXdXaXrX8X*X*X`.v N Z S Z Z D C N E C w , c.i.i.%.O.t.r.V.",
"U.e.{ q.q.o.q.e.c.= 3 l p.,.. w Z Z U '.+X#X:X#X#X;X>XrXdXlXlXkXlXkXkXkXlXjXpX9X+X*X].L v U D Z Z N N N S f 5 < [ V.L.>.O.e.r.Z.",
"C.%.{ q.w.q.o.0.h.*.. - c.* # 9 b Z G Y *X$X$X#X$X$X>XpXkXzXzXzXzXzXcXcXzXlXaXeX$X;X*X'.OX'.T G Z m Z S N B 5 $ <.V.a.O. .$.%.N.",
"r.r.$.q.q.q.o.=.w.1.l.# O 5 j 3 t R S U '.$X$X;X4X4XeXaXzXxXxXxXxXxXxXzXxXzXjXpX4X>X;X;X$X+XT N S M F A A i 3 <.a.e.q.o.O.%.%.N.",
"7.C.y.O.{ =.o.=.w.O.-.@ 4 s t > t E S G ].#X%XwXtXpXaXlXbXbXMXMXbXbXbXbXbXbXzXjXaXrXwX:X%XOXU Z Z F D A E w . } q.X._ ) e.%.%.N.",
"7.C.y.} ' =...-.u.q.( + 5 I U C c U U L ~.$X%XwXkXzXxXbXmXmXNXNXNXNXmXmXnXnXbXxXcXaXrX4X:X&XU A F E F F B 4 l.5.O.' ( ) t.>.%.N.",
"7.F.B.O.O.i.-.-.) q.| *.5 N L U U K U L ~.$X:XwXcXmXNXNXNXNXBXVXZXBXVXNXNXCXnXnXmXaXrX%X$X;XXXY T I F F t O ,.r.e.] ( ) a.V.>.N.",
" .r.B.%.N.r.6.O.|  .3.J.< H U U U T ].).2X2X:XwXhXmXmXNXAXAXBXZXVXZXAXZXVXNXmXNXbXjXrXwX4X:X:X#X].L L N 4 z.{ 6.N.%.O.O.r.V.6.O.",
"a.r.N.N.N.6.O. .O. . .x.- r I U U L @X3X2X2X2X2XpXbXZXZXAXAXDXSXFXSXAXAXAXZXBXnXmXbXcXpX4X3X2X(.P P I w - -.&.4.N.$. .O.y.Z.r.6.",
"U.r.7.C.r.e.$.O. .{ c.A.v.j t P U L ^.3X3X2X3X<XtXbXAXAXAXSXSXGXJXGXFXFXFXAXZXBXCXVXvXyX3X3X~.Y Y G i j c.3.q.r.r.6.6.e.C.D.V.y.",
"F.7.6.y.$.r.r.$.{ 6.Z.C.d.z.x L Y P !.).3X3X3X5XaXnXDXAXFXFXFXKXGXGXGXFXSXAXDXZXNXzXtX3X<X(.T Q K i < z.V.q.3.N.e.e.a.D.a.r.%.r.",
"N.$.6.y.O.e.a.r.>.U.C.u.7.q.n.x K XX!.(.<X7X3X5XdXNXFXSXFXJXJXJXGXJXJXGXFXSXDXZXvXuX5X2X(.!.P K r o $ y.Y.e.o.>.q.O.y.a.e.$.@.7.",
"7.$.r.C.e.6.r.r.V.A.L.:.$.6.a.n.J U P ^.).<X6X7XuXbXGXFXFXKXJXFXKXJXJXJXJXFXVXvXuX5X1X(.!.P U x o *.>.e.t.r.) 0.q.{ } $.e.y.y.r.",
"7.7.B.C.V.6.6.e.$.[ N.O.w.Z.C.j.K.z K P ^.).3X7X6XfXmXSXGXJXGXGXKXJXGXGXFXVXjXuX3X2X^.!.P F z m.f.%.#.<.{ 5.O.0.4.| } } $.D.U.B.",
"$.7.r.r.V.%.O.O.$.X.' _ u.g.N.4.d.V.n.z J !.(.2X3XuXgXVXKXGXFXKXGXGXJXFXVXdXyX1X).!.P K J - k.9.| :.X._ ;.$.9.&.4.e.r.} { y.D.r.",
"8.B.N.N.V.r.6.$.r.r.' } r.$.X.i.r. .q.>.m.z J Y (.2X5XfXBXHXJXFXGXJXGXNXfX5X).!.T J z n.S.e.|  .{ ( ....{ } X.r.a.>.+.+.@.e.y.>.",
"9.y.N.N.V.C.r.} r.L.e. .e.:.e.e.e.| :.&.X.%.b.W.J J ^.%XyXfXzXcXxXhXaXyX#XJ z l - m.N.t.r.7.6.3.O.O...O.X.{ :.i.C.r.&.>.V.a.V.r.",
" .6.7.7.N.U.C.} :.a.e.{  . .:.O.t.o.O.X.-.w.0.| ,.b.W.Q././.oXoXoX,XoX,XW.m.x.$. .y.e.t.t.t.Z.A.t.a.O.e.e.@.i.C.i.V.>.r.V.r.r.r.",
"5.6.$.#.%.B.r.$.e.O.{ { O.O.:.O.u.:.X.o.e.x.>.=.w.e.C.V.x.k.v.K.v.H.H.d.p.8.6.{ t.e.#.6.t.t.C.N.t.t.4.e.r.$.>.r.>.P.V.$.:.$.$.e.",
"t.a.7.{ #.%.} %.a.O.{ q.t.p.u.:.,.:.'  .O. .e.-.O.O.O.$.%.+.#.a.L.y.8.d.U.C.O.` g.O.| $.r.C.y.a.e.4.6.r.r.@.X.$.r.U.V.$.:.:.:.e.",
"r.D.y.{  .%.@.r.i.O.O.w.u.g.:.] <.-.( O.#.( 3.3.9.6.:.-.h.:.X.e.9.q...%.B.t...X.O.{ #.#.%.N.%.r.y.$.r.C.a.e.O.O.i.a.q.-.i.e.-.u.",
"N.y.y.5.O.r.>.A.$.-.w.o...e.:.X.<.>.:.e.3.{ @.V.u.u.-.} 7.@.&.k.F.P.>. . .%.X.) O.-.u.e.e.r.$.a.r.@.%.V.r.e.e.4.r.e.) | u.-.o.o.",
"Z.7.d.t.4.$.%.N.:.u.g...^ O.i.V.e.i.L.a.u.-.-.I.V.y.e.O.-.,.h.L.F.G.8.=.....O.e.e.i.i.:.$.} +.N.7.#.} r.e.O.a.e.e.e.) _ O.O..._ "
};
