/* XPM */
static char *out[] = {
/* columns rows colors chars-per-pixel */
"64 64 251 2 ",
"   c #387A02",
".  c #774B09",
"X  c #6E520E",
"o  c #71560A",
"O  c #6B5814",
"+  c #775816",
"@  c #58670B",
"#  c #497C0E",
"$  c #576D12",
"%  c #487E14",
"&  c #587716",
"*  c #686712",
"=  c #736315",
"-  c #677214",
";  c #556622",
":  c #B51E04",
">  c #8A3C08",
",  c #9B3609",
"<  c #943712",
"1  c #A82B09",
"2  c #B82709",
"3  c #A73307",
"4  c #A82713",
"5  c #B82314",
"6  c #B63415",
"7  c #CA1C09",
"8  c #C82809",
"9  c #D8290C",
"0  c #C92714",
"q  c #D82B12",
"w  c #CD3512",
"e  c #DB3612",
"r  c #E4300F",
"t  c #E83917",
"y  c #F63A17",
"u  c #FE3D1A",
"i  c #E93222",
"p  c #F83E22",
"a  c #86470B",
"s  c #96420B",
"d  c #83520D",
"f  c #874915",
"g  c #944C12",
"h  c #957713",
"j  c #AF6F14",
"k  c #D0490E",
"l  c #F24A0E",
"z  c #F6520E",
"x  c #E84517",
"c  c #F54414",
"v  c #FC4315",
"b  c #F54A15",
"n  c #FB4B16",
"m  c #F6451B",
"M  c #FD441C",
"N  c #F54A1C",
"B  c #FD4B1B",
"V  c #ED5817",
"C  c #F85816",
"Z  c #F4521A",
"A  c #FD531A",
"S  c #FB5B1A",
"D  c #D36910",
"F  c #FB6A0A",
"G  c #E5700F",
"H  c #F87908",
"J  c #EB6915",
"K  c #F86916",
"L  c #FC631C",
"P  c #F77A16",
"I  c #F64524",
"U  c #FE4522",
"Y  c #FD4B22",
"T  c #F95824",
"R  c #D16122",
"E  c #FB6523",
"W  c #FA6824",
"Q  c #F97927",
"!  c #FC742C",
"~  c #FF7132",
"^  c #1C8B01",
"/  c #1D9302",
"(  c #1C9808",
")  c #1F9F17",
"_  c #248E02",
"`  c #288E06",
"'  c #358A08",
"]  c #249404",
"[  c #2B9505",
"{  c #249A05",
"}  c #2B9A06",
"|  c #24950A",
" . c #2C960B",
".. c #259B0C",
"X. c #2C9B0B",
"o. c #319505",
"O. c #339D05",
"+. c #3C9906",
"@. c #32960B",
"#. c #3A940C",
"$. c #339C0C",
"%. c #3A9C0D",
"&. c #2E8D15",
"*. c #388913",
"=. c #299912",
"-. c #2C9D12",
";. c #339512",
":. c #349D12",
">. c #379917",
",. c #3A9D12",
"<. c #27A40C",
"1. c #2CA20D",
"2. c #33A20D",
"3. c #3AA20E",
"4. c #38AA0D",
"5. c #2DA313",
"6. c #2BA717",
"7. c #34A313",
"8. c #3BA414",
"9. c #35A914",
"0. c #3CAA15",
"q. c #34A41A",
"w. c #3CA51A",
"e. c #35AB1B",
"r. c #3CAB1A",
"t. c #2DB11C",
"y. c #37B419",
"u. c #3DB11B",
"i. c #3BA521",
"p. c #3AAD22",
"a. c #3CB323",
"s. c #48880B",
"d. c #53870D",
"f. c #43990D",
"g. c #488819",
"h. c #578618",
"j. c #469716",
"k. c #569619",
"l. c #668B17",
"z. c #66971A",
"x. c #45A50E",
"c. c #42A514",
"v. c #43AB15",
"b. c #4CA813",
"n. c #42A51A",
"m. c #4AA51B",
"M. c #43AB1A",
"N. c #4AAC1C",
"B. c #53A91A",
"V. c #43B212",
"C. c #44B11C",
"Z. c #4BB21C",
"A. c #56B11D",
"S. c #68A61F",
"D. c #558523",
"F. c #4A9C23",
"G. c #6A9024",
"H. c #47A923",
"J. c #44B322",
"K. c #46B623",
"L. c #4BB322",
"P. c #51B724",
"I. c #4AB237",
"U. c #948815",
"Y. c #A58715",
"T. c #828424",
"R. c #CF9D19",
"E. c #F78909",
"W. c #F7990B",
"Q. c #F09012",
"!. c #DFAC1D",
"~. c #E5A51A",
"^. c #F6A911",
"/. c #F9B81C",
"(. c #EF8521",
"). c #F98729",
"_. c #FD8D2D",
"`. c #FC922E",
"'. c #F8982A",
"]. c #FD9C2E",
"[. c #FE8433",
"{. c #FE8C32",
"}. c #FB8C34",
"|. c #F59432",
" X c #FD9333",
".X c #F79A32",
"XX c #FD9B34",
"oX c #FE9439",
"OX c #FE9C38",
"+X c #F9A72A",
"@X c #FEA32D",
"#X c #FBB824",
"$X c #FDB42C",
"%X c #FDBB2B",
"&X c #E7A630",
"*X c #FCA333",
"=X c #F7AA33",
"-X c #FCAB35",
";X c #FDA33A",
":X c #FEAB3A",
">X c #FBB736",
",X c #FDB43D",
"<X c #F9C81C",
"1X c #F7D51B",
"2X c #F6E51F",
"3X c #FBC628",
"4X c #FBD627",
"5X c #F4C637",
"6X c #FCD735",
"7X c #FBE22A",
"8X c #FCE336",
"9X c #FDAE42",
"0X c #FCB343",
"qX c #FBBA49",
"wX c #FCC549",
"eX c #FCD64A",
"rX c #FAC956",
"tX c #FED85B",
"yX c #F9E850",
"uX c #FCCE60",
"iX c #FCD967",
"pX c #FBDB76",
"aX c #FDE168",
"sX c #FEE373",
"dX c #FBE679",
"fX c #F8F078",
"gX c #FBDA8D",
"hX c #FDE583",
"jX c #FDE78A",
"kX c #FEE98D",
"lX c #FEEA94",
"zX c #FBE599",
"xX c #FDEC9D",
"cX c #FCF194",
"vX c #F9E8A7",
"bX c #FEEDA4",
"nX c #FDEFAA",
"mX c #FCF2AB",
"MX c #FBEFB2",
"NX c #FDF3B4",
"BX c #F9F7B7",
"VX c #FEF4BC",
"CX c #FDF6C4",
"ZX c #FDF9C3",
"AX c #FDF7CB",
"SX c #FDFACE",
"DX c #FEFBD4",
"FX c #FDF7D8",
"GX c #FDFDDC",
"HX c #FEFCE3",
"JX c #FFFCE8",
/* pixels */
"P.Z.+.%.8.@.[ :.q.:.7.| ] X.9.u.q.9.e.8.7.1.9.e.6.1.O.1.7.1.w.q.n.J.7.w.2.3.N.y.r.5.5.| ] X.2.K.H.w.7. ._ o.8. .| ] =.-.q.( | &.",
"v.0.3.%.@. .:.,.:. .X. .{ 1.7.1.6...-.7.8. .|  ...7.%.$.%.8.8.%.,.w.2.4.3.4.y.9.5.X.1.5.| 7.7.M.e.:.8.:.[  .$.%...| | =.=.) ( _ ",
"C.4.3. .[ 8.w.w.$._ $.7.2.7.2.{ ..( ] 2.0.$.X.-.w.8.c.$.+.8.$.| 5.,.8.2.2.2.4.1.{ | { X.1.X.7.8.$.X.:.M.M.%.%.M.e. ./ ..( =.| _ ",
"C.0.2.] $.w.:.8.X.` 8.L.0.3.2.2.../ ]  .7.2.X.7.7.X.2.[ #.e.=.) 6.>.8.2.2.2.2.4.{ ] / X.7.[ 7.0. .$.%.M.J.8.%.M.p.X.X.-.|  .-.-.",
"9.9.y.2.X.7.$.M.%.[ 0.P.w.o.%.2.7. .X.[ $.[ X.5.q. .1.} #.j.X a g.#.:.O.V.V.V.V.2.2.2.0.9.[ 8.r.8.8.,.8.w.$.$.M.0.} 2.1.] ..r.7.",
"9.5.r.7.} $.8.Z.8.,.M.L.w.O.:.3.:.X.8.$.X.X.7.e...[ 2.8.w.F.d 4 . *.5.O.b.P.C.N.8.K.M.7.2.] $.7.,.M.8.%.,.O.O.r.1.1.7.} { 1.r.$.",
"1.1.X.1.X.7.0.n.0.8.c.N.8.%.w.$.7.X.$.8.} 8.0.p.e.,.M.Z.K.i.f 5 1 * >.c.x.b.v.0.8.K.0.2.[ ] } $.%.c.,.,.8.%. .0.7.2.7.2.} 1.9.X.",
"{ e.1.7.J.C.8.4.3.0.c.c.%.8.v.$.r.2. .8._ 3.8.0.p. .8.Z.L.;.o 6 w g h.0.} O.3.$.8.C.0.8.7.3.3.0.M.8.o. .8.,.7.M.9.7.0.C.1.1.2.7.",
"X.9.7.0.K.L.4.3.1.b.c.w.4.9.9.m.1.7.%.%.1.$.,.i.q.[ O.v.n.X.' , 4 + m.4.[ f.%.0.C.} 0.r.K.r.0.J.L.w.@.$.>.w.7.:.8.$.} 0.0.$.8.9.",
"r.8. . .w.c.,.w.2.0.8.7.,.f.9.r.$.@.$.8.c.r.7.7.| ] 2.M.v.;.< 9 t 8 s j.3.f.y.H.M.$.X.3.0.M.7.8.M.8.$.:.w.q. . .8.3.} } 7.w.M.r.",
"0.:.[ [ $.$.%.3.1.c.8.2.0.c.v.9.| ] 3.0.c.C.X.X.X.7.c.m.r.* 2 t M c q < & L.v.w.8.3.X.2.$.0.3.[ #.:.;.;.-.| ^ _ 0.J.0.7.8.w.8.X.",
"w.7.8.c.8.3.:.%.} j.8.0.M.r.p.6.| X.8.0.0.8.X.X.7.5.$.7.% 3 e I I m Y r 6 - a.] 5.X.2.9.7.X.o._ %.%.` [ :.| ^ | 8.J.M.r.v.8.X.[ ",
"8.8.N.M.8.,.8.:.[ 8.M.r.8.8.q.d.h.p.7.x.M.8.$.7.$.@.{ ;.s 9 B u U u n N r , g./ ] ] X.9.9.]  .` $.%.$.X.q.=._ 5.w.M.4.4.v.3. .X.",
"3.0.M.v.,.:.,.$. .q.7.8.1.X.$ , d w.<.b.N.c.X.[ =.y.*.. 8 u u b M U v n Y q > &./ ] ..1.6.X.7. .} w.w.7.-.....i.v.8.O.} 3.8.$.X.",
"4.8.v.w.7.8.,.8.>.@. .:...s., 7 . ;.<.x.b.8.5.[ 6.m.+ 7 e v b Z v y B v c m 8 O =.:.X...2.7.7.>.C.M.7.:.q.5.5.q.8.O.$.3.c.M.,.:.",
"2.O.} $.%.:.:.>.@.] #.$.;.a 0 5 &  .3.x.$.n.t.0.3.f 0 y u V [.E u B M M N A x 3 ,.q. .X.2.7.:.n.P.Z.8.X. .X...5.%.o.4.C.Z.M.,.q.",
"c.3.O.2. .8.0.w.c.{ 1.w.% : 0 g &.5.O.1.r.P.a.i.f 8 y m M ~ oXQ Z M U U c Y B w + a.3...` ] 7.L.C.n.c.2.] [ ,.5. . .7.M.H.w.;.-.",
"M.8.$.8.$.7.v.8.w.j.O.7.g.: >   >.>.-.<.2.w.>.d 8 t u v ! oX|.|.W m M M M v B x 4 g.b.5.| _ $.r.0.3.v.8.7.,.$.w.7.8.3.3.8.7.( >.",
"$.%.M.N.,.,.,.@.,.8.@.j.*.@ #  .q.n.=...o.,.o 9 y y A W }..X X.X[.S v M M v A b 8 - 8.9.:.:.:.7.9.8.8.3.7.8.@.w.8.r.8.} :.w.` i.",
"$.$.M.w.[ O.$.[ @.3.$.8.| &.e.w.y.i.`  .:.@ 2 y Y c K  X|.).{._.oX! c M M M n A t o f.5.p.v.9.2.8.r.7.} $.8.8.$.:.:.2.2.7.p.| =.",
"8.8.C.2.} 0.0.7.r.0.7.7.e. .6.a.6.5.| ;.g.4 i v c E )..X XoX XoX|.[.Z v M I c A e , j.6.0.V.v.f.X.2.1.<.X.8.p.;.X.X.} }  .9.] ^ ",
"{ 1.u.9.7.u.C.C.r.8.c.8. .{ <.9.=.:...w.d q p l Z [.oX_. X X}. X}.oX! c U M v B x 1 f.<.w.V.N.0.:.] 1.<.} 7.5.-.q.8.} { 2.2.| =.",
"{ ] 2.X.2.9.9.C.c.%.0.{ ] 3.:.( =.:...h.2 t u b Q |. X X_.{._._. X X).T M M v B y 5 d.3.M.0.h.h.*._ 5.7.X.X...q.q.e.$.4.0.7.7.i.",
"0.} } { 9.0.1.7.0.9.$.] 2.a.@.6.6.-.:.f w u v A [.|. X{. X X X`._..X X! m m B v l 5 d.v.p.s., 4 ' o.-.H.M.-.=.q.6. .X.v.2.1.p.6.",
"8.%.[ 3.M.C.v.8.v.x.%. .H.m.:.<.7.=.; 2 t B v W }. X{. XoX X X_. X`.`.{.E c U N y 2 = I.h.s 0 9 + 1.H.e.7.w.) 6.5.^ } v.x.2.1.<.",
"n.n.%.8.N.M.M.N.M.N.c.0.n.8.8.| X.  , e u M B Q {.oX X X X X X XoX`.`.oX! N y M I 9 3 s 3 e p r < $.w.0.0.q...=.6./ ] 3.3.2.X...",
",.H.0.w.c.8.3.M.v.v.%.8.1.$.:. . .. 9 M M u B ). X X X{. X X XoXoX X`. X[.E c U U y t t y u U r 4 #.-.w.w.$.......| X.2.3.0.7.5.",
"%.w.M.8.o.[ O.4.L.N.#.w.6. .q.p.% 2 t v M I A `.oX X`. X X X X XoX{._.`.oX! b M M m b Y M c c y 5 s./ $.$.X.=.( ..5.0.v.0.C.r.7.",
"7.:.7.:.] ] 2.7.M.7.@.X.2.X.( p.+ 9 m x U U Z ). X{. X XXXXXoXOXoX X X X X}.V c M M v M M v M I 7 @ ( _ [ :.=./ ..9.Z.V.v.v.7.3.",
":.$.7.7.] [ 0.0.0.9.-.]  .1.( g.5 p u N u u A _.oX`.XXXXOXXXXXOXOX.XXX XXXXX).E N A A T T v M y 8 O 4.O.$.w.-.X.X.7.N.v.v.x.X.{ ",
":.8.8.0.3.X.3.7.3.7.,. .O.1.=.O 8 U M Z A V S |. X X XXX*XOX*X;X*XOX.XOXXX.XOX[.}.Q [.[.E m N N q g N.v.8.n.q.1...<.0.b.b.c.$.{ ",
",.H.M.n.7.[ [ %.V.M.H.r.,...>.> r u I K  X~ Q  X X`.XXXX*X*X:X9X].:X;X;X;X*X*XXX X}..X`.L v I u t , f.x.j.n.6.{ { } v.A.b.x.} } ",
"8.n.M.7.q...^ 5.w.$.H.F.0.X.*., y M b Q .X`. X|.`. XOX=X*X*X0XeX>X=X*X*X*X*X;XOX.XoX`.`.S v v M y 1 s.,.x.c._ ^ [ 7.9.7.M.v.o.[ ",
"%.w.0.7.5...^ =.9.$.D.- 9.$.$ 2 x Y A Q XX`.XX XXX].;X:X*X:XqXtXwX,X=X:X:X:X:XOX XoX]. XE B B I m 5 h.H.m.f.]  .X.7.7.2.c.N.%.O.",
"%.2.8.7.-.-.] | <.j.$ * v.t.# 2 m M A ).OX.XXXXXXX].;X:X:X:XwXiXuXqX=X:X:X-X-X@XXXXX].XXE B n B m 2 h.L.k.d.@.e.r.r.9.X.O.c.3.2.",
"3.} 1.X.-.:. .X.e.j.> * Z.9.. 0 B B A Q OX].XXOX].].:X,X,X0XrXaXiXtXqX=X:X,X:X=XXX X].`.E m B B m 7 - H.j.= %.r.u.0.7.X.O.3.4.2.",
"r.| | |  .-.:.e.r.g.4 O 1.9.= 7 B M n ! OX*X*XOX@X@X,X0X0XrXuXiXaXtXrX0X0X0X9X:X*XXX@XXXE B B Y B 8 = a.m.f #.$.<.{ $.8.7.8.2.2.",
"y.X.X.X.X.7.8.J.v.j.4 O ] ;.& 8 N B n L  X*X*X*X*X=X0XqXqXtXiXaXtXiXiXrXqXqX0X9X@X*X@X].E B A B v 7 d r.H.f ' $./ ] w.M.$.| } 4.",
"9.5.7.X.:.7.7.8.C.*.< = ' . 3 8 m Y B C _.*X-X*X*X=X,XqXrXiXaXaXaXaXiXiXrXqXqX0X+X-X@X].L B A B B 8 O $.c.+ *.,.1.-.0.w.} / } v.",
"..5.7.-.X.7. .$.<.>.+ @ o 0 i x N Y v z ).@X-X@XXX-X0XqXuXsXsXsXdXdXdXsXiXrXrXwX=X*X+X].W b n B M 0 @ o.2.; '  .e.X.%.,.$.} 1.0.",
"7. .^ ......X.X.O.' ; O 1 t B A A B B N E XX$X:X=X-X>XwXpXdXhXdXdXhXdXhXdXdXiXuX-X+X>X].C B Y B M 6 & ( |   ^ 5.J.7.} [ X.7.X.8.",
"M.2./ ......X.7.| O.&.O 2 m n n Z B A n C ).=X=X=X>XwXrXpXjXjXjXkXjXjXjXhXhXdXiXqX=X>X`.L B Y B x 1 d.X.` ' >.7.r.w.w.:.7.0.$.M.",
"L.7.] -.6.=.<.q.7.7.>.= 8 A n A A n A n A P +X>X$X>XrXpXkXlXlXlXlXlXlXlXkXkXjXpXwX,X=X'.C B B A y 1 f.O.[ } t.j.X.r.r.:.X.8.8.N.",
"M.%.] 7.6.6.<...w.{ %.+ 8 C A C A C C L L P +X$X%XwXiXkXbXbXbXxXxXxXxXxXlXlXkXjXrX>X$X(.n v C A w X  .,.t.0.<.j.7.r.w. .X.%.8.n.",
"8.8.$.:.5.5...<.q.| @.& 8 V C C K ).'.(.'.+X$X#X>XwXjXxXmXbXvXbXbXbXnXbXxXxXlXlXpX0X#X'.K K V l 7 + h.k.>.7.o.<.0.9.5...X.$.%.j.",
"3.N.0.X.] =...=.6.-.{ &.1 N L C K +X$X=X>X%X#X%X$XrXcXvXMXmXmXmXnXnXmXmXbXbXxXxXhXrXqX>X+X.XQ z 8 1 2 8 g j.%.[ 8.| ..( 7.$.$.c.",
"O.v.w.[ ] -...=.6.5.( | . q C K F '.#X%X%X%X#X%X%XrXlXMXNXNXBXVXVXNXNXNXNXnXnXbXcXhXtXwX5X=XQ S E T Z 9 < j.X.3.@./ / ( e.,.%.c.",
"3.Z.v. .X.i.-.=.X.<. . .% 2 z K J +X#X%X%X%X%X3X3XwXlXMXVXVXCXCXZXCXCXVXNXNXnXnXvXbXpX5X#X+XF L F L z 1 & w.1.M.>.| / ..p.w.,.c.",
"} 0.v.%.8.8.7.X.{ <.%.u.j.f r K K '.3X3X3X3X3X%X3X5XdXVXZXCXDXVXSXAXAXZXZXZXNXNXmXhXwX3X%X(.K K J T w * J.7.] %.c.$. .X.8.v.%.X.",
"V.8.8.c.0.%. .} 2.| X.b.Z.h.3 x K H /.4X<X1X4XeXuXpXzXZXAXSXDXDXDXDXAXCXZXCXVXmXvXpX5X<X/.P K F F e > j.Z.3.:.O.c.$.} 1.v.C.0.7.",
"P.3.3.N.0.3.2.} [ ] 9.c.Z.a.@ 6 A F ^.4X1X1X3XtXzXbXNXAXFXDXDXGXGXGXDXDXSXCXVXVXbXiX6X4X/.P P F F 6 & p.3.[ w.e.8.2.1.7.M.N.0.w.",
"Z.3.2.0.2.7.8.$.] 1.m.r.x.x.7.o 6 J E./.4X4X4XeXbXZXSXAXDXDXDXHXJXDXHXHXGXZXBXZXkXeX4X/.Q.H H K V h >.e.0.$.5.7.$.7.r.C.r.7.3.8.",
"c.O.4.8.} 8.r.8.w.C.n.w.0.} } #.X k P W.<X7X4X7XfXBXDXSXDXGXDXJXJXHXGXHXHXDXBXbXaX8X<XE.H E.P S j j.| w.L.e.{ 1.5.X.0.0.7.2.$.%.",
"3.$.8.M.7.3.8.7.n.N.v.8.:.9.4.0.H.D L E.^.<X7X2XyXkXZXDXHXJXJXJXHXJXGXSXDXDXmXfX7X3XW.E.E.P K D h.>.;.8.r.:.| 7.1.{ [ $.2.0.0.8.",
"3.3.v.v.0.2.X.7.$.#.8.X.$.u.C.N.Z.B.h J H W.4X7X7XyXcXZXDXJXJXJXJXHXDXDXSXBXfX8X1X^.Q.Q.P J j b.H.:.:.#.=.=.-.[ 1.{ [ [ X.C.Z.v.",
"O.3.c.8.v.%.X.2.} o.^ _ 3.u.w.w.N.b.4.T.R G E./.4X2XyXmXDXDXDXGXHXGXGXJXZXhX8X1X^.W.E.H D h o.$.=...| [ | <.,.$.1.7.8.[ ] 0.N.c.",
"4.0.c.w.M.9.2.$.w.w._ [ 7.$.X.w.2.$.7.5.d.h D G Q.^.4XaXNXHXHXDXZXGXGXBXfX6X/.W.E.P D j z.8.X.[ ] / | | ` [  .w.r.7.o.o.@.7.c.,.",
"2.8.b.b.M.M.8.[ c.M.:.[ 7.:.:.7.1...$.#.X.9.k.h D Q.^.3XeXpXzXvXvXgXiXwX^.E.G D j U.l.c.9.7.4.} =.1.|  . .] ,.n.M.8.#.,.M.n.v.w.",
"{ 2.%.c.n.K.r.[ 2.w.7.] X. .7. .>. .=. .=.t. .X.>.l.U.R.~.~.~.!.&X~.~.R.Y.T.G.h.#.8.q.e.9.0.V.v.e.r.:.9.7.X.w.M.w.n.,.,.r.8.8.w.",
"2.2.O.o.8.c.8.X.7.X.| ] | X.-.-.p.:.}  .>.n.:.( 6.-.w.B.k.k.k.z.S.S.A.N.9.e.2.[ w.-.X.5.9.0.v.m.9.9.X.7.q.$.,.8.,.L.n.@.:.$.%.7.",
"4.v.2.[ @.%.[ %.r. .| 5.e.r.7.:.=.-._ o.:...5.5.| :.$.$.%.[ } 4.4.4.2.V.Z.v.X.| r.X.] $.c.b.0.e.7.1.2.7.8.$.[ $.w.P.M.$.7.-.:.7.",
"3.V.0.{ { %.$.8.e.-.=.6.q.a.:.` -.@._ { .._ -.<.X.9.X.;.i.>.[ 3.4.3.{ 1.r.e.] } <./ { $.3.8.3.,.0.$.8.M.M.7. .X.w.r.X.5.w.7.-.e.",
"x.4.y.<.X.3.%.m.:.:.5...( 7.:.` ,.8.%.8.X.]  .n.e.e.X.{ 7.7.@.;.M.C.2.} ..-.| ..@.$.w.>.%.3.%.8.3.O.2.M.0.2.7.-.w.9.( ..9.-.| 1.",
"N.2.y.9.<.%.#.c.:.q.p...^ =.>.H.>.w.a.e.q.:.$.C.n.M.7... .:.H.H.Z.K.8.$._ }  .X.q.q.p.-.[ [ o.c.3.o.[ 8.7.1.r.9.7.6.( ( =...| ( "
};
