/* XPM */
static char *out[] = {
/* columns rows colors chars-per-pixel */
"64 64 251 2 ",
"   c #7F3E06",
".  c #367B09",
"X  c #3F7714",
"o  c #724C0E",
"O  c #794B0A",
"+  c #695B08",
"@  c #75570A",
"#  c #695A13",
"$  c #745C14",
"%  c #586609",
"&  c #56740B",
"*  c #5A6B15",
"=  c #487B17",
"-  c #597915",
";  c #666813",
":  c #6B781A",
">  c #717521",
",  c #B71E0C",
"<  c #952E05",
"1  c #8B3B06",
"2  c #983808",
"3  c #A62B09",
"4  c #B72908",
"5  c #A8360B",
"6  c #AF300E",
"7  c #B92911",
"8  c #D41B0C",
"9  c #C8280C",
"0  c #D5240C",
"q  c #C9350A",
"w  c #C52513",
"e  c #D82912",
"r  c #D03711",
"t  c #D83516",
"y  c #E52F0F",
"u  c #E62B16",
"i  c #E63817",
"p  c #F33B1B",
"a  c #FD3E1A",
"s  c #DA3823",
"d  c #F43B22",
"f  c #854607",
"g  c #8D4712",
"h  c #947810",
"j  c #AC7015",
"k  c #D04E0E",
"l  c #EE540F",
"z  c #EA4719",
"x  c #F54315",
"c  c #FD4315",
"v  c #F54B17",
"b  c #FC4C14",
"n  c #F5441B",
"m  c #FD441C",
"M  c #F54C1B",
"N  c #FD4B1B",
"B  c #FB5315",
"V  c #F85916",
"C  c #FC531C",
"Z  c #F55C1C",
"A  c #FB5C1B",
"S  c #D1650E",
"D  c #CD6B17",
"F  c #ED6F0D",
"G  c #F7790B",
"H  c #E46814",
"J  c #FA6214",
"K  c #F66917",
"L  c #FD631C",
"P  c #F97717",
"I  c #FD4423",
"U  c #FB4A21",
"Y  c #F84C26",
"T  c #ED5421",
"R  c #F85623",
"E  c #F96824",
"W  c #FA7928",
"Q  c #FF6934",
"!  c #1F8700",
"~  c #1B8C01",
"^  c #1D9202",
"/  c #1B9906",
"(  c #1D9B16",
")  c #238E03",
"_  c #2B8A06",
"`  c #398B0C",
"'  c #239404",
"]  c #2B9505",
"[  c #259A05",
"{  c #2B9A06",
"}  c #24950A",
"|  c #2C9409",
" . c #259B0B",
".. c #2C9B0B",
"X. c #329404",
"o. c #339C05",
"O. c #32960B",
"+. c #3A9709",
"@. c #339C0C",
"#. c #3A9D0E",
"$. c #298913",
"%. c #3A8A13",
"&. c #259C12",
"*. c #2C9D11",
"=. c #2B9916",
"-. c #339413",
";. c #349D12",
":. c #3A9D12",
">. c #3A9917",
",. c #1BA512",
"<. c #2CA103",
"1. c #26A30A",
"2. c #2CA20D",
"3. c #36A709",
"4. c #33A20D",
"5. c #3AA30E",
"6. c #2DA212",
"7. c #2AA616",
"8. c #34A313",
"9. c #3BA414",
"0. c #35AA14",
"q. c #3CAA15",
"w. c #35A41A",
"e. c #3CA51A",
"r. c #35AB1A",
"t. c #3CAB1B",
"y. c #35B019",
"u. c #3DB11C",
"i. c #3B9024",
"p. c #2CA822",
"a. c #38A722",
"s. c #3CAD22",
"d. c #3DB122",
"f. c #3BB527",
"g. c #48910D",
"h. c #488B18",
"j. c #558614",
"k. c #429D13",
"l. c #459518",
"z. c #589818",
"x. c #6A9315",
"c. c #42A40D",
"v. c #42A514",
"b. c #4AA717",
"n. c #43AA15",
"m. c #42A61A",
"M. c #43AB1A",
"N. c #4BAC1C",
"B. c #55AB19",
"V. c #47B51B",
"C. c #44B11D",
"Z. c #64A91B",
"A. c #529024",
"S. c #668F23",
"D. c #48A722",
"F. c #43AD21",
"G. c #45B322",
"H. c #4BB322",
"J. c #49B02B",
"K. c #51B923",
"L. c #8A851E",
"P. c #AA881B",
"I. c #F8890A",
"U. c #EC920E",
"Y. c #F99B07",
"T. c #F7881B",
"R. c #F99917",
"E. c #F1AB12",
"W. c #F9A51B",
"Q. c #F6B816",
"!. c #D89C20",
"~. c #FB8828",
"^. c #FD8D2C",
"/. c #FA9825",
"(. c #FC932D",
"). c #FD9C2C",
"_. c #FE8D33",
"`. c #FB8836",
"'. c #FD9333",
"]. c #FC9637",
"[. c #FE9B33",
"{. c #E7A826",
"}. c #FAA525",
"|. c #FDA32C",
" X c #FDAA2D",
".X c #FABA26",
"XX c #FCB42D",
"oX c #FEBA2D",
"OX c #FEA433",
"+X c #FDAA33",
"@X c #FAAB39",
"#X c #FDB432",
"$X c #F6B835",
"%X c #FEBB32",
"&X c #FDB43C",
"*X c #FDBC3C",
"=X c #FCC71B",
"-X c #FDD61C",
";X c #FBE31D",
":X c #FCCA26",
">X c #FDC22B",
",X c #FBD927",
"<X c #FDC736",
"1X c #F7DA39",
"2X c #FBE329",
"3X c #F9E739",
"4X c #F5AF40",
"5X c #FEB544",
"6X c #FDBB45",
"7X c #FABA48",
"8X c #F8C647",
"9X c #FCC644",
"0X c #FDC44B",
"qX c #FBCA4C",
"wX c #FCCD54",
"eX c #F8D450",
"rX c #FDD558",
"tX c #FDDB5D",
"yX c #FAE850",
"uX c #FAE659",
"iX c #FEDD62",
"pX c #FDDA69",
"aX c #F9DE77",
"sX c #FEE163",
"dX c #FBE36C",
"fX c #FEE375",
"gX c #FDE57B",
"hX c #F8F17F",
"jX c #FDE582",
"kX c #FDE983",
"lX c #FEE78C",
"zX c #FDE98C",
"xX c #FEE596",
"cX c #FDEA95",
"vX c #FDEB9C",
"bX c #FDF390",
"nX c #F9E4A3",
"mX c #FEEDA3",
"MX c #FEEDAB",
"NX c #FDF3A3",
"BX c #FFF1AC",
"VX c #FBEFB3",
"CX c #FEF2B3",
"ZX c #FEF5BA",
"AX c #FFF8B9",
"SX c #FEF6C3",
"DX c #FDF8C8",
"FX c #FEFBD4",
"GX c #FEFCDB",
"HX c #FEFBE4",
"JX c #FFFDE8",
/* pixels */
"K.H.#.+.9.O.] ;.w.*.8.| ' ..0.d.r.8.t.8.8.2.8.r.6.2.1.:.k.@.e.a.q.F.8.q.4.<.u.d.y.6.6...^ ..4.G.F.w.;...) O.#...' ' | =.a.^ } =.",
"M.5.5.5.O.O.;.9.;.| ..{ [ 2.8.2.7. .6.8.8... ...@.:.2...4.8.;.;.k.e.4.3.9.9.V.3.6...2.*...8.9.t.e.8.9.;.O.] @.#.&.} } &.&.&.} ) ",
"V.5.5.] ] 9.e.e.;.) | 8.8.8.2.[  .^ ' 4.q.;.] *.6.k.q.@.#.n.:.| 1.;.v.9.4.<.3.1.[ ' } { *...8.9.@...;.M.m.#.#.t.r...^ &.} &.} ) ",
"u.0.4.] O.q.;.9.| ] 9.H.q.4.4.4.&.^ ' ..9.@.{ w.7.;.5.] ..a.%.} r.6.w...<.3.5.0.[ ' ' ..8.' 9.q...O.:.M.H.q.4.M.t... .*.' &.=.| ",
"0.0.u.2.@.4.@.M.@.] m.K.v.O.#.4.8.| @.{ #.{  .6.8. .o.] ..- O O j.` 5.+.b.C.y.C.4.8.4.0.t.] 9.M.9.9.:.9.9.#.@.N.0...4.2.[  .t.8.",
"0.8.t.8.{ @.9.H.q.#.M.H.q.O.4.#.;...8.O... .8.r.4. .5.c.m.$ 8 t 7 g & ] V.K.n.q.q.G.t.9.2.' @.4.9.v.9.:.5.O.] q.4.2.8.{ [ ..t.8.",
"2.2...1...8.q.n.q.9.v.b.v.9.q.@.8...#.5.{ 9.t.t.6.6.m.K.G.$ w n p u w O j.N.B.5.q.H.t.@.' ] ..@.#.v.:.@.9.@.@.t.4.4.8.4.{ 2.0...",
"[ r.6.8.G.C.9.8.4.v.9.v.#.9.v.@.t.*...9.) 5.9.e.t.>.:.V.G.$ 0 m M n p u < ; g.<.5.V.q.9.8.4.4.q.M.9.O.O.:.9.;.M.0.8.q.C.2.2.4.4.",
"*.8.8.q.H.V.9.5.#.n.v.:.M.9.t.q.*.;.4.5.@.#.6.e.#.+.5.5.n.@ 0 I U m c x i w f l.d.+.0.t.C.C.5.J.F.m.O.;.>.w.;.;.9.@.{ 8.q.#.8.0.",
"t.9.....q.v.9.9.@.m.q.4.9.4.9.9.7.@.:.:.#.n.v.r./ ' 4.u.s.@ e I p m n I I p e 2 S.*.{ 4.F.t.5.0.N.9.@.;.e.w...| 9.8.{ { 8.v.G.t.",
"t.@.] | @.#.#.;.@.9.5.#.t.t.t.8.} _ 9.M.q.M... .=.6.8.v.D.f i M I T Y c p m p u 1 j.8.4.8.w.@.+.@.#.-.| ;.) ~ ' q.G.q.8.q.e.8...",
"q.4.:.q.9.:.:.#.@.9.9.9.C.M.t.8...O.8.3.n.q.] O.7.0.2.@.h.3 p m m R Q M x m Y p 0 1 %.0.2.>.O._ @.@.| } ;.} ~ } q.N.M.u.M.9.| ] ",
"9.q.M.M.9.9.:.;.| 9.M.M.9.8.4.8.v.9.5.c.b.9.{ e.&.o.X.| % 0 a m I E `.E M m I m I 9 O l.9. .X.^ @.:.O.*.w.&.) *.q.m.q.5.n.#.| ..",
"#.n.N.m.#.:.8.@.;.;.9.e.@.....0.r.0.5.b.V.9.../ +.y.#._ 1 y n n I E ].~.E c a v n p 4 * 7.1...&.o.9.e.8.*.} ..a.m.q.<.{ 5.9.@.@.",
"5.9.q.q.9.;.9.;.-.| ..;...@.{ 9.p.%.8.0.v.9.#. .r.r.w.+ 4 p M m M W ].'.W R v z a m e 2 -.7.4.>.N.M.9.;.w.6.6.8.9.o.o.3.v.M.;.;.",
"4.o.o.O.@.;.:.:.-.| | @.] ] [ q.- f h.r.c.q.M.r.l.+ $ 7 t b a m E _.].]._.W N I a z n 7 # r.#.F.K.V.9.......&.2.#.O.q.N.V.M.:.w.",
"q.8...@.{ 8.q.e.#.7.o.:.$.] 7.6.o , j.6.5.V.f.n.g 7 u p Y p c T ~._.'.^._.`.E c I x I e 2 $.4.J.q.G.9.#.O.] ;.;.....9.C.M.e.=.=.",
"M.9.#.9.O.9.m.q.n.>.#.m.....7.+ 7 , . @.4.0.s.- 4 d a p m c C `._.'.'.'.].'.W M I m I i 3 . { t.M.4.q.5.4.8.@.m.8.9.#.4.q.;.) >.",
"#.#.M.N.9.5.#.O.#.:.@.>.] [ X 3 y 7 X O...{ -.O y I U m v R `.'.'.'.'.'.'.'.`.E m c I I 9 % o.e.G.4.q.8.9.q.| ;.9.t.4.{ 8.t.} a.",
"@.@.M.q.] O.@.] O.9.:.;.@.) f i z 6 . { 8.6.%.4 p M a N Z W ].~.'._.'.(.(.'.].W c c m I 0 $ 9.#.9.q.8.{ 4.e.w.>.>.;.8.4.4.s.| $.",
"9.9.M.4.{ 9.q.8.e.3.5.s.m.% q C z 2 $.;.8.6.% e z U c R W ].].^.'.'.'.'.^.'.].~.Z c U m u g m.;.{ 8.2.[  .q.F.-.*.....{  .9.' ~ ",
"[ 2.u.0.8.u.C.C.M.3.v.8.$.1 z J t # &.a.t...O y I c C W ].].'.'.(.'.'.'.^.(.'.'.E N m M p < b.n. .{ 4. .{ ;.;.&.8.9.{ [ 4.8.} } ",
"[ ' 8.1.2.0.0.C.q.5.q.{ _ 4 Y z 5 . 1.s.n.h.6 x I v W '.].`.'.(.'.'.`.].'.(.(.'.W N m N z 4 g.u. .~ 2.9.;.*...6.w.t...3.q.8.w.r.",
"q.{ { [ q.q.2.5.n.2..._ g.3 x w # 7.{ f.C.& w x M R `.'.].].^.[.[.].].].[.]._.'.`.U a b z 9 j.0.6.' 8.C.e.*.7.w.7. ...n.5.2.a.r.",
"9.@.] #.N.C.n.9.c.v.4.{ D.g w + 6.} a.@.:.# 9 N I W '.].(.).(.[.).[.[.[.[.[.[.]._.Z N b m 4 A.9.6.1.t.m.t.6.7.@.6.~ { n.v.4.2.1.",
"m.m.9.9.M.M.M.N.C.b.z.N.M.; $ $.[ @.8.{ ..# t U R ~.).]./.).).).[.).).[.[.[.'.)._.T m B I 3 h.5.8.r.7.q.0.>.( ,.7.^ ] 3.5.4... .",
":.M.m.q.v.9.9.M.F.c.k.8.#.&.i.&.' v.a.<./ O i U Z (.}.)./.|.[.|.OXOX).|.OX)./.).].E N N z 4 & 8.0.l.=.q.k.;.[ &.&.' ..4.5.q.8.&.",
":.e.m.9.{ ] o.5.N.C.;.:.w.= O @ O.H.M.3.O.5 y M K R.W.).).+XOXOX@XOXOX+XOX|.R.W.(.J m C I w ; 0.>.O O +.o.;.O.(  .8.q.q.n.C.t.9.",
":.;.9.@.) ' 5.4.V.t.{ :.>.1 e 3 -.m.9.5.D.6 p M P R.W.|.|.OXOX@X@X&X&X+XOX|.W.R.).E N C I 9 : y.; 9 7 %  .2.:.^  .0.V.V.n.n.5.4.",
"@.@.8.8.' [ t.q.5.:.] } o 9 s 5 = O.#.q.A.6 z N P R.W.+X@XOXOX$X8XwX6X@X@X+XW.R./.E M M m 7 > D.5 s s < ` 0.-.....3.q.n.n.n...[ ",
";.:.e.t.4...5.4.5.C.e.& 9 n T 9 o ` O.e.S.6 z C P /. X&X&X@X5X8XtXiXwX4X&X+XW.R.).L U b M 9 1 f 0 m a 9 ; e.w.,. .1.q.B.b.v.O.[ ",
"e.M.M.m.9.] ] #.C.q.w.< i M m i 3 h.@.t.: 9 x N P }. X5X5X5X0XrXiXiX7X4X5X+X}.W.).K N b T d e u M N b t g D.5.^ [ { n.B.B.c.{ { ",
"#.M.N.8.w. .~ 6.v.6.j.9 U U b N t 2 * = 1 y N B T.OX&X5X5XwXtXtXsXiX7X5X5X@X X}.|.K U M M N R N N m C x 7 A.| ! { 8.0.8.M.v.o.] ",
"5.9.t.8.6. .~ &.9.8.# 9 U N b N Y i 7 4 r U C B T.OX&X6X7XwXiXiXtXtX8X5X5X&X X XOXK N N b N C V N N C v w * ] | ..8.8.4.v.N.#.o.",
"#.@.9.8.8.&.' } t.:.f i N C B N b b b x M R v A /.+X&X6X8XtXsXsXtXtX8X5X7X&X X X+X~.J b b V W E c N C b r o @.q.t.t.0...@.v.5.4.",
"8.{ ..*...;.| ..r.l.3 n C M B A V Z N b A B v E |.+X*X0XwXiXsXsXuXtXwX7X6X$X|.OX|.OX^.~.T.^.@XP V N N b t 2 #.0.d.0.8...o.v.5.<.",
"t. . .' } ;.;.t.t.%.6 n B B K W Z C c C Z B B P  X@X*XqXrXsXsXtXsXiXwX7X6X&X+X X|.+X+X@X+X+X@XP V N C B z 3 #.2. .[ @.9.8.q.5.2.",
"y...{ ..*.8.8.F.t.l.6 z B V W OXP J R R N b J R. X#X*XqXtXsXuXiXsXiXrX8X6X6X#X+X XXX+X+X X#X|.K B V C B z 4 %.1.^ ' e.M.@.' <.5.",
"0...8.*.;.8.8.q.n.l.5 T B J ~.#X#X~.P A V P ~. XXX#X*XeXtXsXiXiXsXiXtXqX<X*X#XoXXXXXXX X X#X|.J B A A V z 3 %...1.4.t.e.{ ^ { q.",
" .6.w.*...8.{ @.<.l.< v A J /..X+XXX X|.}. X X$XXXXX*XrXuXiXiXiXsXtXtXqX*X%X%XoX&XXXoX$XXXXXR.V V A C V l 3 %.{ r...#.;.#.2.{ q.",
"8...^  . . .*...{ ' 2 x J K /.#XoXXX XXX%X#XXXXX.XXX9XrXsXdXdXfXaXdXdXpXwX*X$X<X%X%XoXXX#X@XP V A V J C p   ! 3.G.8.O.] ..0...9.",
"M.;.^  ./  ...8.O.8.@ r J J (.oXoXoXXXoXoX#XXXoXXX%XqXpXfXfXfXfXdXgXfXaXpXwXqX9X9X*XoXXXoX+XP L J L J L q o =.9.t.t.e.;.8.0.#.v.",
"H.8.' *.6.1.&.w.;.8.& 4 V G ^..X#X#XoXoX%X%X%XoX%X9XrXfXkXkXjXjXkXkXjXgXfXfXpXtXqX*XoXoX%X).F J J E J V 4 j.3.9...t.t.;...8.9.N.",
"M.#.' 8.w.7. .2.9.[ g.2 z P P oXoX#X#X#XoXoXoX%X$XwXpXjXlXzXzXlXzXzXzXlXlXjXfXpX8X*X%X.X.X X~.P P K K x 2 :.4.9.8.e.w.....#.9.m.",
"5.9.@.*.6.7. .1.8.&...@ r K G XXoXoXoXoXoX%X<X*X6XrXjXzXcXcXcXcXcXvXvXcXzXlXjXgXeX<X*X$X%X%X X}./.G R e ; w.{ @.e.8.6. ...@.#.k.",
"5.M.q...} &. .&.6.a./ . 3 z G }.oX<X>X.X.X>X9XwXpXaXlXvXvXvXmXNXmXmXmXmXcXcXlXjXrXwXqX<X<X.XoX>X XG i 1 D.e.*.X.8.../ [ 8.@.+.v.",
"5.M.n.| ) ;.} =.1.=./ | o k J T..X>X>X:X:X<XeXfXjXlXvXNXBXBXBXCXCXBXBXMXmXvXxXlXgXpXtXqX<X>X>X$XR.k 5 & C.q.8. .O.' / / t.:.:.v.",
"5.N.n.| ..a.*.*.7.} =. .h.2 l P E.>X:X:X=X<XtXjXvXvXMXBXBXVXZXZXZXZXZXCXCXmXvXcXxXzXsX<X>X>X>X}.J q $ u.n.+.o.s.>.} ^ ( s.w.v.k.",
"<.q.n.#.9.9.@. .;. .5.M.m.; 4 K I.=X,X:X:X,XrXxXcXvXVXCXCXCXSXDXDXDXDXZXCXCXMXvXmXgXuX<X=X-X}.G e O ` y.V.5.X.#.9.#.....9.t.4...",
"n.5.v.n.n.#...{ <./ 2.z.C.M.# k G W.=X,X:X,XyXdXvXmXCXCXZXDXDXFXFXDXDXSXZXCXMXmXxXiX3X,X:X:XF q f . 6.5.M.k...6.9.@.{ ..n.N.v.4.",
"K.9.5.n.q.8.4.{ [ ] ;.n.u.n.j.6 H G Q.,X,X-X1XtXvXMXZXCXSXFXGXGXGXFXFXDXZXZXCXMXgX1X,X:X.XG k f l.| 6.M.M...@.y.9.4.4.0.M.C.M.q.",
"N.5.4.q.@.0.9.@.[ 8.t.t.y.z.j l F G R.Q.,X;X,XyXkXmXSXSXDXGXHXGXFXHXHXFXSXDXNXgXuX,X:XE.U.G l j e.v.*.t.t.1.;.8.8.4.t.u.t.8.#.9.",
"c.#.5.9.{ 9.t.9.k.H.b.c.3.>.j F G U.T.R.{.;X2X2XuXkXZXDXFXGXGXHXGXJXJXFXDXAXhXyX,XQ.Y.Y.U.T.P S x.*.| D.s.8... .6.2.q.t.9...@.4.",
"5.@.9.M.8.4.8.9.w.V.n.{ 5.:.D.D G I.Y.Y.E.=X-X2X3XuXbXDXFXFXGXHXJXGXHXGXDXbXyX2XQ.E.I.Y.Y.G H j z.;.| m.s.8. .6.2.' ] o.5.q.n.9.",
"5.5.n.n.n.4...4.+.:.8.{ 3.d.f.S.D H I.Y.Y.Y.=X,X2X3XuXNXDXFXFXGXHXFXFXFXNXuX2X-XY.Y.Y.I.F D h k.7.k.;.| } 6.| ..2.[ ] ] ..C.V.m.",
"o.5.q.9.M.#...4.#.~ ` ' 7.a.b.3.D.h S F U.Y.Y.E.2X;X3XbXDXFXFXGXGXGXFXSXkX3X-X=XY.I.G H D z. .2.=.&.| _ / 8.@.;.2.8.9.] ' t.N.c.",
"3.n.v.v.M.9.4.@.e.q.) ] 9.@.} e.6.#.j.h D F I.U.W.:X,XyXbXSXFXFXDXGXDXcXuX,XQ.U.K H j x.b.8.[ { ' ' ' } ' | | :.t.;._ X.@.8.q.#.",
"4.9.b.v.M.C.8.] q.F.;...;.8.8.8.8.| 6...` x.j D H U.U..XeXaXxXNXnXaXuX<XW.G H S h x.v.q.v.k.3.3...&.{  .| | ;.m.M.9.+.k.m.M.m.v.",
"<.4.5.v.v.H.M.] @.e.8.' ..} ;...w.O.#.-.| a.=.-.S.: P.!.E.{.{.{.{.{.{.!.P.L.j.l.[ r.7.0.0.3.V.c.r.t.8.8.8.| m.M.e.m.:.:.M.e.9.9.",
"4.<.O.o.#.t.8...;...' ' } ..;...w.*.&...:.e...1.3.o.:.b.Z.g.x.x.B.Z.Z.B.0.0.<.] w.>.@.6.0.c.n.q.8.r...w.8.;.:.q.:.H.m.;.;.@.;.8.",
"q.u.5.' ..@.O.#.s...} 7.r.t.w.;.w.&.~ ' o.{ 4.2. .;.@.;.:.] | a.3.0.3.C.G.G.&.( t.} ] #.5.q.9.e.8.2.2.9.9.O.{ O.v.J.M.*.;...8.8.",
"5.n.0.' { #.+.9.e.....7.w.s.*._ ;.&.' ] { ) &.;.=.w.@.O.9.>.| 9.M.9.' 4.u.t.' / ../ 1.O.k.M.2.8.q.@.q.t.t.9.....e.t.6.*.e.8.*.r.",
"5.q.u.<...9.:.b...*.w. .} 8.;.| g.k.8.w.6.} &.s.w.t. .{ 8.8.O.o.N.N.<.o. .*.] | O.;.w.6.4.#.#.v.9.o.@.M.q.4.0.2.9.0.[  .8.*. . .",
"B.3.y.y...@.+.v.;.w.s./ ~ &.>.D.;.a.F.t.8...4.N.q.t.w. .&.>.D.J.G.V.w.8.~ {  .8.8.e.a.;.;.] X.v.#.X.] q.8.2.t.7.8.w./ [ &.&.} / "
};
