/* XPM */
static char *out[] = {
/* columns rows colors chars-per-pixel */
"64 64 252 2 ",
"   c #7D3505",
".  c #595E07",
"X  c #7C4607",
"o  c #6A560A",
"O  c #75540B",
"+  c #7D4B13",
"@  c #665915",
"#  c #755613",
"$  c #59680C",
"%  c #4D7212",
"&  c #4D7514",
"*  c #577814",
"=  c #69690D",
"-  c #686919",
";  c #B81703",
":  c #992D07",
">  c #893D06",
",  c #9B3407",
"<  c #8E3A14",
"1  c #A82905",
"2  c #B92709",
"3  c #B22E0F",
"4  c #A5330A",
"5  c #C31C07",
"6  c #C81D12",
"7  c #C8260A",
"8  c #D9280A",
"9  c #CF360E",
"0  c #CA2611",
"q  c #D82A14",
"w  c #DA3717",
"e  c #F0320D",
"r  c #E62B15",
"t  c #EA3718",
"y  c #F43B17",
"u  c #FD3D1A",
"i  c #EC3D21",
"p  c #864709",
"a  c #93440D",
"s  c #854614",
"d  c #954313",
"f  c #8E5210",
"g  c #AD4E13",
"h  c #917210",
"j  c #B76C16",
"k  c #A77921",
"l  c #D24D17",
"z  c #F7530E",
"x  c #EB4619",
"c  c #F54416",
"v  c #FC4415",
"b  c #F54C15",
"n  c #FB4B15",
"m  c #F4431C",
"M  c #FD431B",
"N  c #F54C1C",
"B  c #FD4B1B",
"V  c #EA5517",
"C  c #FC5516",
"Z  c #F45A15",
"A  c #FC541B",
"S  c #F65819",
"D  c #CB6A17",
"F  c #D56716",
"G  c #FA6B0C",
"H  c #F87B0B",
"J  c #EA6616",
"K  c #FA6616",
"L  c #EA7510",
"P  c #FA7817",
"I  c #DC4125",
"U  c #FB4424",
"Y  c #FD4B22",
"T  c #EF5027",
"R  c #FB5924",
"E  c #F86923",
"W  c #FA7527",
"Q  c #F1722C",
"!  c #FD7C2B",
"~  c #138E00",
"^  c #1B8C01",
"/  c #1D9202",
"(  c #1B9806",
")  c #1D9D13",
"_  c #248E02",
"`  c #2A8C07",
"'  c #36890B",
"]  c #239404",
"[  c #2B9505",
"{  c #249905",
"}  c #2A9A06",
"|  c #24950A",
" . c #2C950A",
".. c #249B0B",
"X. c #2C9B0B",
"o. c #329405",
"O. c #339B05",
"+. c #32960B",
"@. c #339C0C",
"#. c #3A9A09",
"$. c #3A9D0D",
"%. c #358B13",
"&. c #269D11",
"*. c #2C9D11",
"=. c #2C9A17",
"-. c #379716",
";. c #349D12",
":. c #3A9D12",
">. c #3D9D1A",
",. c #1BA30B",
"<. c #2BA409",
"1. c #2CA20D",
"2. c #37A60A",
"3. c #33A20D",
"4. c #3AA20E",
"5. c #26A212",
"6. c #2DA213",
"7. c #2CA718",
"8. c #34A313",
"9. c #3BA414",
"0. c #35A914",
"q. c #3CAA15",
"w. c #35A41A",
"e. c #3CA51A",
"r. c #35AB1B",
"t. c #3CAB1A",
"y. c #36B218",
"u. c #3DB11D",
"i. c #389A21",
"p. c #3BA622",
"a. c #3CAB23",
"s. c #3BB323",
"d. c #43860D",
"f. c #51990F",
"g. c #468816",
"h. c #568617",
"j. c #439C13",
"k. c #469518",
"l. c #718613",
"z. c #679319",
"x. c #44A30E",
"c. c #42A414",
"v. c #4BA617",
"b. c #43AA15",
"n. c #41A51A",
"m. c #43AB1B",
"M. c #4AAD1D",
"N. c #51AA1B",
"B. c #44B51A",
"V. c #44B11D",
"C. c #4BB31D",
"Z. c #55B31C",
"A. c #62A51D",
"S. c #519324",
"D. c #43AC21",
"F. c #48A824",
"G. c #53AC24",
"H. c #44B222",
"J. c #4BB322",
"K. c #51B623",
"L. c #4DC331",
"P. c #848F1C",
"I. c #A78B1D",
"U. c #CF9D1E",
"Y. c #F58809",
"T. c #EB960C",
"R. c #F99709",
"E. c #F98514",
"W. c #F99616",
"Q. c #EAA918",
"!. c #FBA919",
"~. c #F8B114",
"^. c #EE8D22",
"/. c #F9862A",
"(. c #FD8C2E",
"). c #FA9624",
"_. c #FD912E",
"`. c #FD9B2D",
"'. c #FE8D33",
"]. c #FB8834",
"[. c #FD9333",
"{. c #FA9636",
"}. c #FD9B33",
"|. c #EBA622",
" X c #FBAB25",
".X c #FEA52D",
"XX c #FCAA2D",
"oX c #FBB82C",
"OX c #FDA433",
"+X c #FDAC32",
"@X c #F8A738",
"#X c #FDAC3A",
"$X c #FDB233",
"%X c #FCBB33",
"&X c #F8B837",
"*X c #FCB33C",
"=X c #F9C81E",
"-X c #F3D01C",
";X c #F9E21E",
":X c #FAC928",
">X c #FAD929",
",X c #FDC234",
"<X c #FBC638",
"1X c #FBD635",
"2X c #F5E924",
"3X c #FCE639",
"4X c #FEAD42",
"5X c #FDB344",
"6X c #FABA47",
"7X c #FBBC45",
"8X c #FAC44B",
"9X c #FBC949",
"0X c #FCD842",
"qX c #FDCB56",
"wX c #FDD355",
"eX c #FBD45B",
"rX c #FEDB5D",
"tX c #F5E144",
"yX c #FBE958",
"uX c #FDDD63",
"iX c #FDDB69",
"pX c #FEDB76",
"aX c #FEE163",
"sX c #FBE569",
"dX c #ECE07A",
"fX c #FFE375",
"gX c #FDE47C",
"hX c #FEE683",
"jX c #FEE986",
"kX c #FDE98B",
"lX c #FDEA93",
"zX c #F8EA9A",
"xX c #FEEC9C",
"cX c #FFF194",
"vX c #FEEDA4",
"bX c #FAE1A8",
"nX c #FDEEAC",
"mX c #FDF3A2",
"MX c #FDF1AC",
"NX c #FDEEB0",
"BX c #FCF2B4",
"VX c #FAF8B7",
"CX c #FDF4BD",
"ZX c #FEF5C3",
"AX c #FDFAC6",
"SX c #FDF6CD",
"DX c #FDFBCC",
"FX c #FFF6D4",
"GX c #FEFCD4",
"HX c #FDFDDD",
"JX c #FEFDE3",
"KX c #FDFCEB",
/* pixels */
"K.Z.#.@.9.+.[ ;.>.*.8...] X.0.u.w.8.t.8.8.1.7.r.7.X.O.8.8.:.;.m.p.s.} 9.0.3.t.y.t.6.6.../ } @.H.H.w.:.X._ o.:.+.| / =.=.7.| | =.",
"m.9.4.@.o.+.;.w.;. .X.} ] 1.8.1.7...6.8.8.+. .&.X.1.X.#.#.c.@.6.#.n.q.9.2.2.y.q.1.X.1.6.X.8.8.m.e.8.9.;.+.[ @.@.&...| &.&.&.^ _ ",
"B.9.4.O.} 9.e.e.@.] X.9.3.8.3.{ ..( ] 3.q.@.{ ;.:.m.0.<.j.9.5.| 1.;.e.9.2.<.<.4.{ | { X.*.X.8.9.@. .;.m.c.$.$.b.r.X./ ..| &.| ` ",
"u.0.3.[ @.e.;.9.X.` 9.M.q.3.8.3.&./ ] X.9.3.X.8.6.@.@.[ +.w.;.=.9.;.0.1.2.<.2.t.{ ] ] X.8.[ 8.t.X.@.@.m.J.q.8.V.t.X.X.=./ &.=. .",
"0.0.t.3.1.3.@.n.@.[ n.K.q.+.@.3.8. .X.[ @.} X.6.>.X.@.} X.k.+ s h.:.3.O.x.B.q.b.3.8.1.0.q.} 9.m.9.9.:.9.q.@.+.m.q.X.3.1.{ ..t.8.",
"0.3.r.0.} @.q.M.q.@.m.J.c.+.4.3.;.@.8.+.X.} 7.0.5.} 3.q.n.F.# 3 o %.8.O.M.L.C.x.q.C.t.9.X.] @.8.9.n.9.$.9.+.} m.1.X.8.} { 1.t.;.",
"1.1.1.X.X.8.q.m.c.q.c.M.9.4.9.@.8.X.@.9.O.8.t.a.r.;.t.B.G.n.X 6 1 o j.q.j.v.v.q.9.K.t.@.[ ] } @.$.c.:.:.9.@.+.t.3.2.8.3.{ 3.0.X.",
"..0.6.8.V.V.q.4.3.c.c.c.$.c.n.@.r.3.+.9._ 4.9.e.p.X.c.C.M.-., q t 7 p h.O.2.3.@.3.V.m.q.3.8.;.q.b.9.+. .:.9.@.m.8.8.q.B.1.1.3.8.",
"6.8.8.q.J.J.9.$.#.b.q.8.c.4.m.n.X.8.:.9.@.O.@.m.;.} x.b.a.d.1 i M c 8 1 * $.#.u.V.O.7.H.G.u.q.V.J.c.X.-.>.w.;.;.q.X.{ q.q.@.9.q.",
"t.8.X.+.9.9.9.9.O.b.q.$.4.3.0.0.8.X.X.0.2.M.9.6.} _ 1.q.M.$ 7 U M M x 9 , * D.m.m.1.+.8.q.t.q.8.M.9.+.;.e.w.X. .9.9.} X.;.q.D.t.",
"q.@.[ } @.4.$.9.3.9.:.:.0.q.q.0. .` $.9.9.m.3.....:.q.2.f.f r M M T M u 8 , h.t.c.1.#.3.0.8.;.+.@.@.-. .;._ ^ ] e.H.q.2.9.q.8.X.",
"9.9.:.9.9.9.:.@.O.4.e.e.u.m.b.9.) ;.f.v.9.0.} X.0.5.8.<.d., w v c u M v m q 4 & 1.X.<.9.8.X. .` @.@.` | ;.| ^ ] q.M.V.t.m.9. .[ ",
"9.9.M.m.9.9.9.@.o.9.D.t.q.0.3.8.i.p.9.2.m.q.X.@.@.1.| d.o 2 u B S v U B c u q   ` ( { 3.8.X. ._ $.:.X. .8.=.] 6.q.q.9.2.b.:.[ X.",
"4.q.M.n.:.;.:.@.@.;.e.e.3.6...-.p * $.q.C.:.X.}  .a.$ : 2 e M S ! K u x b u t 2 . ( <.X.6.:.*. .o.q.e.8.=. .| p.M.4.3.} 4.9.@.@.",
"4.9.q.q.8.:.>.;.*.+.@.@.O.1.' = ; o $.q.v.c.6.X.0.S.3 8 y v x ! [.! N M B v u t , d.=.X.5.>.=.9.M.m.q.;.6.7.6.w.$.O.3.2.q.m.:.;.",
"3.O.} +.@.;.:.:.X.'  .1.[ [ % 4 6 o q.2.#.q.y.0.:.< q B v b R ].{.'.W M v Y u y 6 $  .1.8.8.6.c.K.C.9.X.X.X.&.6.$.} 9.M.C.m.:.w.",
"q.4.+.3.X.9.q.q.q. .:.q.] d.4 t 7 & w.<.j.V.s.a.s 7 M B u C /.{.'.[./.S M M M v e a >.<.` / 0.D.t.V.9.3.[ ] 9.w.X.[ 4.J.M.w. .=.",
"M.q.@.9.+.8.n.9.n.>.-.1. .X w x , d.} ;.8.9.y.- 2 i Y c C /.{.'.[.[.[.W B M M M t : g.3.+.] X.c.V.3.q.4.3.;.+.e.:.q.3.$.9.;.| i.",
"@.4.M.M.9.:.:.+.@.j.+.$.' , I q - u.] 8...3.' , r M c b ! {.{.(.[.[.[.'.S c M u M 2 * 9.4.6.@.x.m.X.q.2.q.e. .w.w.m.3.} 9.w.| >.",
"+.@.q.q.[ O.@.[ @.:.:.9. .4 0 + S.y.] X.X.7.O 0 v y z ! '.(._._.[.'.{.[.E b M U u q O 3.0.t.9.2.q.q.8.X.8.t.:.-.;.;.9.1.@.a.&. .",
"9.9.V.3.} 9.q.8.0.c.9.0.-.+ p F.w.7.| X.9.k.: t N c E '.[.'.[.'.[.[.'.[./.S M U v t 4 %.2.V.a.O.X.q.X.{ X.t.a.;.@.X.} } X.8.] ^ ",
"{ 1.u.0.8.u.V.V.0.c.q.$.-.' i.p...=...q.M.# 0 u v R ].[.'.{.{.[.[.[.[._.[.E v U v y 7 * b.t.u.q.[ | X.} } 6.;.*.w.0.} } 1.8.] =.",
"{ ] 3.X.3.0.0.V.t.4.q.O./ &.7.( <.;.=.D.S., r M B W {._._.{._.[.'._.[.'.[.! S v B m 8 p n.4.m.M.X.] ;.q.@.X...=.w.r.3.3.q.8.8.p.",
"q.} } { r.q.1.2.9.b.} ( 1.G...<.6.=.*.D.h.3 m M S /.{._._.(.'.[.[._.{.{.'.'.E M M v r 4 :.2.9.n.&.] 8.H.e.*.7.7.6.X.} m.4.1.r.7.",
"9.@.[ 4.M.V.q.4.c.v.<.#.m.F.X.X.i.s X g.O 0 U z P ].[.[._._.[._.{.(.}._._.[.! v m B y 2 h.[ #.- < g.y.q.j.w.&.i.5.^ } m.x.2.6.5.",
"n.n.:.9.M.m.M.M.m.M.c.e.c.9.e.;.O 0 6 # > e U b W '.[.[.[._.[.}.[.[.{.`.[.[.].b M M x 5 * 5.d.3 6 p :.n.p.w.,.&.7./ [ O.3.3.1.{ ",
":.M.m.q.c.4.4.m.c.m.:.q.3.] =.% 2 t r 2 ; x B Y ].[.{.{.}.}.}.{.}.}.}.{.}.}.'.S M n m 8 o * a q t 1 -.w.9.3.( | &.| } 2.4.q.8.X.",
"@.n.n.9.} [ @.4.Z.M.;.c.0.X.-.< w T M w q m c R '.[.{.{.}.`.OX}.}.}.}.}.}.}.{.E m v B t 2 2 8 U B 7 $ ..O.X.=.| ..8.t.q.m.V.t.8.",
";.;.8.@.] ] 2.8.b.q.{ +.<.*.$ 7 x M B N m Y n E _.[.{.`.OX}.OX}.OX}.}.}.OX}.{.W R b M Y i y M Y B q X ` X.X.@.( ..q.C.B.b.b.0.3.",
";.@.;.8.] [ q.q.0.q.@.) ' -.p r B v B B M Y B A [.}.}.OX#XOXOX@X@X#XOXOXOXOXOX! N b M M Y A A b Y t , g.6.$.@. ...2.b.b.b.x.X.} ",
";.:.w.t.3.X.4.9.0.q.@.' @ % 2 x B Y T b v m B E `.}.OX#X#X#X#X#X6X*X#X#X@X@X@X].Z M B M n A N M M x 1 h.g.M.7.6...1.4.v.v.c.} } ",
"e.M.M.n.9.[ [ @.m.v.q.- d @ 8 b u Y N B Y R v E `.OXOX#X5X#X#X6XqX5X*X#X#X*X#X[.W T Q R E W R U Y x 8 - # m.2.{ ( } b.Z.Z.x.} } ",
"$.n.m.q.8...^ =.r.c.p.< g < w U B Z K N U Y B K `.}.#X4X4X#X7XwXrX7X@X#X5X4X#XOXOX}.{.`..X! C B Y M 0 s a >.[ ~  .8.8.9.m.c.o.} ",
"4.q.e.;.=.../ &.9.8.g.3 g , t Y B ! ].K S b Z /.OX@X4X5X5X6X8XeXaX8X*X5X4X5X4XOXOX}.}.`..X! n B U b 9 s 4 d.o.] @.8.0.3.b.M.#.O.",
"@.3.8.0.8.*./ | w.@.= 2 l 2 u B b '.#X`.(./._.#XOX@X5X5X5XqXeXaXsXwX6X5X5X6X5XOX.XOXOX.XOXW v B Y Y 9 d 3 . 3.a.r.r.q.} O.c.4.2.",
"3. .X.;.X.6.X.X.r.k.> 0 x ; m n Z [..XXX#XOXOXXXOX@X5X6X8XqXeXsXaXeX8X6X6X6X*X@X.XOXOX+X}.W B B A Y q 3 0 > :.t.u.q.3.X.@.9.q.} ",
"t.} ] | | ;.8.t.r.k.1 6 I 2 t C Z _.XX XXXXXOXXX.X+X*X8X9XrXaXyXaXrXqX8X7X8X*X.X.X.X+XXXOXE B B B B q d 0 : d.1.X.{ X.q.8.9.2.3.",
"u.1.X.X.X.;.8.D.y.k.1 q D 4 t S S (.$XXXXXOX.X+X.XXX$X9XwXaXuXrXaXrXwX9X8X7X$XXXXXXXXXXX}.K B B n Y w f 3 : ' 1./ ] e.m.@.{ } q.",
"0.6.8.*.;.q.;.q.0.k.< 0 j < w A A ^.XX$X+X+X.X X+X+X%X9XeXaXuXsXsXuXuXwX8X7X*XXXXXXXXX.X}.S B C Z M 0 d 2 1 %.1.1.1.m.e.} ] { q.",
"..6.8.*.X.;.X.X.3.k.@ 2 j X 9 A Z P .X$X$X&XXX$XXX$X&X9XuXsXiXfXfXsXsXaXqX8X%X$X$X+X$X+X}.Z A A A N 2 = 3 + ' X.r.X.@.$.@.X.1.2.",
";.X./ ......X.X.[ %.& : j * 2 C A L .XXX+X$X&X+X@XoX%XeXfXfXfXgXgXgXfXpXfXuXqX9X&X$X@X$XE.Z A C Z T 1 = 3 % ^ 3.H.8. .[ X.8.X.9.",
"m.@.^ ....{ &.8.X.} g.> d i.a l A K ).$XoX$X$X+XoXoX&XeXgXhXgXhXhXhXhXgXgXfXiXeX<X%X&X*XE.S R A z t < &   ` o.j.t.e.e.;.8.q.@.m.",
"J.9.] 6.6.5.&.8.9.<.:.- a =.o 0 S K P $X&X&X&X&X&X,X9XiXhXhXkXlXkXjXjXjXjXhXgXiX<X%X$X$XE.A R C C 9 o ' $ &.4.w.X.t.t.;.X.q.9.M.",
"m.;.] 8.7.7...6.7.o.:.k.# * X 5 V S K `.&X%X%X%X9XwXiXhXlXlXlXlXxXlXlXzXlXkXhXfX9X<XoX$X).J K K V 1 & -.k.w.8.8.8.t.e.X. .$.9.c.",
"4.9.@.;.6.7...&.6.=. .;.& # 9 q V K K E.+X,X,X<XeXgXkXxXxXxXxXvXxXxXxXxXlXlXkXhXeX8X&XoX&X^.^.P t X 8.M.a.8.} @.t.8.6.} X.;.$.j.",
"4.m.t. .] X...5.>.w.( { X.# I K K P K G ).oX:X<XpXlXvXvXvXvXMXnXnXMXMXvXvXxXlXkXpXqX9X,XoXoX*XL 3 * q.;.t.0.@.[ :.| ....8.@.$.j.",
"4.v.q.[ _ *.| &.7.;./ ( } # w P K K K G E. XoX<XiXlXnXNXnXnXBXBXBXBXBXMXnXnXxXlXxXpXuX<X,XoX Xl s -.7.1.q.t.j.*.@.^ ~ ,.t.;.$.c.",
"2.V.m.X. .t.;.=.5.,...5.9.- 9 G G G G E.Y.!.,X,XuXzXBXBXNXBXZXCXZXCXCXBXBXNXvXxXzXkXuX<X,XoXW.2 < = d.s.V.O.O.a.e.| ~ 5.a.e.:.c.",
"O.q.b.$.9.4.@.X.( <.9.j.e.h.1 T P G G W.oX,X:X=XwXxXCXVXBXZXZXSXDXSXZXCXCXBXmXnXxXhX9X:X:X!.G V e 0 + r.B.:.+.3.4.@.X.O.q.m.3.X.",
"b.2.9.c.m.$.X.} <.{ @.c.J.G.O 9 P P H T.:X>X-X:X1XgXMXVXSXFXDXGXGXDXFXSXZXBXMXnXlXeX>X:XoXE.H P E 9 % r.V.j.X.@.c.@.} X.q.M.q.3.",
"K.4.4.m.q.8.3.} ] ] @.M.m.V.d.g G H Y.Y.=X;X-X:X1XfXMXZXGXHXGXHXHXGXHXHXSXVXBXnXfX1X;X:XT.H H P J h >.m.3.+.w.t.9.3.3.8.m.M.n.q.",
"C.4.3.m.@.8.q.@.[ 8.m.M.t.4.<.l.F P Y.Y.!.>X;X>X0XhXCXAXDXGXHXHXKXHXHXGXAXAXVXzXtX1X=X!.H Y.E.G j :.e.c.0.6.;.1.3.8.r.V.t.9.@.q.",
"x.@.3.q.X.9.q.9.c.J.t.c.2.j.} +.h J ^.Y.W.:X>X2X1XjXZXDXDXGXKXJXKXJXHXGXDXSXnXsX3X:XR.Y.Y.E.J D z.-.%.r.s.t.} 6.1.X.q.m.8.+.@.@.",
"4.@.2.m.9.3.9.8.c.J.q.@.1.0.q.m.v.P.V L T.!.>X2X2XsXBXFXGXJXKXJXJXHXJXHXGXCXjX3X>X~.R.R.Y.G D z.6.k.;.:.a.8.{ 6.1.{ [ @.2.t.q.c.",
"4.#.b.v.q.3.@.8.[ #.9.3.8.y.m.M.Z.M.l.F L Y. X>X2X3XjXCXDXHXJXJXHXHXHXHXAXcXyX;X=XR.Y.W.L j z.5.w.e.&.' &.5.} [ 1.{ [ ] @.V.C.v.",
"2.4.q.9.b.@.X.3.;._ ` ] } V.v.7.J.u.t.k.k J Y.|.>X;XyXmXAXDXGXHXKXJXGXDXMXaX2X:XR.R.L J j f.<.w. .X.] |  .X.:.8.1.8.9.[ ] q.V.9.",
"2.m.c.c.m.q.3.@.q.9._ [ 8.;.[ e.8.@.8.8.#.l.j J H ~.-XyXmXSXDXGXDXHXGXmXsX>X~.!.P J j l.J.8.} { | / | ..]  . .9.r.9.' [ @.9.q.$.",
"<.q.v.c.n.m.q.[ q.D.;.X.8.;.8.8.8. .X...( ;.f.f.h j E. X9XpXzXbXzXdXuX<X!.L F F h z.9.2.c.$.4.2.X.X. .X. .] :.n.m.9.#.:.m.t.e.c.",
"} 2.4.x.q.J.t.[ ;.e.8.] } | ;.X.7.X.-.+.+.8.5.( 9.f.P.U.T.Q.Q.|.@X).Q.U.I.l.z.d.| r.0.0.0.<.B.x.r.r.*.8.:.X.n.D.e.n.:.j.n.q.9.9.",
"<.3.+.O.$.n.9.@.;.X.] ] X.X.;.*.e.&. .-.>.e.X...:.1.8.n.v.f.f.A.N.N.A.K.D.y.3.] r.;.@.1.y.x.C.2.0.0.X.9.w.X.;.c.:.J.n.+.;.@.;.9.",
"4.b.2.] o.@.+.@.t.X.| 6.w.a.8.;.;. .^ ( &.X.*.6.&.@.O.@.9.o.o.e.2.2.2.b.J.m.&.) t.| ] +.q.q.q.8.8.1.3.8.q.+.[ +.e.J.t.@.;.;.8.8.",
"4.V.q.] } @.+.q.e.&.X.0.7.a.;.` -.*./ X. ._ @.8.@.r.6.} e.=.%.:.q.3.{ 3.t.r.] { X.( 5.+.j.c.8.w.q.@.q.m.q.8.X.X.e.t.8.*.w.8.6.w.",
"x.2.y.<.X.9.:.v.;.*.7...| =.;.` ;.e.8.8.6./ ..0.7.p.=.o.$.$.$.4.H.C.#.O...=.|  .+.@.e.*.8.#.$.c.9.O.@.m.q.8.8.1.e.8.....0.*.| ..",
"M.3.y.y.X.@.#.c.;.w.a.( ^ =.e.D.;.n.F.q.8.X.9.F.m.b.1.&.=.>.n.D.B.B.0.1.^ } X.1.w.e.w.;.;.] o.x.4.o.[ 9.4.1.t.7.0.w.( ( &.&.../ "
};
