/* XPM */
static char *e4c730e0574147b3ea126e8475fe4f25Lt0Wf4Af8AGGShFv[] = {
/* columns rows colors chars-per-pixel */
"64 64 256 2 ",
"   c #2E7B07",
".  c #5D5D13",
"X  c #794B0C",
"o  c #6A5A09",
"O  c #7C4913",
"+  c #6C5A16",
"@  c #775514",
"#  c #785C0F",
"$  c #497709",
"%  c #5C6C17",
"&  c #567916",
"*  c #507110",
"=  c #656714",
"-  c #6A6C15",
";  c #666621",
":  c #BA1A07",
">  c #B61E19",
",  c #9C2C07",
"<  c #993708",
"1  c #973A12",
"2  c #893D0D",
"3  c #A92807",
"4  c #B8290A",
"5  c #A8340A",
"6  c #B1320D",
"7  c #B52914",
"8  c #AB3115",
"9  c #C31A0A",
"0  c #D41F0E",
"q  c #C72809",
"w  c #D42B0D",
"e  c #D6280B",
"r  c #C7350B",
"t  c #D53609",
"y  c #C72813",
"u  c #DA3616",
"i  c #D72D14",
"p  c #E9390D",
"a  c #E82C12",
"s  c #EB3516",
"d  c #E83916",
"f  c #FD3D1B",
"g  c #F63A16",
"h  c #EF350A",
"j  c #FA3B23",
"k  c #DE3520",
"l  c #86480B",
"z  c #884913",
"x  c #964616",
"c  c #8E4C0F",
"v  c #A9470E",
"b  c #967316",
"n  c #B46913",
"m  c #B87625",
"M  c #B46F29",
"N  c #995621",
"B  c #D15416",
"V  c #EA4517",
"C  c #F44515",
"Z  c #FB4314",
"A  c #F54A15",
"S  c #FB4B15",
"D  c #F4441A",
"F  c #FC441A",
"G  c #F44B1D",
"H  c #FC4A1B",
"J  c #F65415",
"K  c #FB5214",
"L  c #FC5C15",
"P  c #FC541B",
"I  c #F75919",
"U  c #F0500F",
"Y  c #CB6511",
"T  c #F8680D",
"R  c #F6790A",
"E  c #ED6A15",
"W  c #F96619",
"Q  c #EE7714",
"!  c #F7771C",
"~  c #E96C0A",
"^  c #FE4422",
"/  c #FD4C23",
"(  c #F64824",
")  c #F55525",
"_  c #FA6825",
"`  c #F97925",
"'  c #FD7F32",
"]  c #1B8B01",
"[  c #168F00",
"{  c #1D9202",
"}  c #1C9A09",
"|  c #17950D",
" . c #248E03",
".. c #2A8C04",
"X. c #388A09",
"o. c #249404",
"O. c #2B9405",
"+. c #259905",
"@. c #2B9A06",
"#. c #24950A",
"$. c #2C950A",
"%. c #259B0C",
"&. c #2C9B0B",
"*. c #329505",
"=. c #339B05",
"-. c #32960A",
";. c #339C0C",
":. c #3A9C0E",
">. c #3E9509",
",. c #3A8B12",
"<. c #2C9D11",
"1. c #299913",
"2. c #349D12",
"3. c #3A9D12",
"4. c #389717",
"5. c #2F8D15",
"6. c #2DA20D",
"7. c #27A40B",
"8. c #33A20E",
"9. c #3AA20E",
"0. c #36A709",
"q. c #27A211",
"w. c #2DA313",
"e. c #2CA716",
"r. c #34A313",
"t. c #3BA414",
"y. c #35A915",
"u. c #3CAA15",
"i. c #34A41A",
"p. c #3CA51A",
"a. c #35AA1B",
"s. c #3CAB1B",
"d. c #3AB11B",
"f. c #30B112",
"g. c #3DAE21",
"h. c #3BA823",
"j. c #38B321",
"k. c #47860C",
"l. c #44990C",
"z. c #468619",
"x. c #568618",
"c. c #469917",
"v. c #589615",
"b. c #698C14",
"n. c #42A50C",
"m. c #42A415",
"M. c #42AB15",
"N. c #42A51A",
"B. c #43AB1B",
"V. c #4AAD1C",
"C. c #4BA816",
"Z. c #54A817",
"A. c #44B21D",
"S. c #49B31A",
"D. c #56B11B",
"F. c #63A716",
"G. c #479923",
"H. c #508B22",
"J. c #6F9524",
"K. c #43A924",
"L. c #4BB322",
"P. c #46B424",
"I. c #51B623",
"U. c #57AF27",
"Y. c #60A123",
"T. c #AC8627",
"R. c #9A8414",
"E. c #F88709",
"W. c #F8930B",
"Q. c #FB8718",
"!. c #EA9A19",
"~. c #F99418",
"^. c #EC8A0D",
"/. c #FAA51A",
"(. c #F7B51B",
"). c #EBA715",
"_. c #FB8929",
"`. c #FC9C2D",
"'. c #FA9829",
"]. c #FE8D32",
"[. c #FB8334",
"{. c #FD9533",
"}. c #FE9C33",
"|. c #FF9438",
" X c #FF9D38",
".X c #E48022",
"XX c #EBA528",
"oX c #FCA325",
"OX c #FDA32C",
"+X c #FCAB2C",
"@X c #FDAB26",
"#X c #FCB42C",
"$X c #FEBC2C",
"%X c #F8B828",
"&X c #FDA334",
"*X c #FDAC33",
"=X c #FEAC3A",
"-X c #FAA638",
";X c #FDB334",
":X c #FCBB32",
">X c #FBB43A",
",X c #FBB93B",
"<X c #EDB522",
"1X c #D49F1D",
"2X c #F9CE1B",
"3X c #FEC22C",
"4X c #F9C726",
"5X c #FBD726",
"6X c #FCC73A",
"7X c #F6D931",
"8X c #FFE52B",
"9X c #F8E436",
"0X c #FDBC42",
"qX c #FCB947",
"wX c #FDC444",
"eX c #FCC54A",
"rX c #FCCB4C",
"tX c #F9CA46",
"yX c #FACD53",
"uX c #FEDC5D",
"iX c #FCD658",
"pX c #F7DA45",
"aX c #FDE35B",
"sX c #FDE946",
"dX c #FCDC63",
"fX c #FAD868",
"gX c #FBDD75",
"hX c #FCE162",
"jX c #FBE56B",
"kX c #FDE37D",
"lX c #FAE576",
"zX c #FAF164",
"xX c #FEE685",
"cX c #FEE98C",
"vX c #FDE789",
"bX c #FEEA93",
"nX c #FDEC9D",
"mX c #FFE09A",
"MX c #FEF58E",
"NX c #FDEEA5",
"BX c #FDEEAB",
"VX c #FDF1AD",
"CX c #FDF2A0",
"ZX c #FFEEB4",
"AX c #FDF2B3",
"SX c #FDF4BB",
"DX c #FEFABC",
"FX c #FCDFA5",
"GX c #FEF5C4",
"HX c #FEFACB",
"JX c #FDF8C8",
"KX c #FDFBD3",
"LX c #FEFCDB",
"PX c #FEF7D3",
"IX c #FDFDE3",
"UX c #FCFEEA",
/* pixels */
"I.S.:.:.t.-.O.2.i.2.r.@.o.&.y.d.a.r.s.t.r.6.e.a.7.&.k.% % 4.G.c.h.M.6.K.;.0.M.g.a.7.#.i.o.$.t.A.P.p.r.$. .O.3.-.#.o.<.<.i.#.#.1.",
"B.t.9.:.-.-.2.t.2.$.&.@.+.6.r.6.e.%.w.r.r.&.+.&.4.w.&.,.c.3.+ x = K.8.d.m.6.u.& z X.6.%.1.r.t.K.p.r.r.:.O.O.:.:.<.#.#.1.1.%.#. .",
"S.t.9.@.O.t.p.p.;. .&.r.8.r.8.+.%.{ o.8.t.;.O.2.4.r.0.r.6.l.c 0 5 O c.9.*.y.r.# 9 X +.+.e.&.8.p.&.&.r.N.N.:.:.s.a.%.o.%.#.%.#. .",
"d.y.8.O.&.t.2.t.;.O.t.L.t.8.r.;.%.{ o.&.t.;.&.r.r.8.9.-.$.c.< s g r < z.9.0.,.2 e y * 6.9.o.r.m.&.=.:.N.L.t.8.V.s.&.@.<.o.%.<.&.",
"y.y.s.8.;.r.;.N.:.O.N.I.t.=.:.8.r.@.;.O.;.O.@.w.w.@.@.$.$.x.5 g F Z e 1 v.S.3.4 V u 8 z.n.o.a.M.t.t.3.t.t.:.=.V.y.&.8.6.o.%.s.r.",
"y.w.s.r.@.;.t.L.t.:.N.L.t.=.8.:.2.&.t.=.&.&.r.y.<.@.8.y.a.x.4 g g A H e v Y.V.6 g V k z 4.@.&.t.t.N.t.3.t.=.O.s.8.&.r.@.+.6.s.;.",
"6.6.6.&.&.r.u.N.u.t.m.V.t.t.t.:.r.&.:.t.O.t.s.s.r.2.C.I.P.x.7 D H Z Z ^ i < x.1 g Z V w o X.@.6.t.m.3.2.t.:.=.s.8.8.t.8.@.6.y.&.",
"+.y.6.r.P.A.t.9.8.u.t.m.:.t.N.;.a.w.&.t. .t.t.s.a.;.n.S.A.& q f Z A D j F r 1 4 V G Z p 3 * a.t.N.t.-.-.t.t.:.M.r.r.t.A.6.6.8.r.",
"&.r.r.u.L.L.t.9.;.M.M.9.M.t.s.u.r.&.;.9.:.=.t.p.4.%.>.n.B.+ i Z W P F C F f q 9 C C D Z t z e.L.L.t.;.;.t.p.2.2.t.&.O.r.u.:.t.r.",
"s.r.&.&.t.t.t.t.:.N.t.:.t.8.t.t.2.;.t.9.t.N.r.r.%.o.t.j.G.< a A _ _ A H F f a q D Z F F s 6 & m.V.t.;.2.p.i.&.&.t.r.@.&.r.t.B.s.",
"s.;.O.O.:.:.:.t.:.t.t.:.s.u.u.r.O.O.t.t.V.B.+.&.%.q.x.- @ q g A ` [.I F F F ^ e g F H D D w @ *.:.:.;.;.2. .] #.s.P.u.r.t.t.t.&.",
"t.r.t.t.t.t.t.:.=.t.t.t.B.A.s.r.O.;.t.t.B.u.o.&.r.i.l 4 w d Z P ].].' S Z D ^ p s D A F G p 2 O.:.:.O.$.2.#.] #.t.A.A.M.B.t.$.o.",
"t.t.V.B.t.t.t.2.&.t.B.N.t.r.8.r.r.s.t.t.M.t.;.;.6.* 4 g Z G C ` {.].|._ Z H F Z s A A F J d 2 o.;.3.&.&.r.%.o.<.t.s.t.9.u.t.$.&.",
"9.u.V.N.:.2.t.;.;.2.t.p.;.&.&.r.s.r.8.M.V.9.=.&.$.2 i H S f _ ].'.|.'.[.K C Z F d V J G K g c O.=.t.t.r.2.#.%.h.N.t.;.@.9.t.;.&.",
"9.t.u.t.t.t.t.2.2.$.&.2.&.&.&.t.p.O.=.B.M.9.&.@.% q g F h K ' {.].{.'.]._ C F F g p G K H w # 2.B.M.t.2.r.w.w.i.t.=.;.8.M.B.t.2.",
"8.=.@.=.;.2.3.3.2.$.$.2.O.$.O.t.2.O.t.9.=.M.s.y.z a D G F [.|.{.|.'.}.].[.Z F F g t / S D , k.K.I.S.t.&.%.&.&.w.:.@.t.A.S.B.2.r.",
"t.r.&.;.&.t.s.p.t.&.2.r.o.o.r.i.=.+.w.:.c.S.S.x.4 g F V ` |.|.|.|.{.}.}.].L Z G ^ t g ) 6 . r.Z.A.s.t.t.O.O.p.2.&.@.t.L.V.p.<.<.",
"B.t.:.t.=.t.N.t.t.t.:.t.2.&.%.#.;.3.:.6.r.f.u.+ w ^ F W [.|.}.{.|.{.}.}.{._ Z F H d e q l ..<.s.M.8.u.t.r.t.2.p.r.t.:.:.t.2. .2.",
":.9.N.V.t.3.3.-.;.3.-.;.-.O.O.$.p.p.o.%.2.&.X.5 s F J [.|.}.}.'.'.}.}.}.}.' S F U f q = 4.6.;.i.M.r.u.8.t.s.$.p.t.s.r.&.r.p.#.i.",
"=.:.N.t.O.=.:.O.:.t.:.2.;.$.r.s.j.j.{ +.t.e.$ 4 f H W {.}.}.}.`.'.}.{.}.}.|.I F Z f y x.f.0.y.2.t.s.8.@.r.p.3.2.2.2.r.&.r.s.$.1.",
"t.t.M.r.@.t.s.r.t.t.t.t.t.&.g.g.w.2.$.&.8.e.o i F J _.}.}.}.}.}.`.}.}.}.&X X_ F ^ F q = 9.M.V.l.&.r.&.&.6.r.B.$.&.&.&.@.&.r.o.] ",
"@.8.d.y.r.s.A.A.s.r.u.8.&.o.w.e.-.<.w.a.y.2.2 s F W }.OX}. X}.}.OX}.}.}.OX}.' H f H w = u.B.K.M.&.O.&.&.@.r.i.<.r.i.@.@.8.r.#.#.",
"o.o.8.&.8.y.u.A.u.t.t.&.o.<.%.w.w.4.z.K.d.,., D A ! `.oX`.&X&X&XOX&X&X&X`.`.].J ^ S a l C.r.4.v.&.o.2.r.&.&.%.r.i.s.&.8.y.r.r.a.",
"u.@.@.+.u.u.8.8.u.t.=.O.;.P.<.<.w.o < x.j.& 4 D J _.'.~.`.-X&X*XOX&X-X&X`.'.{.I H A a < t.<.x < o.o.t.B.s.w.<.e.q.&.&.B.9.8.a.e.",
"t.:.O.8.V.B.M.t.M.t.;.:.t.K.4.@.& 3 y + 3.$ r ^ K ~././.oX&X-X*X&X-X-X-XOX/.~.W F H u < h.$ 4 4 % <.u.s.a.2.q.q.q.{ &.M.t.8.w.q.",
"N.N.3.t.V.B.B.V.C.V.m.N.V.p.e.$.2 t s < 5.* w F P ~./.oX+X-X-X*X=X=X=X=XOXoX'._ G G j z x.l u s X 4.y.N.p.r.%.1.e.{ O.8.9.8.&.#.",
"3.V.N.t.m.9.t.B.M.C.:.r.l.O.e.$ 4 D f q o X i Z I './.+X*X-X=X*X=X>X=X=XoX/.`._ H G j 4 < q ( D 3 z.e.l.t.w.O.1.<.+.&.;.9.u.r.<.",
";.p.N.t.=.O.;.9.L.V.:.i.c.@.2.z u F H d q 3 u S W `.oX*X*X*X=X;XqX,X*X;XoXoX&X_ Z F V g h C / A w % %.$.8.7.$.#.+.r.u.u.M.M.s.r.",
"2.2.r.;.o.o.8.r.V.8.O.w.3.%.X.7 F S G ) f w g S W oX@X*X;X*X>X,XrXwX*X;X@X@X*XE Z Z V / G Z Z A a X   o.@.6.<.| +.u.A.M.M.M.t.;.",
"2.;.r.r.o.@.u.u.m.r.@.%.<.w.* y A H G / P C G H W oX+X>X>X;X,XwXiXtX;X>X+X@X+XQ H ^ H Z ) F H ( d < . 4.@.t.w.%.%.r.M.M.M.m.;.@.",
"2.t.t.s.r.&.8.r.t.u.8.O.$.z.@ u G H H F S H ) H W oX*XqX,X,XeXiXuXrX0X0X*X@X+X_.J H P K _ P P ^ D 4 x & :.m.r.q.%.&.M.C.C.m.&.+.",
"p.V.B.N.t.O.O.:.V.u.u.m.G.. < d / A H P Z H / H W OX=XqXqX0XyXuXdXyX0XqX=X+X+X&X{.` ` '.].J U ^ F q 7 # c.C.2.#.+.@.M.D.Z.n.@.+.",
"9.N.B.t.r.%.] w.p.8.C.L.; < 6 V / J ` I C / / A .X-X=X0X0XrXiXuXaXrXwX0X>X*X*XOX+X*X*X;X_.K H G H w i 5 G.l. .| &.r.r.r.B.M.*.@.",
"9.t.s.r.w.%.] %.r.8.r.c.x r 4 C H W }._.L A K W '.*X;X0XeXyXuXhXhXiXeX0X;X+X+X*X#X*X*X;XQ.K H H H y u q - l.O.X.;.r.r.8.M.B.9.@.",
":.;.r.r.r.<.o.#.p.f.,.* 6 s 9 S S ! >XOX_.! ` '.+X;X:XwXrXiXhXhXdXuXrX0X>X;X#X#X#X*X+X;XQ.K H H F w V w @ c.e.y.s.s.y.&.;.t.9.8.",
"8.O.&.<.<.<.@.&.p.s.= O q V 9 S P ! *X#X#X;X+X;X;X#X:XwXrXuXhXuXuXuXrXwX6X,X:X;X;X#X#X;X! K H H H e d a , = w.0.d.y.r.&.&.t.t.8.",
"s.@.o.#.#.2.r.s.a.c.2 x a B 8 S P ` *X#X#X$X#X#X;X#X;XwXiXuXhXuXhXaXiXtXwXwX0X0X,X#X#X*X! K H H H w p g : X 1.0.&.+.&.r.r.t.8.8.",
"d.&.@.@.&.r.r.P.a.x., 1 d n 5 C P ` >X%X#X#X@X#X:X#X,XwXiXdXhXdXhXhXuXyXeXwXeXeXwX#X#X&XW K J P G q V V : 1 & 7.{ o.p.M.;.o.@.y.",
"r.6.r.<.2.r.r.t.t.= 8 v d m z d L ! >X:X#X$X#X#X#X#X6XtXdXjXgXjXlXlXjXuXrXeXeXrXeX$X%XOXL K I P V 4 B V 9 : < $ 7.&.N.s.@.{ @.u.",
"&.w.r.&.&.r.&.&.=.z 8 c u m = i L W *X;X#X%X$X:X$X$X6XtXjXlXkXkXxXkXlXjXiXrXrXtXeX$X%X`.L P I P C < M V : : 9 & a.&.:.2.8.&.&.t.",
"2.@.{ %.+.%.&.&.X., 8 x t m x.7 L W XX:X#X<X:X3X3X3X6XfXkXkXxXvXxXxXcXxXkXlXuXrXwX:X#XQ.W J W L u @ T.B 5 : > + c.i.+.*.&.y.:.:.",
"B.;.{ %.#.#.&.r.X.2 1 @ r M c.1 V W Q.#X$X$X$X4X$X3XtXfXxXcXcXbXcXcXcXcXxXkXdXrX6X$X$X~.L W W L q - m r X 3 9 : c.p.p.:.&.y.t.M.",
"L.r.o.w.w.%.w.i.4.= 2 % 5 M e.+ w W ^.(.$X$X%X%X:X6XyXgXbXbXbXnXbXbXbXbXbXxXgXyX6X$X%X/.! W T U 5 c.M 4 = 1 3 , X.N.B.3.&.r.t.V.",
"B.:.o.w.e.e.%.q.i.z.+ z.l N e.,.4 I R /.3X4X4X6XrXuXgXcXnXnXnXNXNXNXnXnXnXcXkXfX6X:X%X$XOX~.! u + r.N x & O O & 3.N.s.@.@.8.t.N.",
"t.t.;.w.w.w.%.%.i.$.k.4.% z ;.#.O t W Q.3X4X3XtXdXkXcXnXNXNXNXNXVXVXNXNXnXbXxXgXyXeX6X3X4X$XQ 6 $ 2.O - c.; + -.p.r.w.%.&.:.:.m.",
"9.B.u.&.o.<.%.<.i.<.o.+.5.. >.X.O 4 W Q /.2X2X6XgXcXNXNXBXBXAXVXAXAXVXBXNXnXbXxXlXdXtX4X2X#Xt X 3.3.% 4.t.G.& O.w.#.} } r.:.:.m.",
"9.B.u.O. .<.#.<.e.<.{ o.<.,.:.& 4 t E E W.2X2X7XfXbXBXBXVXZXSXSXSXSXAXAXBXNXnXbXvXhX6X3X5X.X5 x.N.p.-.2.u.p.4.6.&. .{ } a.3.:.m.",
"9.S.M.&.&.s.<.<.&.q.| &.C.s.y.& r W T ! R /.4X6XdXbXBXAXAXGXHXGXHXGXGXSXAXVXNXnXvXiX6X5X%Xr + &.y.2.7.m.A.0.;.N.r...o.} s.m.3.m.",
"@.t.M.:.m.t.8.&.7.@.t.B.t.t.=.O.v ! E.E.E.E.4X5X9XcXSXAXDXJXPXKXKXKXGXHXGXVXCXNXjX6X5X2XQ t v x.@.&.6.s.L.t.O.&.m.:.&.&.t.N.8.&.",
"u.t.m.m.m.9.&.@.7.@.:.B.V.V.;.O.b ! R E.Q.W.4X5X5XlXZXSXGXPXKXKXLXKXHXJXSXSXVXcXpX7X2X/.^.T I b r.o.+.s.A.3.&.r.m.;.@.&.u.V.t.8.",
"L.t.9.B.t.r.;.&.o.@.:.N.L.B.;.8.b.~ R W.E.W.4X7X2XaXBXGXJXKXLXLXLXLXKXJXDXGXBXjX5X5X).R E.R T b t.&.&.u.t.;.r.r.t.8.8.r.M.A.N.u.",
"S.9.8.u.;.t.t.;.O.t.m.t.N.r.@.r.n.b E W.^.W.4X8X5XpXbXGXJXKXUXUXUXUXLXHXGXSXcX9X2X(.Q.Q.E.E n t.t.2.r.s.t.r.r.r.r.r.s.A.s.t.:.t.",
"m.;.8.u.&.r.s.t.t.L.V.3.r.8.@.;.0.Y.m T E.W.).5X8X9XlXSXHXKXUXUXUXUXIXLXHXnXaX5X(.W.^.Q.T Y x.a.p.-.$.s.P.r.o.w.w.&.u.s.t.;.=.9.",
"9.;.t.M.r.8.t.t.t.V.V.;.8.r.t.u.V.I.Y.Y T E.W.4X8X9XzXVXKXLXIXUXUXUXIXLXDXjX8X2X!.W.E.R Y b.y.N.t.3.-.r.s.r.o.&.w.o.O.;.r.u.u.t.",
"9.9.M.B.N.8.8.r.-.;.t.&.r.s.A.B.U.M.M.J.m Q ^./.5X5XsXcXJXLXKXIXLXIXLXJXMXsX5X(.~.W.R Y b.e.0.8.2.p.2.$.%.<.&.;.6.+.O.O.;.A.L.M.",
";.9.t.t.N.:.&.&.;. .O.o.r.d.V.:.s.M.n.P.c.b ~ E.<X5X8XjXSXKXHXIXLXLXLXAXzX8X4X!.E.E Y x.s.r.&.=.<.$.$. .#.w.r.=.6.r.t.O.o.u.A.t.",
"y.M.m.m.N.t.r.;.t.t. .O.t.;.$.p.9.&.r.l.&.=.b.Y ~ W.(.pXxXSXPXLXPXKXDXkXpX(.W.~ B b k.8.s.9.=.+.o.{ #.#.o.O.$.t.s.3.*.*.=.r.u.3.",
"8.u.m.m.N.B.t.O.t.P.r.@.r.r.r.r.3.@.;.-.O.7.r.v.b n ~ W.:XiXvXFXmXgXpX$XE.~ n b k.C.y.f.y.t.9.8.&.&.#.%.$.o.2.p.B.t.-.3.N.s.N.t.",
"@.8.9.9.m.L.M.O.2.s.r.o.@.%.2.&.r.%.q.$.;.a.7.%.e.4.J.T.!.).XXXX-XXX).1XR.J.c.;.@.t.u.u.t.t.M.M.a.s.<.r.r.=.p.V.p.N.3.t.N.t.t.t.",
"6.8.;.*.:.M.t.;.r.&.o.o.%.%.2.&.p.2.$.$.r.a.%.@.8.w.a.m.F.b.v.Z.Z.F.F.D.y.a.6.o.u.;.&.8.y.u.M.M.y.a.6.r.t.;.3.t.3.L.N.;.2.;.;.r.",
"y.u.9.o.*.:.O.:.s.%.o.w.a.a.i.2.e.<...$.<.%.q.q.1.2.8.O.t.X.X.N.N.p.t.M.A.s.<.1.a.%.o.;.t.M.y.r.r.6.8.t.t.=.$.;.t.L.N.;.2.2.2.r.",
"t.A.u.o.@.:.=.t.p.&.&.e.i.g.2...%.<.{ @.;. .&.r.=.8.6.1.K.2.#.r.f.6.O.2.K.i.o.+.&.$.&.:.l.m.t.t.u.;.t.M.s.r.&.&.p.s.w.<.p.r.<.i.",
"m.u.u.7.&.t.3.C.;.<.e.%.#.r.2.$.>.3.r.i.r.o.&.t.a.p.2.o.w.;.*.:.C.B.8.&.&.:.o.+.#.<.r.w.2.:.:.m.t.=.;.N.t.r.r.6.t.r.} +.i.<.%.%.",
"V.9.d.f.6.;.:.c.2.i.g.#.] %.p.N.3.p.s.a.w.%.r.V.K.s.8.&.2.4.K.K.S.L.r.6.[ %.&.4.i.p.p.2.&.@.O.t.9.*.O.t.r.&.s.y.r.r.} } <.%.#.{ "
};
