/* XPM */
static char *_eee15154f574846d0fbd2212fe5d842jj9t3Hap7lGRW0qz[] = {
/* columns rows colors chars-per-pixel */
"64 64 256 2 ",
"   c #794C08",
".  c #6E5B0B",
"X  c #785609",
"o  c #755814",
"O  c #715112",
"+  c #586709",
"@  c #477A0A",
"#  c #5B6614",
"$  c #4C7916",
"%  c #567815",
"&  c #537008",
"*  c #686717",
"=  c #6B6E12",
"-  c #577E22",
";  c #657021",
":  c #BC1B08",
">  c #B3180B",
",  c #8A3C08",
"<  c #9A3709",
"1  c #95340D",
"2  c #A82A08",
"3  c #B82708",
"4  c #A8350C",
"5  c #B32F0F",
"6  c #C41C0A",
"7  c #D31D08",
"8  c #C8260A",
"9  c #D5260C",
"0  c #C7350A",
"q  c #D73407",
"w  c #C82812",
"e  c #D82916",
"r  c #C83214",
"t  c #D83716",
"y  c #E32A13",
"u  c #E83817",
"i  c #F93B1A",
"p  c #EC300D",
"a  c #ED3623",
"s  c #DB3B21",
"d  c #8C420C",
"f  c #854609",
"g  c #874713",
"h  c #8C4B0C",
"j  c #B94407",
"k  c #8C6D16",
"l  c #AE7017",
"z  c #9B7121",
"x  c #D94210",
"c  c #FA570C",
"v  c #EB4719",
"b  c #FD4515",
"n  c #FB4B15",
"m  c #F4441B",
"M  c #FD441C",
"N  c #F44B1B",
"B  c #FC4B1B",
"V  c #F54914",
"C  c #E95914",
"Z  c #FD531B",
"A  c #FC5C1C",
"S  c #F65716",
"D  c #FE4C0E",
"F  c #D76C13",
"G  c #FA670C",
"H  c #E86819",
"J  c #FC6314",
"K  c #FC6D13",
"L  c #F8671A",
"P  c #F97716",
"I  c #EF770E",
"U  c #EB4823",
"Y  c #FC4422",
"T  c #FB4C22",
"R  c #F64B24",
"E  c #FC5323",
"W  c #F65723",
"Q  c #EE5522",
"!  c #F86A23",
"~  c #F87627",
"^  c #FF7932",
"/  c #E86121",
"(  c #1B8C01",
")  c #1D9201",
"_  c #1D9A08",
"`  c #1F9D12",
"'  c #248D02",
"]  c #2C8D02",
"[  c #288B0C",
"{  c #39890A",
"}  c #249404",
"|  c #2B9405",
" . c #259905",
".. c #2B9A06",
"X. c #24950A",
"o. c #2B950A",
"O. c #259B0C",
"+. c #2C9B0C",
"@. c #319505",
"#. c #339A06",
"$. c #32950A",
"%. c #339C0C",
"&. c #399C0D",
"*. c #3A9806",
"=. c #3C8C13",
"-. c #398713",
";. c #2C9D11",
":. c #2A9914",
">. c #339D12",
",. c #3A9E12",
"<. c #349C1A",
"1. c #3B9816",
"2. c #2DA20D",
"3. c #29A50B",
"4. c #33A20D",
"5. c #3AA20E",
"6. c #36A609",
"7. c #25A412",
"8. c #2CA212",
"9. c #2CAA1A",
"0. c #2BA716",
"q. c #34A313",
"w. c #3BA414",
"e. c #35A915",
"r. c #3CAA15",
"t. c #35A419",
"y. c #3BA51A",
"u. c #34AB1B",
"i. c #3CAB1A",
"p. c #3DB11C",
"a. c #36B216",
"s. c #33B20D",
"d. c #3CAD22",
"f. c #3BA521",
"g. c #2FA920",
"h. c #3E9E20",
"j. c #438A18",
"k. c #429D14",
"l. c #469819",
"z. c #538E13",
"x. c #699918",
"c. c #61890E",
"v. c #44A60D",
"b. c #42A414",
"n. c #43AB15",
"m. c #42A51A",
"M. c #43AB1A",
"N. c #4AAD1C",
"B. c #4BA817",
"V. c #54AB16",
"C. c #43B11D",
"Z. c #49B21B",
"A. c #54B11B",
"S. c #578722",
"D. c #4B9823",
"F. c #43AD22",
"G. c #48AA23",
"H. c #44B422",
"J. c #4BB322",
"K. c #48B727",
"L. c #52B824",
"P. c #50A724",
"I. c #679727",
"U. c #918D18",
"Y. c #A59028",
"T. c #D69E1F",
"R. c #F88717",
"E. c #F89616",
"W. c #F2910F",
"Q. c #F7AB17",
"!. c #F3AF17",
"~. c #FB8C2C",
"^. c #F88727",
"/. c #FD922E",
"(. c #FD9D2C",
"). c #F99825",
"_. c #FD8B34",
"`. c #FC9433",
"'. c #FD9B34",
"]. c #FD9C39",
"[. c #FD9338",
"{. c #EF9D2D",
"}. c #FEA42C",
"|. c #FDAB2D",
" X c #FBA525",
".X c #FDB42C",
"XX c #FCBC2C",
"oX c #FAB728",
"OX c #FEA334",
"+X c #FDAB33",
"@X c #FEA23A",
"#X c #FCAB3A",
"$X c #FDB333",
"%X c #FCB43C",
"&X c #FCBA3B",
"*X c #F9BC33",
"=X c #E9A72B",
"-X c #DCAB2B",
";X c #FCCC1D",
":X c #F8C51A",
">X c #F9D21C",
",X c #FDCB24",
"<X c #FDC32C",
"1X c #FBC727",
"2X c #FCD625",
"3X c #FAC436",
"4X c #FAD737",
"5X c #EEDF20",
"6X c #FDE327",
"7X c #FBE534",
"8X c #F9E216",
"9X c #FDBB43",
"0X c #FBB943",
"qX c #FF9A41",
"wX c #FCC445",
"eX c #FBC949",
"rX c #FED84C",
"tX c #FACC52",
"yX c #FEDB5C",
"uX c #FCD356",
"iX c #F9E946",
"pX c #FDE15C",
"aX c #FBE658",
"sX c #FDDE62",
"dX c #FAD968",
"fX c #FEDF74",
"gX c #FCE366",
"hX c #FDE47C",
"jX c #FBE375",
"kX c #FCF27F",
"lX c #F8DF8D",
"zX c #FEE584",
"xX c #FDE98D",
"cX c #FEE889",
"vX c #FEEA94",
"bX c #FEEC9B",
"nX c #FBEA94",
"mX c #FDF390",
"MX c #FDEEA4",
"NX c #FCEDA9",
"BX c #FEF1AC",
"VX c #FDF3A3",
"CX c #FDF3B4",
"ZX c #FDF4BB",
"AX c #FFF9BA",
"SX c #FCEDB2",
"DX c #FEDFB1",
"FX c #FDF5C3",
"GX c #FDF8C3",
"HX c #FDF6C9",
"JX c #FEFACB",
"KX c #FEFBD3",
"LX c #FDFCDC",
"PX c #FAFBD4",
"IX c #FEFEE3",
"UX c #FEFEEB",
/* pixels */
"L.Z.&.&.w.$.| >.t.>.q...} +.e.p.u.q.i.w.q.2.q.u.t.7.+.*.5.<.<.m.m.p.3.w.w.6.p.H.i.2.8.+.) ..%.H.F.y.t.+.' | ,.$.X.} :.<.t._ X.:.",
"M.w.5.&.$.$.>.w.>.o.+... .2.q.2.0.O.8.q.q.+. .+.+.q.q.%.j.. % <.t.q.4.M.5.6.n.e.8.+.2.8.+.q.q.M.y.t.w.&.| | &.&.;.X.X.O.O.O.X.' ",
"Z.w.5...| w.y.y.%.' +.q.4.q.4. .O.) } 4.w.%.| >.%.w.q.1.  8 5   j.q.&.w.%.3.w... .} } +.+.+.q.w.+.+.q.m.m.&.&.i.u.+.} O.X.O.X.' ",
"p.e.4.| +.w.>.w.%.| w.J.w.4.q.%.O.) } +.w.%.+.q.q.5.8.j.2 u u r h =.r.6.4.4.%.r. .} } +.q.| q.r.+.#.&.m.J.w.4.N.i.+...8.} O.;.+.",
"e.e.i.4.%.q.%.m.&.| m.L.w.#.&.4.q...%.| %.| ..8.7.#.;.# 3 R E R 8 X k...n.Z.e.C.4.q.4.r.i.| w.M.w.w.,.w.w.&.#.N.e.+.4.2.} O.i.q.",
"e.8.i.q...%.w.J.w.&.m.J.w.#.4.&.>.+.w.#.+.+.q.e.7.:.=.2 u B B Y U 3 % +.B.L.H.r.w.H.i.q.%.} %.q.w.m.w.,.w.#.| i.4.+.q... .2.i.%.",
"2.2.2.+.+.q.r.m.r.w.b.N.w.w.w.&.q.+.&.w.| w.i.i.y.=.X y T W W T E y o t.5.v.M.w.w.J.i.%.| } +.%.w.b.,.>.w.&.#.i.4.4.w.4...2.e.+.",
" .e.2.q.H.C.w.5.4.r.w.b.&.w.m.%.u.8.+.w.' w.w.i.i.$ 8 Y R R T N B t g y.6.*.%.&.4.Z.i.r.q.q.4.w.m.w.$.$.w.w.&.M.q.q.w.C.2.2.4.q.",
"+.q.q.r.J.J.w.5.%.n.n.5.n.w.i.r.q.+.%.5.%.#.w.y.+.  e Q u r r a R s < h...#.%.v.G.@.5.M.J.n.4.K.J.w.%.%.w.y.>.>.w.+.| w.r.&.w.q.",
"i.q.+.+.w.w.w.w.%.m.w.&.w.4.w.w.;.%.w.5.w.m.w.q.` # 8 v 0 . . 8 i t h e.6.b.P.F.C.3.#.q.i.C.e.k.N.w.%.>.y.t.+.+.w.q...+.q.w.M.i.",
"i.%.| | &.&.&.w.&.w.w.&.i.r.r.q.| | w.w.M.M...+.O.=.d y : % 1.h u 8 . l.r.0.F.u.b.2.0.q.2.t.4. .&.&.%.%.>.' ( X.i.H.r.q.w.w.w.+.",
"w.q.w.w.w.w.w.&.#.w.w.w.M.C.i.q.o.+.w.w.M.w.} +.6.0.=.< 2 j.X.f 7 5 ; S.D.F.J.@.=.+ =.e.q.;.{ ] &.&.| o.>.X.( X.w.Z.C.M.M.w.o.} ",
"w.w.N.M.w.w.w.>.+.w.M.m.w.q.4.q.t.i.w.w.n.w.%.>.%.1.+.] =.# , 2 6 2 < 3 d % >.' f 6 X q.r.O.O.} %.,.#.+.t.+.} ;.w.i.w.5.r.w.o.+.",
"5.r.N.m.&.>.w.%.%.>.w.y.%.+.+.q.u.q.q.n.M.w.%.o. .t.&.} % < 9 w 6 9 u R t 8 f # 3 e < =.7.o.>.o.@.w.w.t.q. .O.f.m.w.%...5.w.%.+.",
"5.w.r.w.w.w.w.>.>.o.%.>.+.+.+.w.y.| &.n.n.w.%...3.J.8.[ d 9 i m i m V M Y Y r : t U 0 X <.0.q.>.M.M.w.>.q.8.8.t.w.@.%.4.n.M.w.>.",
"4.#...#.%.>.,.,.>.o.o.>.| o.| w.,.| w.5.#.r.i.e.f.0.@.. w v b Y m V M M Y M i u v T i 2 * m.O.F.L.Z.w.+.+.+.+.8.&...w.C.Z.M.>.t.",
"w.q.+.%.+.w.i.y.w.+.>.t.} } q.t...$.q.q.k.K.F.u.4.8.$ 3 u V b T b b V L S V M Y R m E i > @ w.i.m.J.r.4.| ] t.;.+...w.J.N.y.;.<.",
"M.w.&.w.#.w.m.w.w.w.&.w.>.+.+.X.0.q.+.+.2.b.i.q.u.=., e Y M V ! ! ~ _.[.^ A m M M M T N t , =.M.m.%.e.4.&.,.>.i.q.w.&.&.w.>.' <.",
"&.5.m.N.w.,.,.$.%.,.$.%.$.| o.o.k.m.| ..3.&.2.2.f.* 7 i Y i W ~.`.[.`.`._.^ V M i M R E T 9   <.Z.+.r.w.q.y.o.y.w.i.q.+.q.y.X.t.",
"#.&.m.w.| #.&.| &.w.&.>.%.o.q.i.F.u.X.O.#.e.] %.S.4 u B b M ~ /.`./.~.~.`._.! b Y B N B N U 3 j.w.e.4.%.2.u.y.1.>.>.q.+.4.i.+.:.",
"w.w.M.q...w.i.q.w.w.w.w.w.+.d.d.9.7.} >.y.9._ $.g 9 N m N ! ~.`.~././.`.`.[.^ N Y V b B V E e   $.q.2.@.+.q.F.>.+.+.+...+.q.} ( ",
"..4.p.e.q.i.C.C.i.q.r.4...} 8.8.+.O.$.y.d.-.[ + 8 i i B ! ~.`.`.`.`.`.`.~._.[.! M b b M Z n v 2 {  .2.&...8.>.:.q.t... .4.q.X.X.",
"} } 4.+.4.e.r.C.r.w.w.+.} +.+.8.>.8.8.d.S.f f 2 p B b ! _.`.`.`.`.`./.`./.[.[.~ M M m M B V Y 3 @ ( 7.w.4.8.+.0.t.i.+.4.e.q.q.u.",
"r..... .r.r.4.4.r.w.#.| %.K.+.;.8.;.;.G.d 9 e a N m ^ ~.{._._.`.[._.`././.`.~.`.S Y Y b b W N 3 & X.9.M.r.8.;.9.8.+.+.M.5.4.u.9.",
"w.&.| 4.N.M.n.w.n.w.&.&.m.H.>.;.<...O.o 9 U Y b v ~ ~.).'.[.[.`./.`.`.`.`.`.`.`.~ b V b M T v 2 o.>.i.M.q.t.;.t.8.) +.n.w.4.8.7.",
"y.m.,.w.N.M.M.N.N.N.b.m.m.y.t.o.O.+.j.4 u i T b S ^.).).(.`.'.'.'.'.'.'.'.'.'.`.^.Z V M M Y t h w.t.t.i.w.q.X.O.0.) | 4.5.4.+.X.",
",.M.m.w.b.5.w.M.M.n.&.w.>.| t.+. .t.* 9 M Y Y B P /.(.(.'.'.].].'.].].].'.'.'.'.[.A N M M M 3 * t.q.+.q.w.t.X.O.;. .+.%.5.r.q.+.",
"%.y.m.w.#.| %.5.J.m.#.m.w.| t.i.6.D.< y M T i Z ~.'.'.'.].].@X@X'.OXOX].].].].'.qX! N M M b 3 % q.2. ...#.%.} O. .q.r.r.n.M.i.q.",
">.>.q.%.} } 4.q.r.w...%.q...+.t.6.- 3 v b N B L `.].].].].OXOXOXOXOXOXOXOXOX].].].~ B Y B m 8 % 8.2.} } | w.X.X. .r.Z.n.n.n.w.%.",
">.%.q.q.} ..i.r.w.r.+.} +.8. .8.O.. e T B V ! ~.(.OX}.OX}.}.|.}.+X+X+XOXOXOXOX'.].~.B Y B m 9 = e.e.4.&.$.w.>.O.O.q.n.n.n.b.%...",
">.w.w.i.q.+.q.q.w.w.q.| ..+.+.O.X.f t B Z Z `.OX}.}.}.+X|.|.|.|.&X%X%X+X+XOXOX}.@X).Z T n B 9 = r.r.M.M.k.b.t.8.O.+.n.B.B.b.+. .",
"y.M.M.m.w.| | &.M.w.y.m.t.+.+.X.1.d t b N W OX|.OXOXOX+X+X+X#X#XeXwX9X%X+X+X+XOX@X).W R n B 9 & e.4.w.N.k.m.q.X. ...n.A.V.v... .",
"5.m.M.w.q.O.( 8.f.1.i.C.b.7.+.) +.d u N V L OX|.@XOX+X+X$X+X+X0XyXyXuXeX%X#X+XOX@X'.A R n B 8 + 8...2.j.B.k.} ) +.q.q.q.M.n.@. .",
"5.w.i.q.8.+.( O.w.4.w.D.i.j.8.w.3.d u B N ~ #X|.OX+X%X%X%X%X%XtXyXpXyXtX%X%X+X+XOX(.A R n M 8 & +.,.% d o &.] | %.q.q.4.n.M.5...",
"&.%.q.q.q.;.} X.5.6.j.; y.6.3.r.7.d y B B ~ #X+X+X|.%X0X%X0XeXyXpXpXyXuX0X0X%X+X|.).S T B i 3 + :.$ < e 4 j.2.a.i.i.e.+.%.w.5.4.",
"4.| +.;.;.;...+.u.9.o * M.a.7.&.+.f 9 Z B ! OX+X|.+X&X9X0XeXuXpXpXpXyXyX0X9X0X#X+X XC B B m 3   O 4 q b w # q.6.p.e.q.+.+.w.w.%.",
"i...} X.X.;.q.i.m.D.5 o 3.k.$ -.+.. 9 B B ! +X+X+X+X0X9XwXuXyXaXgXyXyXyXwX9X0X+XOX'.S N Z T u t t i V Z e   >...+. .+.q.q.w.4.4.",
"p.+.....+.t.q.H.s.$ 3 k } X 5 O ` $ 8 M V H |.+X+X+X0X9XeXyXpXpXgXsXyXyXeX9X%X+X+X~.V B B B M Y n E Z M u 2 @ 8.) } y.M.%.} ..e.",
"q.2.q.;.>.q.q.w.6.* w k & 8 y 5 @ -.3 M n A  X+X$X$X&XwXuXsXsXgXsXgXgXyXeXwX%X$X*X).c Z n V S n D b N Y Y : < j.3.+.m.i...)  .r.",
"+.8.q.+.+.q.+.+.%.g 6 k , u S q f % 3 v B A  XoX.X$X&XeXyXgXdXjXdXgXgXsXtXwX&X$X.X+X^.L L ~ ^.n Q B B N v 6 > % u.+.&.>.4.+.+.w.",
">.+.) O. .+.+.+.=.1 8 j 8 N D Q q 3 0 V Z S )..XXXXXXXeXdXjXjXjXjXjXjXfXdXtX&X.X.X.X.X$X+X|.^.D N Z n D U 7 > o l.t. .@.+.e.&.&.",
"M.%.) O.X.X.+.q.{ f 2 r 9 W C Z Z Q Q A S J (.$XXX<X3XuXfXhXzXjXhXhXhXhXfXuX3X.X.XoXoX.X$X$XR.S Z Z S Z v 6 6 2 j.y.y.&.+.e.w.M.",
"J.q.} 8.8.O.8.t.=.* 1 6 t A J A G ! A c c K }.*XXX3XeXdXzXcXcXzXcXcXzXzXhXdXeX3X*XXXoX.X*X|.I S n S S E v 2 2 1 { m.M.,.+.q.w.N.",
"M.&.} 8.0.0.O.7.1.-.O > r S J J P ^.P G K R.oXXXXXwXdXzXvXvXvXvXvXvXxXxXcXhXdXtXwX3XXX.X*X}.G E A L c Z t , d S.1.m.i.....4.w.m.",
"w.w.%.8.8.8.O.O.t.} -.2 r G K S R.|. X). X|.XXoXXXeXfXvXbXbXbXbXbXbXbXbXbXxXhXfXuXeX<X.X.X).G A A G J S w o O <.y.q.8.O.+.&.&.b.",
"5.M.r.+.} ;.O.;.9.3.o.# 5 C K L R.oX1X<X<X<XXXoXXXeXzXMXMXMXMXMXNXMXMXMXNXbXvXxXjXtX*XoX.X XI K L G J C 2 S.% } 8.X._ _ q.&.&.b.",
"5.M.r.| ' ;.X.:.7.7.| X.d x J K R.1X,X1X:X1X1X,X1XeXzXBXNXBXBXCXCXCXBXBXNXNXbXbXhXtX*X3XXXXX X X^.K A 0 o <.q.q.+.' ) _ u.,.&.b.",
"5.Z.n.+.+.y.;.;...0. ...* 8 H G K oX;X,X;X,X,X,X;XeXzXBXCXCXZXZXFXZXCXCXCXBXMXbXxXdXeX4X<X<X1X<XW.K v 2 D.,.3.y.q.] } _ i.b.,.b.",
"..w.n.&.b.w.4.+. .O.b.n.1., x K K !.;X2X2X;X2X3XtXfXbXCXCXFXHXAXAXHXHXAXCXCXSXNXbXvXhXrX<X1X<XE.P N 5 = J.w.} &.b.&.+.+.w.m.4.+.",
"r.w.b.b.b.5.+...2.o.%.B.L.S.4 C P W.:X2X2X2X4XaXzXbXZXFXGXGXKXKXKXJXJXGXFXZXBXMXbXbXdX4X2X,X XI A 0 . G.N.&.8...b.%...+.r.N.w.4.",
"J.w.5.M.w.q.%.+...| w.n.N.p.+ 5 H P Q.2X2X2X4XuXMXZXHXHXHXJXKXLXLXLXKXKXHXFXCXBXMXhXrX2X>XQ.P L 0   =.p.5.| q.i.w.4.4.q.M.Z.m.r.",
"Z.5.4.r.%.w.w.%.| w.m.m.b.r.o.O x I E.:X2X2X4XrXnXZXGXGXKXLXKXLXLXIXLXKXJXHXFXZXxXiX>X,XQ.W.H 0 g =.q.b.r.8.+.y.q.q.i.C.i.w.&.w.",
"b.%.4.r.+.q.i.w.,.J.r.k.i.6.#.=.X C R.Q.:X6X5X7XgXVXGXJXLXIXLXLXLXUXIXKXPXPXCXmXiX7X;X!.W.G j o j.o.&.m.H.t. .+.8.+.r.i.q.%.#.5.",
"5.%.w.M.q.4.w.w.w.B.N.;.t.4.v.s.I.F J R.Q.;X6X6XiXzXZXKXLXLXIXUXUXUXIXLXLXZXkXiX7X:XE.R.P S l 1.y.*.&.m.f.7. .4.8.} | %.q.r.r.w.",
"5.5.n.M.m.4.4.q.%.*.b.7.+.C.H.M.K.x.F L R.E.,X5X7XiXcXZXLXLXLXUXUXLXLXLXGXmXiX>X!.E.E.I F z l.5.m.q.+.[ :.3...+.2. .| | %.C.J.n.",
"%.5.w.w.m.&.+.+.%.] ' | 2.M.t.1.V.r.i.U.F I W.!.4X8XiXVXKXKXKXKXIXKXKXKXVXiX>X!.E.P H l x.5. .4.:.X.$._ _ *.4.<.2.q.w.| } r.Z.w.",
"6.n.b.n.m.w.4.%.w.w.' | w.%.o.y.w.#.q.q.c.l H ~ E.oX2XaXVXKXKXKXPXLXLXVXaX,XQ.I / l = k.p.q.%...} ) X.X.} | o.w.i.,.@.@.#.q.r.&.",
"6.r.n.n.m.M.w.| w.H.q...t.q.q.t.w. .+.$.o.q.c.l F F W.oXrXfXvXDXMXlXdXwX XI l z z.B.r.e.e.5.4.2.+.+.X.+.o.} >.y.M.w.$.,.m.i.m.w.",
"..4.5.5.b.J.M.| >.i.q.} ..+.>.+.t.O.;.o.;.q.O...l.S.U.Y.T.=X=X-X=X=X=XT.U.x.l.%.} q.e.r.w.w.n.r.u.i.+.q.q.#.y.M.y.m.,.w.m.w.w.w.",
"2.4.%.@.&.m.w.%.q.+.} } +.+.;.+.9.>.o.>.t.t.>.o.3.6.w.n.l.z.x.x.x.V.V.M.i.i.3._ w.%.#.4.e.r.M.n.e.e.2.q.w.%.,.w.,.G.m.>.>.%.%.t.",
"e.r.4.} @.&.| &.i.+.} 8.u.u.t.>.>.+.( X.%.o.q.7.>.>.#.&.,.o.o.d.m.w.q.p.C.p.+.O.u. .| %.w.r.e.5.q.2.4.w.w.#.o.%.w.J.M.%.>.>.>.q.",
"w.C.r.} ..&.#.w.y.+.+.0.t.d.>.] +.%.] ..+.( +.0.2.q.+.+.y.>.| q.s.3. .w.i.y.} } +.o.$.&.w.w.4.q.r.%.w.M.i.q.+.+.y.i.8.;.y.q.;.t.",
"b.r.r.3.+.w.,.B.%.;.0.O.X.q.>.o.1.w.q.q.8. .+.b.q.u.;.| 4.w.$.1.N.M.*.#. .+.} o.X.;.q.8.q.&.&.n.w.@.%.m.r.q.q.2.w.q.X. .t.;.O.O.",
"N.5.a.a.2.%.&.k.>.t.d.X.( +.y.m.>.y.G.y.q.2.+.G.m.r.q.:.<.<.y.G.Z.L.u.;.( ....q.y.y.y.>.$.$.| w.5.@.| w.q.2.i.q.q.q._ _ +.+.X._ "
};
