/* XPM */
static char *out[] = {
/* columns rows colors chars-per-pixel */
"64 64 253 2 ",
"   c #3A7E0F",
".  c #5D5908",
"X  c #774B0B",
"o  c #6A570B",
"O  c #785709",
"+  c #685B15",
"@  c #775514",
"#  c #516E09",
"$  c #4D780D",
"%  c #5C6B16",
"&  c #4A7714",
"*  c #577715",
"=  c #62650C",
"-  c #666717",
";  c #6C6E15",
":  c #B91D05",
">  c #BB1D1A",
",  c #992D0B",
"<  c #883D0C",
"1  c #973708",
"2  c #973714",
"3  c #A82A08",
"4  c #B92509",
"5  c #A23104",
"6  c #AE2211",
"7  c #B82513",
"8  c #C81A04",
"9  c #DC1E0E",
"0  c #C8270A",
"q  c #D4270C",
"w  c #C43105",
"e  c #D6320D",
"r  c #C42712",
"t  c #D62814",
"y  c #DD3615",
"u  c #E3330C",
"i  c #E22D19",
"p  c #E73616",
"a  c #EC3B13",
"s  c #F43C18",
"d  c #FC3E1B",
"f  c #DC3322",
"g  c #F43B23",
"h  c #864309",
"j  c #894910",
"k  c #907516",
"l  c #A07D1B",
"z  c #D54A16",
"x  c #F9450E",
"c  c #EB4517",
"v  c #F44514",
"b  c #FC4316",
"n  c #F44B15",
"m  c #FD4C15",
"M  c #F3441C",
"N  c #FD441C",
"B  c #F54B1B",
"V  c #FD4B1B",
"C  c #EF5612",
"Z  c #F55413",
"A  c #FE5115",
"S  c #F5521B",
"D  c #FC531C",
"F  c #F95C19",
"G  c #CD6A0F",
"H  c #D76418",
"J  c #FA680A",
"K  c #EF730E",
"L  c #F96916",
"P  c #F97516",
"I  c #EB4923",
"U  c #FE4422",
"Y  c #F74A23",
"T  c #FE4B21",
"R  c #F65622",
"E  c #FB5423",
"W  c #FB6222",
"Q  c #F76924",
"!  c #F87529",
"~  c #FD7C2C",
"^  c #FD6E34",
"/  c #F87632",
"(  c #1C8B01",
")  c #1D9201",
"_  c #1C9704",
"`  c #1D9B0A",
"'  c #248E03",
"]  c #298B07",
"[  c #378907",
"{  c #249404",
"}  c #2B9505",
"|  c #259A05",
" . c #2B9A06",
".. c #24950A",
"X. c #2C950A",
"o. c #259B0C",
"O. c #2C9C0B",
"+. c #329505",
"@. c #329C06",
"#. c #3B9807",
"$. c #32960B",
"%. c #339C0C",
"&. c #3B9C0D",
"*. c #3B8F13",
"=. c #2B9412",
"-. c #259A12",
";. c #2D9D11",
":. c #2A9E18",
">. c #349D12",
",. c #379917",
"<. c #3A9D12",
"1. c #1CA20E",
"2. c #2DA106",
"3. c #25A30C",
"4. c #2DA10D",
"5. c #33A20D",
"6. c #3AA20E",
"7. c #38A90E",
"8. c #2DA213",
"9. c #2AA616",
"0. c #34A313",
"q. c #3BA414",
"w. c #35A914",
"e. c #3CAA15",
"r. c #35A419",
"t. c #3CA51A",
"y. c #35AA1B",
"u. c #3CAB1A",
"i. c #35B218",
"p. c #3CB31B",
"a. c #37A621",
"s. c #3CAE21",
"d. c #39B324",
"f. c #47860E",
"g. c #43960B",
"h. c #478917",
"j. c #568F19",
"k. c #439D13",
"l. c #469819",
"z. c #698D15",
"x. c #42A50D",
"c. c #42A514",
"v. c #42AB15",
"b. c #4BA917",
"n. c #42A51A",
"m. c #43AB1B",
"M. c #4AAD1C",
"N. c #53AA1A",
"B. c #44B11D",
"V. c #4BB21D",
"C. c #40BA1A",
"Z. c #54B11B",
"A. c #4E9D26",
"S. c #589823",
"D. c #6E8F21",
"F. c #43AB22",
"G. c #48A925",
"H. c #54A824",
"J. c #45B221",
"K. c #4AB322",
"L. c #4AB527",
"P. c #50B823",
"I. c #63A122",
"U. c #58C129",
"Y. c #838318",
"T. c #A3951C",
"R. c #CC9C1B",
"E. c #F7870A",
"W. c #F2920F",
"Q. c #F68617",
"!. c #D2A51B",
"~. c #F5AF14",
"^. c #F9A816",
"/. c #EF8024",
"(. c #FA882A",
"). c #FD8D2E",
"_. c #F6932E",
"`. c #FD922E",
"'. c #FB9C29",
"]. c #FE8433",
"[. c #FD8D33",
"{. c #FE8A3A",
"}. c #FE9333",
"|. c #F69832",
" X c #FC9A34",
".X c #FF9439",
"XX c #FE9E38",
"oX c #DCB12A",
"OX c #EEA72B",
"+X c #FCA32D",
"@X c #FBAA2B",
"#X c #F9B926",
"$X c #FCB42C",
"%X c #FEBB2C",
"&X c #FDA432",
"*X c #FEAB32",
"=X c #FDA43B",
"-X c #F7A93A",
";X c #FCAB3D",
":X c #FCB837",
">X c #FDB33E",
",X c #FDCB1D",
"<X c #F4DB1E",
"1X c #FDC627",
"2X c #FCD527",
"3X c #FBC536",
"4X c #FAD736",
"5X c #F8E728",
"6X c #FAE439",
"7X c #FEAD41",
"8X c #FCB846",
"9X c #FDBB4C",
"0X c #FCB750",
"qX c #FBC244",
"wX c #FCC44D",
"eX c #F9D949",
"rX c #FBC957",
"tX c #FED75A",
"yX c #FAE857",
"uX c #FCCA69",
"iX c #FDD867",
"pX c #FDDA77",
"aX c #FBE367",
"sX c #FEE374",
"dX c #FCE47D",
"fX c #FBEB78",
"gX c #FBDF8B",
"hX c #FDE583",
"jX c #FCEA86",
"kX c #FCE88D",
"lX c #F9F184",
"zX c #FDE796",
"xX c #FEEB92",
"cX c #FDEC9B",
"vX c #FFF39D",
"bX c #FDEDA3",
"nX c #FDEDAB",
"mX c #FCF1AB",
"MX c #FAF4A9",
"NX c #FFECB0",
"BX c #FDF2B5",
"VX c #FEF4BD",
"CX c #F9F8B9",
"ZX c #FDF6C3",
"AX c #FDFBC3",
"SX c #FEF6CB",
"DX c #FDFACC",
"FX c #FFF7D4",
"GX c #FEFBD4",
"HX c #FEFCDB",
"JX c #FEFDE3",
"KX c #FEFDEA",
"LX c ivory",
/* pixels */
"P.Z.&.%.q.$.} >.r.>.0.O.) O.w.p.y.8.s.q.0.4.w.y.9.O.&.q.0.4.k.t.d.a.0.v.6.5.p.p.i.8.8.O.) O.%.L.s.t.r.X.' +.<.$...) =.:.r.` ..=.",
"m.6.6.&.$.$.>.q.>.X.O.X.| 5.0.8.8.o.;.0.0.O...;.O.3.%.@.&.q.0.q.<.q.q.e.%.5.i.7.0.O.O.8.X.r.0.m.t.0.q.%.$.} %.%.;.o...-.-.o.) ] ",
"B.q.6. .} q.t.t.O.' O.0.5.0.4.| o._ _ 6.q.5.} ;.<.u.q. .g.t.-.-.<.%.0.5.6.7.7.2.| { | o.4.O.0.q.%.O.<.n.n.6.0.n.y.o._ -...-.=.( ",
"p.w.5.} O.c.0.q.$.} <.K.u.6.5.%.-.) { $.q.%.X.w.8.<.%.@.&.y.=.:.0.r.q.2.7.2.%.v.| { { O.w.{ 0.q.O.$.0.v.K.q.6.M.u.O.X.;...o.;.;.",
"w.w.p.5.O.0.%.n.%.X.n.P.q.O.6.%.>.O.O.X.%. .o.8.r.3.2. .X.*.j j f.;.6.#.v.C.v.B.5.0.5.e.u.} 0.u.0.c.<.0.c.%.@.m.e.O.8.2.| o.u.0.",
"w.5.y.0. .%.q.K.q.%.v.K.c.$.%.6.>.O.0.@.@.o.0.y.;.{ 5.v.t.G.- , o >.9.+.b.U.V.e.w.K.u.0.%.{ %.6.0.c.q.&.0.$. .u.5.O.0. ...2.p.%.",
"4.4.4.4.O.0.e.e.v.q.c.M.c.0.q.%.0.O.%.&. .q.u.s.t.*.m.C.H.G.o : h ; l.e.6.v.n.q.q.K.u.O.} | O.%.<.c.<.<.q.&.@.u.5.5.q.5.| 4.0.O.",
"o.w.4.0.B.B.q.q.6.v.c.c.&.q.n.%.u.8.%.c.' 0.0.t.a.%.w.V.K.f.5 t y 4 O k.@.@.5.&.6.V.e.q.0.6.0.q.v.c.$.X.q.0.<.n.w.0.e.p.5.4.0.0.",
"4.0.0.q.K.V.0.6.&.x.e.0.v.6.7.q.r.o.q.&.%.&.<.i.>.+.4.m.F.% 0 b S v t 2 ..#.#.v.B.O.6.J.K.u.u.K.K.c.%.$.,.t.>.>.q.O. .q.e.6.0.0.",
"u.q.O.O.q.c.q.c.&.e.t.q.c.@.5.M.8.X.q.&.0.m.k.q...| @.i.S.< e V V M I 0 h h.b.B.m.4.O.0.e.u.e.0.M.t.$.>.t.r.O.X.q.0.O. .6.q.J.u.",
"u.%.} $.%.%.&.0.2.c.<.%.v.e.e.w.} ' <.v.p.v.@.} 0.=.i.l.j 0 c E V T D b q @ H.w.e.6. .5.5.0.0.X.%.%.$.=.;.] ( { v.J.u.5.q.u.0.O.",
"q.<.0.c.q.q.<.%. .n.t.q.F.A.l.9.X.#.k.q.w.e.O.3.t.3.,.O 4 c V Y T V m D M 7 % _ O.o.O.e.0.} %.} &.%.X...>...( ..q.B.B.u.M.q.X.} ",
"q.q.m.m.q.0.q.<.X.0.u.p.h.j j l.w.y.u.7.b.c.%.3.O.;.o 4 a m E V V m R m V y <   ..{ o.e.0. .X.' %.<.$.O.r.=.{ 8.q.v.7.7.e.&.X.O.",
"6.e.V.n.%.<.<.%.*.&.x.<.@ h # 0.y.r.0.m.Z.c.o.O.+.@ r a B E S V m D E N V c 8 & { ) | 4.0.%.O.X.$.q.t.0.;...o.a.m.c.2. .6.q.%.%.",
"6.q.e.q.0.<.<.<.,.o.%.>.X.*.=.9.m.$.+.v.c.8.5.f.o : s V V T B V V D b T E M 8 + 2.O.o. .8.0.>.<.V.m.q.0.r.8.:.w.q.@.%.6.v.m.>.>.",
"5.2.%.$.%.<.>.0.o.[ O.:.X.| +.0.%.} q.c.5.y.P.# > d n Y T V b n V V m V Y E w X y.8.8.o.0.>.>.F.P.V.0.O.O.o.O.8.<.+.7.B.V.n.<.r.",
"v.5.O.6. .q.e.t.q.O.<.0.{ { r.w.$.| <.w.q.p.H.3 a I E T N T N b V Z D U S S 8 j r.F.u.| { =.>.V.u.B.q.%.+.} 0.>.O.O.0.M.F.t.=.>.",
"M.q.&.0.$.0.n.q.c.0.%.t.>.>.X...;.0.X.| %.u.h.7 M V T N N b b V T m V T V b q O M.q.8.c.O.( %.p.u.6.e.6.%.0.>.n.0.q.%.6.q.0...,.",
"%.&.M.F.0.<.6.$.&.<.$.%.$.] } X.a.t.+.2.| a.* : M N N v V N N N b M Y E m T w ; C.b.5.0.%.2.&.>.J.6.e.q.q.e.X.t.q.u.6. .0.y...,.",
"$.5.v.e.+.@.%.} %.<.%.<.%.X.0.s.u.a...4.;.% 5 q d N v c W E N b a e I V n M 4 $ 6.#.6.l.l.e.&.q.0.e.0. .8.t.<.>.,.>.0.4.0.u.=.=.",
"q.0.u.0. .q.e.0.c.q.e.e.q.O.s.s.0.1.] :.% 0 e U N b F ! ].R b N a 0 q U V i 1 *. .2.* 2 < S.p.6.X.0.4.| o.q.F.,.%.O. . .O.0.{ ( ",
" .5.p.w.0.p.B.B.p.5.e.>.O...8.8.3.&.=.% 7 e V d B L ~ {..X! B b d i 8 M V q + =.$.h 4 f r O M.7. .o.5.o. .0.>.=.r.w. . .5.0...-.",
"| | 5.2.4.e.w.B.v.6.w.X...O.O.8.` a.% 4 i B d N Q ]..X}.}.].W v N d q p u 4 X . 3 q d S u < A.m.o.) O.q.>.8.O.:.r.y.5.5.w.0.0.a.",
"e.}  . .w.w.5.0.q.e.%.} ;.L.O.;.9.h.2 e V N B Q {. X_.`.}..X/ R v d I g c 0 t p g I N x M 7 ; e.9.{ 0.B.q.;.8.9.8.O. .M.6.8.u.9.",
"q.%.} <.M.v.v.q.v.0.k.%.t.M.<.8.8.< t s v N E _.`.}.`.}.[.}.[.(.F S v N N N N N U x U d D p 2 l.3.8.s.m.q.r.:.9.9.(  .v.x.5.4.9.",
"t.n.&.q.M.m.m.V.N.m.n.v.u.n.,...[ 3 i Y N V / }.`.`.[.}.}.}.}.[.{.~ Q F D B B S R E d T m Y 3 * y.8.w.t.n.r.o.-.9.) } 6.5.5.O.| ",
"q.m.n.u.q.q.6.m.e.n.g.g.0.+.;.8.o 0 d Y d S {.}.}.}.}.`.[.}.}.}.}.[.{.].].~ ~ ].~ ^ U V n E e j n.8.4.0.q.>...-.-.| O.5.6.e.0.8.",
"&.n.n.q.@.} @.6.V.V.g.t.0.X.r.l., u N U s Q .X).[.}.}.[.[.}.}.}.).}.}. X}.}.}.}.}./ d b m m a 5 h.4.| O.O.>...-...8.e.e.v.B.u.0.",
"<.0.0.5.{ { 5.q.M.w.3.o.%.3.9.h.r g b N M ! }._.}.}.}.}.}.`.}.`._.}._.}._.}.[.)._./ N b V V Y : f.4.) {  .<.o...O.w.V.v.v.v.0.0.",
">.O.0.0.| } e.e.e.w.X.{ =.9.=.= 8 U B U M ! }.[.}.}.}.}. X X}.`.}.}.}.}.}.}.}.}.`./ b N U B B r * w.2.#.$.n.8.O.2.5.v.v.v.x.O. .",
">.0.q.n.%.%.6.0.6.e.6.5.=.$ O 3 e d U U m ! [.}.[.`.}.}.}. X X}.}.`.}.[.}.`._._..X].n N d M M 0 ; p.m.b.&.n.9.8.o.O.e.b.b.c.@.| ",
"<.G.m.n.0.} } %.m.v.c.y.h.5 9 f c d U d m ! }.).`. X X X X X X X|._.`.}.}.[.}.}..X_.F V U N B 0 = q.7.N.k.G.9.| | o.v.Z.N.x. . .",
"q.n.m.q.w.o.( 8.y.t.q.N.j t d U N T b U N ! .X}.}.}.XX=X X;X;X&X X}.}.}.}.`.}.}.)..X! v N M U u , ,.#.g.c.6.] ( $.0.w.0.m.v.+. .",
"6.q.u.0.;.o.( o.%.r.r.O 0 g N v d N b N b R [.}.}. XXX X=X9X9X>X=X=X X.X.X X X X_..X~ V N B U a 3 h.q.H.b.&.X.{ 4.0.0.%.c.b.&.@.",
"%.%.0.0.8.;.....q.w.h.5 p d U B b N N V V R [.).}.XX=XXX-XwXtXrX9X7X=X X X=X=X=X}..X{.E d B N b 0 = y.H.b.g.%.w.u.u.w.O.@.c.6.2.",
"6. .O.>.;.;.X.;.e.r.@ q Y d d N V U N d M F ].}.}.XX;X=X-XrXaXtXtXwX8X7X;X=X=X&X}.}.[.F d N N V i < t.m.c.k.0.i.p.e.0.O.$.c.q.2.",
"u.........>.>.t.u.l.3 t S N U d N N N U U B ~ .X_.&X7X;X-XqXiXaXtXtXrX8X;X;X;X&X X_.}.! N N N m p 6 l.m.B.q.4.5.o.| 5.0.q.w.5.5.",
"p.O.O.o.O.0.0.J.u.h.7 g N N Y L V n d N N x W .X X&X>X7X>XwXtXaXaXaXtXrXwX9X8X7X=X`.}.! m N N N p : j.e.d.u.4. .) ..t.m.4.}  .7.",
"w.4.0.5.>.0.0.e.v.- r d b N F ).~ L Z n v n L .X X=X8X8X8XrXiXaXaXaXsXiXuXtXrX9X;X X_.(.V N V b c 7 *  .i.w.4.0.4.4.n.n. .)  .v.",
"o.8.r.O.O.0.X.$.@.X 8 d B V Q  X'. X].! W W ! |..X7X9X8X0XiXfXsXsXsXsXsXsXpXiXrX>X X|.(.N N U b c 7 & | 9.0.| 4.y.4.%.<.%.4.@.w.",
"0.O.) ..o.o.;.O.*., : N V m Q. X+X'.'.'.+X'.+X+X X7X0X0XrXpXjXdXhXdXdXdXhXdXiXrX8X&X'.Q.Z N U m c : % % # & . # S.0.X.$.O.w.%.6.",
"m.O.) ..o.| O.0.[ j 3 M m m /.+X&X&X&X&X&X&X&X&X+X$X>XwXuXhXjXlXjXjXjXjXhXhXpXiX8X&X@X(.Z T T m s t r 0 q r t 6 g.t.r.<.%.w.q.v.",
"K.0.{ ;.8.-.8.8.*.- 2 y A V ! *X@X&X*X*X&X*X&X&X*X$X:XrXpXxXxXkXxXxXxXkXkXkXhXpX9X+X+X(.C M b A v v v n S B p 5 *.t.s.q.X.q.q.J.",
"m.<.{ r.9.9.3.3.,.  @ 0 V Z Q *X+X*X*X*X*X*X$X$X:X:X:XrXjXbXcXxXcXcXxXcXcXxXkXpXrX*X+X~ V D V S m m A A m S q O <.t.y.O.| %.<.c.",
"6.0.%.;.8.8.o.3.9.X.& 6 a A F  X*X*X*X$X$X$X#X%X:X$X:XiXcXnXbXcXbXbXcXbXcXvXcXkXrX:XOXK C D A B D T V m b I 6 & t.q.8.` 4.<.%.c.",
"6.M.e.O...=.o.;.9.4.-.o q B C ! :X*X$X#X%X$X$X$X#X$X8XiXcXBXnXMXmXnXmXMXbXMXbXcXpXrX8X|.).Q V V m m Z C D q X ' r.X._ ` 0.&.%.c.",
"&.M.t.} { ;...-.9.r.) ] 1 y S L '.*X$X#X%X:X9XrXqXwXuXkXMXBXCXCXVXBXBXBXBXnXnXbXzXgXrXqX>X! m D Z D n D M 4 * 5.O.' ) ` t.<.&.k.",
"6.V.v.O.O.a.>.;.o.$.o.O.% r S Z Q.*X:X%X:XrXiXdXhXzXnXBXVXVXVXVXZXVXVXVXBXBXBXnXnXbXiX:X$XP A Z D A V E e 1 ,.q.0.} ) 1.u.c.<.c.",
" .7.v.&.q.0.%.o.+.3.6.m.g.h e F L (.#X#X%X8XpXVXBXMXCXZXVXZXFXAXSXSXSXZXCXCXBXBXmXzXuX3X1XOXP P L A J Y 0 = | &.q.%. .%.q.n.6.o.",
"v.7.c.c.v.&.%.| 4._ @.G.; 3 8 y L L '.#X1X3XiXMXVXBXVXSXDXFXDXDXDXFXFXFXAXZXZXVXNXbXhXwX%X3X:X'.! J Q e j &. .>.c.@. .o.e.V.e.5.",
"P.q.6.B.e.0.5. .| _ 6.F.k u z c L J P @X,X,XeXhXVXZXAXSXHXGXGXHXHXGXHXFXFXSXZXVXBXCXkXeX4X#X'.L J L z 3 $  .w.t.q.%.0.0.m.V.n.e.",
"V.6.%.v.%.w.q.%.X.5.x.e.j.H L J L L L E.~.1X3XaXnXZXDXDXGXHXHXLXJXJXHXHXGXDXZXCXZXnXiX4X#X'.K J L R 3 ; m.%.t.4.0.0.u.B.u.0.6.q.",
"x.@.6.e. .q.e.q.q.K.V.6.*.k K J P P J K ~.<X2X6XfXBXGXGXGXJXJXLXKXJXJXHXGXGXDXAXBXsX6X,XW.P L P Z 4 o M.M.r.O.2.5.o.e.v.q.%.$.6.",
"6.%.6.u.0.5.q.q.5.H.G.O.0.l.k G K P E.W.^.,X5X5X6XjXSXJXJXJXHXHXJXJXJXHXHXHXDXCXfX6X,X^.E.E.P J z - l.0.y.8._ 9.8... .%.5.e.e.q.",
"6.6.e.M.v.5.4.0.@.&.<.` r.d.H.D.G K P Q.E.~.2X5X5XyXcXGXJXJXJXHXJXJXJXJXHXAXvXfX6X<X^.E.Q.E.K H ; :.,.{ 9.o.{ O.4.| } } %.m.V.v.",
"&.6.c.6.n.6.O.O.%.[ { ..>.v.p.l.S.l G K Q.W.~.2X6X5XaXCXHXJXJXJXHXJXJXHXDXMXyX2X#XW.W.Q.L H k h.3.X.=.=.) <.r.#.4.0.0.} { e.V.q.",
"7.v.c.c.n.w.0.%.q.q.' } 0.%.X.u.q.>.j.Y.G K K ^.~.4XeXfXAXJXJXHXGXJXJXAXlX4X#X^.W.P K H l j.@.o...) { ..{ ..$.<.u.0.[ +.%.0.u.&.",
"5.q.b.c.v.m.q.} t.J.>. .0.>.%.r.O._ 3.o.*.z.k G G E.~.4XtXdXcXMXNXzXpXwX@XW.K G G l z.n.0.6.7.2.O.O.X.o.X.X.>.t.m.0.#.<.n.t.n.c.",
"| 2.6.c.n.K.v.} <.u.0.{ X...>.O.e.<.<.=.:.a.:.,.S.z.T.R.R.R.!.oXoX!.!.R.T.Y.z.h.$.t.9.w.e.c.V.7.y.u.>.w.0.$.n.M.n.n.<.<.m.q.q.q.",
"2.5.%.+.0.v.0.%.0.X...) o.O.>.O.r.;...X.>.>.O.` w.O.v.6.k.g.j.D.I.N.N.b.w.y.4.| y.0. .5.w.w.v.c.w.y.;.0.0.%.0.q.<.J.n.&.<.%.0.0.",
"7.v.6.| +.&.O.%.t.O...w.y.y.t.>.8.8.' O.5.o.w.4.| O.0.%.q.| %.t.w.7.2.v.M.u.O.| i.X. .%.e.v.q.n.0.4.5.0.w.%.} %.t.K.t.%.0.O.>.w.",
"x.B.w.|  .&.$.c.t.;.o.9.r.d.>.] =.>.( -.o.) ;.,.2.0.>.$.s.%.@.%.x.6.O.w.y.y.{ | =.) $.@.&.v.%.q.w.%.q.v.n.0.O.$.t.m.8.;.r.r.;.r.",
"x.7.w.4.o.0.k.n.;.>.8.-.o.8.>.] g.<.>.t.>...;.y.a.t.O.] ,.,.<.<.B.v.%.5.O.=._ -.;.;.t.,.<.6.&.x.q.@.6.u.q.0.0.4.q.w._ o.0.;.o.o.",
"M.6.i.i.2.$.&.c.>.r.s.` ( =.t.n.0.t.F.y.0.O.@.V.s.w.0.| =.a.a.F.J.K.7. .( O.O.%.t.r.y.9.X.] $.q.6.+.} q.0.4.u.8.w.y.` ` 8.-..._ "
};
