/* XPM */
static char *e82dcebfa7ca4612eb27196122089cfd3FPGa8wDNixIwtE6[] = {
/* columns rows colors chars-per-pixel */
"64 64 253 2 ",
"   c #2F7D03",
".  c #5F5514",
"X  c #794B0B",
"o  c #695A0B",
"O  c #74580A",
"+  c #785513",
"@  c #735414",
"#  c #59690A",
"$  c #457C08",
"%  c #5D6914",
"&  c #487B15",
"*  c #577A16",
"=  c #59740C",
"-  c #696916",
";  c #716816",
":  c #6C7013",
">  c #696924",
",  c #615B21",
"<  c #B91807",
"1  c #AE1F0E",
"2  c #9B2C08",
"3  c #983708",
"4  c #953816",
"5  c #903511",
"6  c #AB2909",
"7  c #B92709",
"8  c #A73308",
"9  c #B73308",
"0  c #B72813",
"q  c #AE2E14",
"w  c #893D25",
"e  c #C61A06",
"r  c #C82807",
"t  c #D62A0B",
"y  c #D73609",
"u  c #C72712",
"i  c #D52812",
"p  c #CA3713",
"a  c #D83514",
"s  c #CB3B09",
"d  c #E32A12",
"f  c #E93716",
"g  c #F63A19",
"h  c #EA300F",
"j  c #F13722",
"k  c #87480A",
"l  c #884613",
"z  c #914C11",
"x  c #917614",
"c  c #AA7013",
"v  c #DC4516",
"b  c #D24C11",
"n  c #F6480D",
"m  c #F95B0D",
"M  c #E84715",
"N  c #F54514",
"B  c #FD4415",
"V  c #F34B15",
"C  c #FC4B15",
"Z  c #F4451A",
"A  c #FD441B",
"S  c #FC4C1C",
"D  c #F44B1B",
"F  c #EC5816",
"G  c #FD5315",
"H  c #F5531C",
"J  c #FD531B",
"K  c #FB5B1B",
"L  c #F65915",
"P  c #E8510D",
"I  c #C56A15",
"U  c #D6640D",
"Y  c #E97605",
"T  c #F5770C",
"R  c #EB6716",
"E  c #F86518",
"W  c #F87718",
"Q  c #F0680F",
"!  c #FD4422",
"~  c #FD4B22",
"^  c #F44922",
"/  c #FE5322",
"(  c #F65722",
")  c #ED4C23",
"_  c #F86824",
"`  c #F87926",
"'  c #C46721",
"]  c #1B8C01",
"[  c #178D01",
"{  c #1C9202",
"}  c #1C9C0A",
"|  c #1A9905",
" . c #0F8F06",
".. c #238E02",
"X. c #2B8E06",
"o. c #378B0A",
"O. c #249404",
"+. c #2B9505",
"@. c #259905",
"#. c #2A9A06",
"$. c #24950A",
"%. c #2B950A",
"&. c #259B0B",
"*. c #2C9C0B",
"=. c #319505",
"-. c #349C05",
";. c #32950B",
":. c #339C0C",
">. c #3A9D0D",
",. c #3C9809",
"<. c #2D9D11",
"1. c #279A14",
"2. c #339511",
"3. c #349D12",
"4. c #3A9E13",
"5. c #399717",
"6. c #3D8311",
"7. c #1CA30B",
"8. c #2DA20D",
"9. c #27A40A",
"0. c #33A20D",
"q. c #3AA20E",
"w. c #35A609",
"e. c #2DA213",
"r. c #2CA914",
"t. c #28A517",
"y. c #34A313",
"u. c #3BA414",
"i. c #35A915",
"p. c #3CAA15",
"a. c #35A41A",
"s. c #3CA41A",
"d. c #35AA1A",
"f. c #3CAB1B",
"g. c #3DB11D",
"h. c #36B218",
"j. c #24B115",
"k. c #3F9B27",
"l. c #3CAD22",
"z. c #3AA626",
"x. c #3AB525",
"c. c #468616",
"v. c #578616",
"b. c #479918",
"n. c #569714",
"m. c #4B8A0B",
"M. c #678518",
"N. c #718F1A",
"B. c #42A514",
"V. c #42AB15",
"C. c #42A51A",
"Z. c #43AB1B",
"A. c #4AAC1C",
"S. c #4CA618",
"D. c #43B11D",
"F. c #47B21A",
"G. c #4FAA14",
"H. c #63AA16",
"J. c #529426",
"K. c #698824",
"L. c #44AC22",
"P. c #4BA922",
"I. c #4BB322",
"U. c #46B424",
"Y. c #56B126",
"T. c #F68708",
"R. c #FB970A",
"E. c #F88917",
"W. c #F79515",
"Q. c #E9950E",
"!. c #F8A80A",
"~. c #F9B91B",
"^. c #F3AA14",
"/. c #FA8826",
"(. c #FA9729",
"). c #FD8B35",
"_. c #FE9434",
"`. c #FE9A34",
"'. c #FE9C39",
"]. c #FC9439",
"[. c #EA912A",
"{. c #FBAC2D",
"}. c #FBA429",
"|. c #FEBC24",
" X c #FDB42C",
".X c #FDBB2B",
"XX c #F7B72A",
"oX c #FDA533",
"OX c #FDAB33",
"+X c #FDAC39",
"@X c #FDB433",
"#X c #FDBC35",
"$X c #FCB43A",
"%X c #FBBB3A",
"&X c #E9A82B",
"*X c #D59C20",
"=X c #FDCD1C",
"-X c #F9C81C",
";X c #FCD61B",
":X c #FCC22B",
">X c #FCCA2B",
",X c #FBC824",
"<X c #FCD225",
"1X c #FBD826",
"2X c #FBC436",
"3X c #FCD738",
"4X c #FCE52A",
"5X c #FCE737",
"6X c #FDBB43",
"7X c #FDC544",
"8X c #FCC449",
"9X c #FCCC4C",
"0X c #F9CA44",
"qX c #FACF53",
"wX c #FDD454",
"eX c #FEDD5C",
"rX c #FAD759",
"tX c #FBD741",
"yX c #FBE947",
"uX c #FDE15C",
"iX c #FAE955",
"pX c #FEDC6A",
"aX c #FDDC65",
"sX c #FBDC76",
"dX c #FBE467",
"fX c #FCE37C",
"gX c #FDE577",
"hX c #FCF073",
"jX c #A68E12",
"kX c #FEE681",
"lX c #FEE98C",
"zX c #FDE988",
"xX c #FCEB94",
"cX c #FEEC9A",
"vX c #FBE398",
"bX c #FDF298",
"nX c #FEEDA4",
"mX c #FEEEAB",
"MX c #FFF1AB",
"NX c #FEF1A3",
"BX c #FDEFB2",
"VX c #FDF2B4",
"CX c #FDF4BB",
"ZX c #FEF9BC",
"AX c #FEF5C4",
"SX c #FCF9C4",
"DX c #FEFCCC",
"FX c #F9F9C9",
"GX c #FDFBD3",
"HX c #FDFCDB",
"JX c #FDF7D2",
"KX c #FEFEE3",
"LX c #FCFCEA",
/* pixels */
"I.A.>.>.u.;.+.3.a.3.y.#.O.*.i.g.d.y.f.u.y.8.y.d.y.:.$ l + & y.Z.Z.A.:.i.0.q.Z.x.f.e.&.&.$.$.r.L.L.s.a.*...=.4.;.$.O.1.<.a.} $.<.",
"Z.u.q.>.;.;.3.u.3.%.*.#.@.8.y.8.t.&.e.y.y.*.@.*.t.y.% 0 r 9 c.<.3.l.s.Z.0.p.V.q.8.j.e.+.3.u.:.Z.d.a.u.>.+.+.:.>.<.$.$.1.1.&.$...",
"F.u.q.#.+.u.s.s.:...*.y.0.y.0.@.&.{ O.0.u.:.+.3.2.d.; a V t @ 3.e.y.a.u.:.0.w.9.#...7.&.4.8.y.B.*.*.y.Z.Z.>.>.f.d.*.O.&.$.&.$...",
"g.i.0.+.*.u.3.u.:.+.u.I.u.0.y.:.&.{ O.*.u.:.*.y.u.y.k i ( h 3 X.s.3.u.-.-.8.r.C.#.O.| e.y.{ p.u.*.:.>.Z.I.u.0.A.f.*.#.<.O.&.<.*.",
"i.i.f.0.:.y.:.Z.>.+.C.Y.u.:.>.0.y.#.:.+.:.+.#.e.i.=.$ 0 e 7 7 6 O c.y.-.V.F.C.L.3.d.u.a.d.=.u.i.u.u.4.u.u.>.:.A.i.*.0.8.O.&.f.y.",
"i.e.f.y.#.:.u.I.u.>.Z.I.u.:.0.>.3.*.u.:.*.*.y.i.9.| d.K.l 6 r j u 8 # +.I.Y.g.B.v.: b.r.>.@.:.u.u.Z.u.4.u.:.+.f.0.*.y.#.@.8.f.:.",
"8.8.8.*.*.y.p.Z.p.u.B.A.u.u.u.>.y.*.>.u.+.u.f.f.a.-.B.U.Y.: 9 A g d r k m.Z.A.B.l < * t.=.| #.>.u.B.4.3.u.>.:.f.0.0.u.0.#.8.i.*.",
"@.i.8.y.U.D.u.q.0.p.u.B.>.u.Z.:.d.e.*.u...u.u.f.z.>.q.U.g.o u B V V g i 3 & 4.$ 0 i z a.y.>.u.C.V.u.;.;.u.u.>.Z.y.y.u.D.8.8.0.y.",
"*.y.y.p.I.I.u.q.:.V.V.q.V.u.f.p.y.*.:.q.:.:.u.s.3.O.4.C.p.O d B A A A Z g 8 % - i f r * x.S.s.U.I.C.:.:.s.s.*.y.u.*.+.u.p.>.u.y.",
"f.y.*.*.u.u.u.u.:.Z.u.>.u.0.u.u.<.:.u.q.u.Z.u.y.$.+.0.p.s.k f V S g C D g j 7 6 y ^ a 3 J.L.0.u.A.u.:.:.s.s.*.*.u.y.#.*.y.u.Z.f.",
"f.:.+.+.>.>.>.u.>.u.u.>.f.p.p.y.+.+.u.u.Z.Z.#.*.9.*.w.V.b.2 g B A / C C S ! h e y ~ N y l b.8.+.:.u.:.%.2.$.] O.f.U.p.y.u.u.u.*.",
"u.y.u.u.u.u.u.>.:.u.u.u.Z.D.f.y.%.*.u.u.Z.u.O.*.y.e.-.>.* 7 g B V ` _ C B Z ~ f M N N V e @ 2.O.>.:.+.%.3.$.] ] u.D.D.Z.Z.u.%.O.",
"u.u.A.Z.u.u.u.3.*.u.Z.Z.u.y.0.y.a.f.u.u.V.u.:.3.3.:.=.X.@ p g N C [.].E C A D A N H n n M 7 . O.>.>.*.*.y.%.$.e.u.f.u.q.p.q.%.*.",
"q.p.A.Z.>.3.u.:.:.3.u.s.:.*.*.y.d.y.y.V.Z.u.:.%.<.i.e.  8 f B N C ).].` K C M B Z H N C F f 2 c.>.u.u.y.<.$.$.l.Z.u.:.#.q.u.:.*.",
"q.u.p.u.u.u.u.3.3.%.*.3.*.*.*.u.s.+.>.V.V.u.:.#.r.h.b.o t A B B W '._._.` C N A Z C C K n D t + A.A.u.*.y.<.<.i.u.-.:.0.V.Z.u.3.",
"0.-.#.:.:.3.4.4.3.%.%.3.+.%.+.u.4.+.u.q.-.p.f.i.b.>.# 6 f V C J ).`.`._.]._ B B A B n A ^ C N 3 A.A.u.#.<.<.*.e.>.#.u.D.A.Z.3.a.",
"u.y.*.:.*.u.f.s.u.*.3.a.O.O.y.a.=.@.u.>.a.D.F.k.w 6 7 f ! A H ` `.`._._._./.L N A A V J F F ~ 9 : f.B.w.O.%.y.y.*.#.u.I.L.s.<.<.",
"Z.u.>.u.:.u.C.u.u.u.>.u.3.*.*.$.:.<.:.>.*.B.i.* u a g g A F ` _.`.`.`._.`._._ N S N S S C G J y O 3.p.-.0.u.3.s.y.u.>.>.u.3...3.",
":.>.Z.A.u.4.4.;.:.4.;.:.;.+.%.%.d.a.+.*.#.b.3.l h A ! B G ` _.`.`.`.`.`.`.`./.F B N ~ A K G C f k a.i.-.u.s.;.4.u.f.y.*.y.s.$.a.",
":.>.Z.u.+.:.>.+.>.u.>.3.:.%.a.f.l.d.O.&.e.4.$ 7 f ~ Z V ` _.`._.`.`.`.`.`.'._.E g S ~ ~ J m H a O f.9.:.u.a.s.3.3.3.y.8.y.f.%.%.",
"u.u.Z.y.#.u.f.y.u.u.u.u.u.*.l.l.a.a.O.&.p.a.o i A A D _ ].'._.'.`.'.'.'.`.'.].` ~ A D S C L H 0 $ a.*.&.:.y.f.:.*.*.*.#.*.y.O.] ",
"#.0.g.i.y.f.D.D.f.y.p.0.#.O.e.e.*.e.*.y.g.5.3 f ! N ( ).'.`._.'.`.'.'.'.`.`.'.).( A A B L / h z %.$.u.9.+.y.3.&.y.a.#.@.0.y.$.$.",
"O.O.0.*.0.i.p.D.p.u.u.*.O.*.*.<.*.8.<.L.D.& 7 ! ~ V ` `.`.`.`.`.`.`.'.`.`.`.`._.R S g n ( j 9 v.&.] 4.y.*.e.2.t.a.f.*.0.i.y.y.d.",
"p.#.#.@.p.p.0.0.p.u.:.+.:.U.*.<.e.*.1.P.D.# i A A E (.}.`.oXoXoXoXoX+X`.`.oX`.`.E B A S g 6 - p.8.O.4.L.f.e.2.a.t.*.*.Z.q.0.d.d.",
"u.>.+.0.A.Z.V.u.p.B.>.:.C.L.e.1.y.#.<.9.3.o y ~ V /.(.oXoXoXoXoXoXoXoXoXoXoXoX}.` A S V d O 4.i.<.3.h.Z.i.3.3.t.t.{ *.V.u.0.e.e.",
"C.C.4.u.A.Z.Z.A.A.S.B.Z.P.C.d.=.$.:.a.*.;.k h / L _.oXoXoXoXoXoXoXoXOXoXoXoXoXoX/.C A S t o 4.0.y.i.>.p.C.3.<.| t.{ +.0.q.0.*.$.",
"4.A.Z.u.B.q.u.Z.V.S.:.4.s.%.:.#.$.u.f.-.%.3 h ~ _ '.oXoXoXoXoX+XOXOXOXOXOXoXoXoX/.J S ~ a - y.q.j.r.*.y.C.<.%.$.<.@.*.:.q.p.y.*.",
":.s.Z.u.:.+.:.q.A.D.>.u.i.&.e.l.3.g.P.q.3.3 g Z W oX{.oXOXoXoX+XOX$X$XOXOXOXoXoX/.H S S t o *.w.5.= 2.@.:.8.O.%.@.y.p.p.V.Z.p.y.",
"3.3.a.:.O.O.0.y.V.y.;.r.#.8.1.> * d.C.u.b.3 ! S W OX{.oXOX@X{.+X$X8X7X@XOXOXoXOX(.F g ~ r o y.g.l 2 # X.+.0.$.} @.p.D.V.V.V.u.:.",
"3.:.y.y.O.#.p.p.i.u.<.:.+.3.o 0 k 2.5.B.M.8 ! J /.OX{.OX@X X X$X8XwX9X@XOX@XOXoX(.V A / t : x.M.0 i 3 5.#.B.t.1.&.y.V.V.V.B.:.#.",
"3.u.u.f.y.*.0.y.u.V.*.=.2.# 7 d 6 6.3.B.v.7 Z S /.OX{.OX XXX#X8XrXeX9X@X@X@X{.OX(.G S H d k * 3 a ) 9 M.y.B.y.<.&.*.V.G.G.B.*.@.",
"s.A.Z.Z.u.+.+.>.Z.i.G.h.k.3 f V q c.3.Z.c.0 Z S /.OX@X$X@X.X7XrXdXuX0X@X@X@X{.$X(.L A H M 7 6 a S ~ t k z.C.>.$.@.#.V.Y.G.B.#.@.",
"q.Z.Z.u.y.&.[ e.z.w.V.U.; t ^ S t X 3.9.* r S ( /.oX$X$X6X8XrXeXuXeX9X%X6X$X{.{._.C S ( S n V ^ S C f 2 n.B.O. .*.y.y.y.Z.V.=.@.",
"q.u.f.y.e.*.] &.y.q.u.b.l f ~ S D r X c.l d S J (.OX$X6X8XqXeXeXuXeX9X6X6X$XOXOX(.G ~ ~ A S S S S G D 7 : ,.+.;.:.y.y.0.V.Z.q.#.",
">.:.y.y.y.<.O.$.y.u.c.= 6 S S S ~ f r 9 e ) S F (.OX$X7X9XrXuXeXuXeXqX8X6X$XOXOX(.E V Z S _ K C S C S p + 5.w.g.f.f.i.*.:.u.q.0.",
"0.+.*.<.<.<.#.*.p.s.% + t J V J S J H B S ( B K (.$X%X7XwXeXuXeXuXeXwX8X8X$XOX$X@X/.W _ ` _.` G S S C h 2 % 0.i.g.i.y.*.*.u.u.0.",
"f.#.O.$.$.<.y.f.h.5.5 l a G G L E n K G C C G E {.$X%X0XwXeXuXuXuXeXwX9X8X%X@X@X#X$XoXoX}.$X` G S H C f < X :.:.*.@.*.y.y.u.0.0.",
"g.*.#.#.*.y.y.L.p.* q 3 v G K E ` Q G ( / ( G W  X$X#X0XrXeXdXuXeXeXwX9X8X%X@X X X$X@X.X.X@XW C C K G M e 2 & <.{ O.s.Z.:.O.#.i.",
"y.8.y.<.3.y.y.u.u.; 0 z v K E E OXE.m H K L R }. X@X#X9XeXaXaXdXdXdXaXqX7X2X#X X.X XXX X X{.E J H K J M e e 3 c.9.*.Z.f.#.{ @.p.",
"*.e.y.*.*.y.*.*.4.X q z y E R W $X X}.W Q.E _. X@X@X$X9XaXpXpXdXdXdXpXrX9X7X#X.X.X X@X$X X(.E K K m K a 7 u < * d.*.>.3.:.*.*.u.",
"3.*.{ &.@.&.*.*.o.4 2 z s _ E E. X.XXX X X X@XXXXX.X2X9XpXgXgXgXfXsXgXpXrX0X2X:X.X:XXX@X$X/.E m L K / y 4 7 6 l b.a.@.=.*.i.:.>.",
"Z.:.{ &.$.$.*.y.o.5 2 + 9 E m E. X.X.X X XXX.X.X|..X2XwXgXkXkXfXzXkXfXgXpXqX9X7X#X:X.X.X@XE.E E E E E s X 6 < 1 b.s.s.>.*.i.u.Z.",
"I.y.O.e.e.&.e.a.,.- w * 3 F E W  X.X.X.X.XXX.X.X|..X2XaXkXlXlXlXlXzXlXzXfXsXpXrX7X:X|.|.{.T m E K E F 8 # 2 q 2 o.C.Z.4.*.y.u.A.",
"Z.>.O.e.r.t.&.e.u.& , c.l M E W  X:X|..X:X,X:X.X~.:X9XsXlXxXcXcXxXxXxXxXlXlXfXpX0X:X|.|. XE.T T m E M k v.X l * 5.C.f.#.#.0.u.C.",
"u.u.:.e.e.e.&.&.t.2.6.5.- u m T {.>X,X:X>X>X:X#X:X2XrXkXcXcXcXnXmXnXnXcXcXxXkXsX0X2X:X:X:X{.}.W.W E p = J.> . *.s.y.e.&.*.>.>.B.",
"q.Z.p.*.O.<.&.<.t.3.@.&.o.3 P W }.>X<X,X>X>X2X8X0XrXgXxXNXnXmXMXBXmXmXnXnXcXlXfXwX9X0X>X>X>X2X}.W M 4 *.b.J.& +.e.$.| } y.>.>.B.",
"q.Z.p.+...<.$.1.t.:.@.| $.o p E E.,X<X<X<X<X3XrXpXfXxXnXMXMXVXVXVXVXVXVXmXnXcXlXgXpXrX3X<X,X.XE.F 9 # 8.u.s.5.>.*...{ } d.4.>.B.",
"q.F.V.*.*.f.<.<.1.9.O.<.u.n.q P T ~.;X1X<X<XtXdXlXcXMXVXVXVXCXCXZXCXCXVXBXmXnXcXlXfXeX3X=X=XXXQ p l t.Z.F.>.9.l.y.X.O.} f.B.4.B.",
"#.u.V.>.B.u.0.*.@.9.b.S.q.4.= r T R.-X1X=X;XtXgXxXNXmXBXCXAXDXFXSXJXAXMXVXBXnXnXcXsX3X;X>X,XT.v 3 o.e.V.D.u.%.<.B.>.*.*.u.Z.0.*.",
"p.u.B.B.V.q.*.#.#.@.:.Z.Y.D.%.O b T ~.<X1X;X3XeXnXMXBXVXZXFXGXDXGXGXAXAXCXVXVXmXfXrX<X=X,X[.b 6 * | &.Z.D.>.:.4.B.:.#.*.p.A.u.0.",
"I.u.q.Z.u.y.:.*.+.&.,.B.A.A.<.b.9 P W.~.1X;X<XyXxXBXCXZXSXGXHXHXKXGXJXJXSXCXVXxXdX3X;X-XW.v q * a.9.3.f.y.:.y.i.u.0.0.y.Z.D.Z.p.",
"A.q.0.p.:.u.u.:.+.r.f.B.S.i.#.M.b Y T.R.,X4X1X4XdXMXAXSXGXHXHXKXKXKXHXJXSXFXNXdX3X1X~.W.Y F c q.u.4.4.d.f.3.8.r.y.y.f.D.f.u.>.u.",
"B.:.0.p.*.y.f.u.u.U.U.y.q.8.=.M.F T R.R.!.1X4X4XyXhXVXAXJXHXKXLXHXLXHXDXFXVXhX4X;X^.W.W.T.T I n.b.;.*.d.I.u.#.*.e.*.p.f.y.:.:.>.",
"q.:.u.Z.y.0.u.u.B.P.S.*.9.u.b.A.c Q E.R.R.!.-X4X4XyXlXAXDXGXLXKXKXKXGXGXCXhX5X;X~.R.R.R.T U x S.y.3.*.3.L.r.@.:.e.O.+.:.y.p.p.u.",
"q.q.V.Z.Z.0.0.y.:.,.u.*.u.g.g.f.Y.c U T.R.!.!.-X1X4XiXbXSXDXHXKXKXHXGXDXbXyX1X~.Q.R.Q.Y U N.u.y.y.s.3.X.$.7.*.*.8.@.+.+.:.D.I.B.",
":.q.u.u.Z.>.*.*.*.O.+.X.8.f.A.4.Z.S.N.I Y T.R.^.<X4X4XhXAXGXDXHXHXGXHXAXhX4X=X^.R.T.R ' N.y.@.y.<.%.$.%.$.&.5.:.8.y.u.+.O.p.D.u.",
"i.V.B.B.Z.u.0.:.u.u...+.u.:.%.s.0.*.u.v.x I R W W.~.1XiXxXSXJXDXFXHXAXzXyX-XR.T R I : n.Z.0.*.+.O.O.$.$.O.+.%.u.f.4.=.=.:.y.u.>.",
"0.p.B.B.Z.Z.u.+.u.L.3.#.y.y.y.a.8.%.3.*.#.n.x c U Y Q.~.2XpXzXvXvXsXrX>X!.Y I c v.n.u.i.i.0.q.>.*.*.$.*.%.O.3.s.Z.u.;.4.Z.f.Z.u.",
"#.0.q.q.B.I.Z.+.3.f.y.O.#.*.3.*.r.&.*.%.<.a.3.;.K.: x *XQ.^.&X&X&X&X^.*XjXN.b.-.+.y.d.i.q.B.V.p.d.f.*.y.y.:.s.A.s.C.4.u.Z.u.u.u.",
"8.0.:.=.>.V.u.:.y.*.O.O.*.*.3.*.C.3.%.*.a.a.a.1.w.0.u.C.Y.n.n.N.n.H.H.Y.i.d.0.+.p.e.*.y.u.V.V.p.i.i.8.y.u.:.4.u.4.P.C.:.3.:.:.a.",
"i.p.q.O.=.>.+.>.f.*.O.e.a.d.a.3.e.<...%.>.#.e.e.$.0.0.:.u.X.+.Z.p.u.y.U.I.Z.&.} f.@.O.*.u.V.u.u.y.8.0.u.u.:.%.:.u.I.Z.:.3.3.3.y.",
"u.D.p.O.#.>.:.u.s.*.*.r.a.l.3.X.2.<.{ &.#...*.e.<.s.:.+.B.>.%.4.i.w.@.y.l.a.O.O.*.%.;.3.u.u.u.u.p.:.u.Z.f.y.*.*.s.f.e.<.s.y.<.a.",
"B.p.p.9.*.u.4.S.:.<.r.&.$.y.3.%.3.s.4.a.*.O.*.f.s.d.1.1.a.s.;.3.P.D.w.-.+.:.O.} } e.a.y.:.>.:.C.u.-.:.Z.u.y.y.8.u.y.} @.a.<.&.&.",
"A.q.h.h.9.:.>.b.3.a.l.$.[ *.s.C.3.s.L.f.y.<.*.Z.u.p.0.*.$.a.s.C.I.F.q.<.[ @.*.3.s.s.s.3.*.+.+.C.q.=.+.u.y.*.f.y.y.y.} | <.*.$.| "
};
