/* XPM */
static char *out[] = {
/* columns rows colors chars-per-pixel */
"64 64 255 2 ",
"   c #5B5B09",
".  c #7B4A0B",
"X  c #69570A",
"o  c #76520B",
"O  c #795116",
"+  c #795514",
"@  c #596609",
"#  c #4D740F",
"$  c #477B0B",
"%  c #586913",
"&  c #597716",
"*  c #676813",
"=  c #726915",
"-  c #627618",
";  c #B3190C",
":  c #8F3706",
">  c #983707",
",  c #9C330A",
"<  c #A72B0A",
"1  c #B72808",
"2  c #A5340A",
"3  c #B52C12",
"4  c #AE3314",
"5  c #C62908",
"6  c #D62B0B",
"7  c #D8330B",
"8  c #CA2611",
"9  c #D62815",
"0  c #C93114",
"q  c #D83316",
"w  c #E4370C",
"e  c #EB3310",
"r  c #E83A16",
"t  c #F43C15",
"y  c #F23A1B",
"u  c #FE3E1C",
"i  c #F03824",
"p  c #8C460B",
"a  c #95430B",
"s  c #8E4B13",
"d  c #977716",
"f  c #AF6F16",
"g  c #D9500F",
"h  c #F9480D",
"j  c #F95B0D",
"k  c #E94518",
"l  c #F44514",
"z  c #FC4315",
"x  c #F54B14",
"c  c #FB4B15",
"v  c #F4441A",
"b  c #FD441B",
"n  c #F64C1C",
"m  c #FC4B1B",
"M  c #E75B17",
"N  c #F55314",
"B  c #FB5314",
"V  c #F5531A",
"C  c #FC531B",
"Z  c #F95B19",
"A  c #DB6B0A",
"S  c #D06814",
"D  c #FA6D0D",
"F  c #ED700C",
"G  c #FA7B0C",
"H  c #E86915",
"J  c #F86717",
"K  c #F47416",
"L  c #ED4520",
"P  c #F94621",
"I  c #FE4A22",
"U  c #FD5422",
"Y  c #FA5D23",
"T  c #EC6223",
"R  c #F96724",
"E  c #FA7728",
"W  c #FD7B32",
"Q  c #138D00",
"!  c #1B8C01",
"~  c #1D9202",
"^  c #1D9807",
"/  c #1B9E12",
"(  c #248E03",
")  c #288E04",
"_  c #348907",
"`  c #249404",
"'  c #2B9505",
"]  c #259905",
"[  c #2B9A05",
"{  c #24950A",
"}  c #2C950A",
"|  c #259B0B",
" . c #2C9B0B",
".. c #329404",
"X. c #329B06",
"o. c #32960A",
"O. c #339C0C",
"+. c #3A9909",
"@. c #3A9C0D",
"#. c #3A8D14",
"$. c #2D9D11",
"%. c #289A14",
"&. c #3C9614",
"*. c #349D12",
"=. c #369916",
"-. c #3A9E13",
";. c #1CA307",
":. c #28A408",
">. c #2CA20D",
",. c #33A20D",
"<. c #3AA20E",
"1. c #33AA0D",
"2. c #39AA0B",
"3. c #3BB00A",
"4. c #25A310",
"5. c #2DA213",
"6. c #2CA818",
"7. c #34A313",
"8. c #3BA413",
"9. c #35AA14",
"0. c #3CAA15",
"q. c #34A41A",
"w. c #3CA51A",
"e. c #35AB1B",
"r. c #3CAB1A",
"t. c #37B118",
"y. c #3DB11C",
"u. c #3CAB22",
"i. c #3CB122",
"p. c #4C910D",
"a. c #439C0E",
"s. c #498815",
"d. c #588518",
"f. c #449C13",
"g. c #499916",
"h. c #439D1B",
"j. c #5E9515",
"k. c #6E8C1B",
"l. c #43A40D",
"z. c #42A515",
"x. c #43AA15",
"c. c #4AA817",
"v. c #42A61A",
"b. c #43AB1A",
"n. c #4AAC1C",
"m. c #54AD1A",
"M. c #41B418",
"N. c #44B11C",
"B. c #4CB21D",
"V. c #68A81E",
"C. c #4E9024",
"Z. c #519B23",
"A. c #718A22",
"S. c #47A723",
"D. c #43AB23",
"F. c #44B421",
"G. c #4AB322",
"H. c #48B628",
"J. c #51B723",
"K. c #8C8517",
"L. c #A2911A",
"P. c #D49C15",
"I. c #EE8F0E",
"U. c #F8880B",
"Y. c #F5980E",
"T. c #F88615",
"R. c #F69B13",
"E. c #CEA31C",
"W. c #E8AE1A",
"Q. c #F6AA18",
"!. c #F8B818",
"~. c #F98328",
"^. c #FE8D2D",
"/. c #ED9229",
"(. c #FC912E",
"). c #F8952E",
"_. c #FE8635",
"`. c #FE8D33",
"'. c #FA8B35",
"]. c #F69333",
"[. c #FD9334",
"{. c #FE9B35",
"}. c #FD953A",
"|. c #FD9C3A",
" X c #DFAE2E",
".X c #E2AB27",
"XX c #FAA928",
"oX c #FCAB2F",
"OX c #FAB826",
"+X c #FBB52D",
"@X c #FCBA2C",
"#X c #F6A635",
"$X c #FEA435",
"%X c #FDAB35",
"&X c #FDA33B",
"*X c #FCAC3B",
"=X c #FEB431",
"-X c #FDBA31",
";X c #FCB23E",
":X c #F9BA3B",
">X c #FED317",
",X c #FCC829",
"<X c #FCD828",
"1X c #FCC53A",
"2X c #FBD034",
"3X c #F9E62A",
"4X c #F8E637",
"5X c #FCB543",
"6X c #FCBA48",
"7X c #FBBF51",
"8X c #F8C146",
"9X c #FBC34B",
"0X c #F7D448",
"qX c #FDCA57",
"wX c #FDD75A",
"eX c #FEE75B",
"rX c #FDF25C",
"tX c #FDCC65",
"yX c #EFD866",
"uX c #FDD767",
"iX c #FDDC6A",
"pX c #FBD977",
"aX c #FBE465",
"sX c #F3EC6F",
"dX c #FCE273",
"fX c #FCE47C",
"gX c #FCEC78",
"hX c #FDDD83",
"jX c #FDE582",
"kX c #FEE882",
"lX c #FDE58B",
"zX c #FDE98B",
"xX c #FBE497",
"cX c #FEEB94",
"vX c #FDEC9C",
"bX c #FAF29B",
"nX c #FDEDA2",
"mX c #FDEDA8",
"MX c #FDF1A4",
"NX c #FEF1AC",
"BX c #FBF9AF",
"VX c #FFEDB3",
"CX c #FDF2B4",
"ZX c #FEF4BC",
"AX c #F9F9BA",
"SX c #FDF6C5",
"DX c #FDFAC3",
"FX c #FCF6C8",
"GX c #FDFACB",
"HX c #FFF5D7",
"JX c #FEFBD5",
"KX c #FDFDDC",
"LX c #FFFEE3",
"PX c #FEFCEB",
"IX c #FFFCF6",
/* pixels */
"J.B.@.+.8.} ' =.q.*.7.} `  .9.i.e.q.r.9.7. .7.e.6.4.[ @.f.5.v.v.w.i.7.x.,.:.M.N.e.>.5. .~ | O.G.D.w.=. .( o.@.} ^ { %.$.q.{ { %.",
"b.<.<.<.o.o.*.-.*.}  .[ ] >.7.>.4.| 5.7.8. .` 5. .7.,.,.@.7.<.4.7.w.,.9.<.8.t.9.5.>.>.$. .7.9.b.q.7.8.7...[ O.@.$.{ { %.%./ { ( ",
"N.8.<.[ [ 8.w.w.O.( } 7.,.7.,.] | ~ ` ,.0.,.` $.=.8.8.>.@.9.-./ 5.@.8.1.+.+.2.>.] ` `  .$. .7.8.O. .@.b.v.<.7.w.e.| ` | { | { ! ",
"M.9.,.' O.8.7.8. .' 8.G.v.,.,.>.%.~ ` } 8.O.} 7.e.@.<.' o.q.o.%.q.&.8.,.2.,.1.0.] ` `  .9.' 7.8.}  .@.v.G.z.,.n.r.| } $.{ %.%.o.",
"9.9.r.,. .7.O.v.O.[ w.J.8.X.*.,.7.[ O.} @.] | >.5.' X.` o.g.+ a s.o.7.X.x.M.3.B.,.7.,.9.w.] 7.b.8.8.*.8.z.+.X.b.0. .,.>.] | r.7.",
"7.7.r.9.] ,.8.G.8.<.v.G.z.X.7.@.=. .7.X. . .7.e.4.] z.8.u.Z.O < o s.5.X.x.J.N.M.2.H.r.8.,.` O.7.8.v.8.@.8.} X.r.>. .7.] ` >.r.,.",
">.>.>. . .7.x.x.z.8.z.n.8.<.8.@.7.$.@.@.[ 8.r.y.6. .b.J.G.S.O ; < X f.*.l.c.x.8.0.G.0.O.' ` X.O.<.z.8.&.8.O.O.0.,.,.8.,.] ,.9.} ",
"| 9.5.5.N.N.8.7.,.x.z.z.@.8.v.O.r.>. .8.( 8.8.w.D.} 8.B.F.} . 8 9 s s.0.+.+.,.+.<.N.w.0.7.<.,.8.v.8.o.[ 8.7.-.v.0.7.0.y.1.>.>.7.",
"$.9.9.w.G.G.8.<.=.2.l.8.r.z.n.-.$.$.O.,.o.o.w.w.&.[ >.b.F.[ # 1 3 s j.0... .O.M.n. .<.t.H.t.0.F.G.v.} *.-.q.=.*.8. .] 0.0.@.7.0.",
"w.7.} X.8.z.8.8.@.x.0.5.w.,.8.9.*.O.8.8.8.x.7.7.] ^ &.v.0.@.X 9 k q > & -.<.b.S.w.,.X.<.0.r.0.8.n.8.O.=.w.w. .} 8.7.[ [ ,.w.N.r.",
"w.,.' [ O.@.@.<.,.8.z.-.9.2.2.1.( } <.8.b.M.[  .:.*.0.l.l.s.2 i m z e 4 & r.J.=.0.,. .,.,.8.8.} X.*.} o.=.( ! ` x.F.r.7.8.8.9. .",
"8.<.8.8.8.7.-.O.+.,.8.v.c.b.r.q.' O.8.<.b.x.`  .e. .l.<.6.X 5 b c B Y r 4 d.S.%. . .>.0.7. .} ) O.O.} } $.{ Q { 8.N.b.b.n.8.} ' ",
"8.8.n.b.8.8.8.*._ -.t.r.0.8.s.& r.r.8.8.c.8.O.7.$...[ | # 1 r x l C h c t 2 % ^ ` `  .9.9.` [ ) @.@.O. .=.%.` $.x.0.<.2.0.-.[  .",
"8.8.N.v.@.*.-.O.| v.8.,.6.& : O r.w.*.x.b.8.X.} | r.#.  1 w x v z n h B U e , _ ` ~ ] 4.6. . .} o.8.w.7.5.{ | u.v.<.,.X.<.8.O.O.",
"<.0.x.8.7.-.-.*.=.*.o. .#.4 ; * 7.] +.x.0.<.,.] w.C.a 6 t z z u z m Y x N C 5 X [ $. . .5.7.=.=.N.n.8.*.q.5.$.e.8.X.,.,.0.n.=.*.",
",.X. .X.@.*.-.8.&.! o.q.X ; O &.-.' 8.<.<.0.w.e.& < q b b v I v b x n U N m k , w.7.$. .,.9.*.D.J.G.8.|  .|  .5.@.[ <.N.B.v.-.q.",
"0.<.} ,.} 7.0.8.g.[ 7.-.s.$ g.q.$.} =.9.,.N.H.O 1 r u v x m b b b x c N C B x 5 - 9.,.&.( ] h.D.0.B.8.<.' ' =.*. .} 7.B.n.w.%.%.",
"n.8.O.8.O.8.v.8.0.*.7.&.=._ } | *.5.+.O.1.w.+ 0 k y v V R R x b b b C C C c V q O H.1.7.] ~ } 3.r.,.0.8.@.8.O.r.7.8.@.,.8.*.{ =.",
"X.-.v.B.-.,.8.o. .8.o.&.| ^ ^ | q.v.^  ._ O 1 t u l Z E `._.V z u b c B C B N k 3 g.:.9.9.| 7.<.F.,.0.,.9.8.} =.w.w.8.[ 9.w.{ =.",
"X.*.b.0.[ O.+.' @.8.@.7. .} q.r.e.D.^ | o 8 u n l J _.^.|.[.T c u b z B C B B t 2 o.<.,.1.x.8.&.8.0.,. .7.w.8.*.*.*.1.,.*.u.} %.",
"8.9.y.7.[ 8.0.8.x.-.8.w.7.@.D.r.5.=.) X 8 y b v T _.}.(.].}.E x z b b c U B B k < o.z.-.2.B.M.>.} 9. .] >.8.u.*. . .[ [  .9.( ! ",
"' ,.M.9.7.y.y.N.r.7.0.,. .` 5.7.%.5.@ 8 y v b I '.}.`.`.}.`._.J z v m c m B B n < g.+.8.8.s.d.c.| [ >. .[ 5.=.$.q.q.[ [ ,.7.` %.",
"` ` 5.[ ,.9.0.N.t.2.8.] ]  .| $.%.s.> q I l C W (.`.`.}.}.`.`.E V l b z b B Z k > p.:.f.* < 4 - ] ! 7.8.*.*.| %.q.r. .2.8.9.q.e.",
"0.] [ ] 0.0.>.,.8.8.O.` O.H.5.4.6.o 6 b l I Z `.[.^.`.`.].}.[.).R m z b m B N r > #.s.p 1 i q . 5.` 7.F.9.$.5.q.5.|  .x.<.*.e.6.",
"8.@.' 7.N.n.0.8.x.8.-.@.w.n.*.*.C.1 r t b b W `.}.[.`.[.[.[.[.}._.Y x b z I n 7 < a 4 6 L v k < #.;.S.w.@.u.5.4.5.! X.x.<.,.>.$.",
"v.v.@.8.n.b.b.n.c.n.v.v.b.0.*.| % 5 v b b b '.}.`.[.[.^.[.[.[.`.}.W Z h z b b t e k y u b l x 5 & >.u.v.0.q.| | 4.~ ` <.<.1.>.] ",
"8.n.v.z.z.<.<.c.x.n.+.-.7.' $.=.p 6 b b P U '.].`.[.[.`.[.[.[.[.].[.E Z z b u b b l m b h c C 7 + 7.*.8.,.*.%.{ %.]  .,.,.0.7.$.",
"*.w.v.8.[ ' O.<.B.n.o.w.9.} q.S., e b u P Z [.(.[.[.[.[.[.[.[.(.(.[.[.E J x m v b l m P u c C r > s.` [ >.O.{ { | 7.0.0.x.N.r.7.",
"*.7.7.,.` ` ,.9.b.7.[ 5.@. .%.s.3 y z v b Z `.[.`.}.[.[.{.[.[.[.[.].}.}._.E E R R E W Y b z m V 1 # ] ` ] 8.| { [ 0.N.x.b.M.8.O.",
"O.O.7.7.` ' 0.0.0.9.@.] } *.%.$ 1 y z b u R [.[.^.[.}.{.{.{.[.{.`.`.].[.}.}.'.}.`.}._.k u z c Y 5 % 9.X.X.8.5.%.| 7.M.x.x.l.O.] ",
"*.8.w.w.,.[ 8.7.0.7.8.| } *.%.$ 1 t z b b R (.[.[.[.{.{.{.{.{.{.}.}.[.^.^.].].[.'.(.W m P b h N 7 + M.b.h.z.6.5.| >.2.m.c.x.} ] ",
"-.S.b.v.8.' ' +.c.0.z.e.8.O./ $ 3 t h v v W [.].}.[.{.&X{.$X{.|.|.].[.[.].[.|.`.}./.`.U P b z Z q p <.c.Z.z.9.` ] ] x.m.m.l.[ [ ",
"<.v.b.9.7.| Q 5.w.-.N.n.0.:.4.  5 y b b b W }.^.[.[.|.{.#X6X5X#X&X{.{.(.{.{.{.[.`.[.'.C b b z c t , &.@.g.a.} Q } 7.7.7.n.x...' ",
"@.8.w.7.5.$.! | e.@.f.v.d.% X 4 w b b b m E }.(.[.[.&X$X#X6X9X7X&X$X{.$X{.$X&X{.(.[.'.Z b b b m r > h.n.m.@.' { O.9.9.,.x.b.+.X.",
"@.,.8.7.5.$.` { *.5.7.& > 0 8 q l b z z x R ].(.(.{.$X%X*X9XwXwX6X;X$X$X$X%X$X$X[.[.`.R b b v b q , h.G.n.+.O.x.0.r.9. .X.z.<.,.",
"7.[  .$.$.*. . .i.t.d.< w u u z b b b b m R }.(.(.&X*X%X%X8XwXeXwX9X;X#X$X$X%XoX[.}.`.R c b b b 7 < h.b.z.+.7.r.y.9.7.} X.8.2.,.",
"r.| ] { { *.*.w.n.5.. 9 z z c h b b b b b R '.[.[.&X;X*X#X7XuXiXaXwX9X5X*X%X%X%X{.].}.E n b b b e 4 g.n.D.0. .>.>.] ,.7.7.9.,.,.",
"y. .| [ $.7.7.D.x.s.< i m x b I b b b v v U _.{.[.%X5X;X5X9XiXaXiXaXuXqX6X5X*X5X&X(.[.~.x b I P t 3 s.v.F.t.>.:.~ ` w.b.O.' [ 0.",
"9.$.7.*.*.7.7.8.0.* 5 i b I b k c b m n b c W {.`.|.5X5X6XtXiXdXdXdXdXiXqXqX9X9X5X[.{.^.B b b m u 1 $ *.t.9.>.,.>. .w.w.' ` [ 0.",
"| $.9.$.$.7.[  .@.p 7 C m b m b m b m I m l E [.|.5X7X6X9XiXfXfXfXfXfXdXpXuXwXqX5X{.{.].B m m m v 1 $ ` 4.>.'  .e. .@.-.,.>.[ 2.",
"7.[ ! | ] | $. .#., w c b m Z J c x m I P N E [.&X*X5X5XtXfXzXjXjXjXkXfXjXfXfXiX6X|.&X].B c m C n 3 & :.^ ^ ( 5.N.7.} ' X.e.} <.",
"r.*.~ | | |  .7._ < r l I U E {.E K j N x j ~.$X%X#X5X7XiXlXzXlXlXzXzXzXjXlXfXpX7X&X$X].Z m n n u 1 & >.` ( ,.2.9.r.w.*.*.0.,.x.",
"G.7.` $.5.| 5.6.&., r c C V ~.#X%X{.(.~.~.^.$X*X%X+X5XqXhXbXcXvXcXcXcXzXcXcXlXjXqX*X$X~.C b m m v 1 + % @ @ & @.,.w.b.7.} 8.8.n.",
"n.*.` 7.6.5.| 4.w.. q n c V }.XX$XoXXX+XoX%XoXXX+XOX6XtXxXvXvXnXnXvXbXvXvXvXcXlXtX=XoX^.C I m C t 6 q 0 9 0 ; * 7.e.w.[ [ 7.@.b.",
"<.8.O.5.5.5.| %.%.% 0 P c N ].XX%X%X=X-X-X+X+X+X@XOX6XpXnXMXnXNXNXnXMXnXnXvXvXcXpX6XoXT.V b m m B B x I c r , # w.e.>.|  .O.@.z.",
"<.n.0. .` $.| 4.q.=.> e m j E +X=XoXoXoX+X+X+X@X@XOX1XhXNXCXNXCXCXNXNXNXnXNXMXnXlXtX:X/.R V c C u I m I k 1 @ { *.] ^ | 9.O.&.f.",
"+.N.0.' ( %.{ %.7.4.  0 n Z K %X=X=X-X=X-X-X@X@X+X@X6XxXZXCXCXZXZXZXCXZXCXVXNXnXxXlXtX6X$XK C B U U C v 0 p f.=.X.~ ~ ^ e.-.@.x.",
"2.B.x. .} u.$.$.} ;.#.< g j K $X+X@X@X+X-X-X-X-X:X1XqXvXGXZXZXSXSXZXZXZXZXZXCXVXMXnXpX8XoXH Z Z B Z j k 1 s.>.9.8.{ ~ | r.8.8.f.",
"[ 8.x.+.8.8.,. .%.:.l.d.1 V J ~.+X-XOXOX,XqXuXpXhXhXmXAXFXFXFXDXSXSXSXDXSXAXAXZXNXxXtX:XXXG B Z J Z B 5 s i.` +.8.+. .[ 8.v.,. .",
"x.<.8.x.v.<.[ ] 4.` X.S.= 6 V K XXOX,XOXOX0XfXNXVXVXSXGXGXFXGXKXJXJXJXJXFXFXZXVXBXvXtX,XOX$X~.J J J k a Z.o.:.8.z. .[  .x.F.8.,.",
"J.<.8.n.8.7.O.[ ` [ 8.z.H.s < H T.XX,X,X,X2XpXVXFXAXAXFXJXJXKXLXKXKXKXLXHXGXDXAXZXvXyX2X,XOX/.K K Z 5 - r.[ 5.e.8.>.,.9.r.n.v.0.",
"B.<.,.0.O.9.0.O.[ f.b.<.e.h.a w J T.!.,X,X<X0XlXSXDXDXDXJXPXLXLXLXKXJXKXJXJXFXAXAXzXwX1XW.G D D J 0 : Z.v.:.>.9.7.7.r.N.w.8.<.0.",
"l.+.,.0.[ 8.0.8.8.H.0.2.O.w.f t H U.Y.OX>X3X<XeXmXFXKXJXJXLXLXGXLXKXKXJXKXKXGXDXbXaX,XW.K K G D M : s.S.F.5.} +.>. .0.0.0.O.X.,.",
"<.O.0.x.,.,.9.8.h.N.M.O.5.x.K.T D U.U.Y.!.>X3X4XsXMXHXKXKXLXLXKXPXPXLXLXLXKXDXBXeX<X!.I.U.U.G J f d.%.-.u.6.{ :.5.] ] O.,.0.x.8.",
",.<.x.n.v.,.,.7.7._ z.[ } r.n.d g K T.I.R.!.<X3X3XrXbXJXLXLXPXIXLXLXLXLXKXDXbXgX3X!.Y.U.U.D H S k.e.' o.} 5.} 4.>.] ' ' O.N.G.x.",
",.<.8.<.x.@. . .[ ' _ ' 6.e.b.8.A.f A U.I.Y.Q.>X<X3XrXBXKXJXKXLXKXKXLXKXGXbXaX<X!.R.U.I.K M d a.} ' ` { ^ o.-.=.>.7.8.' ` w.B.@.",
"1.x.z.x.v.9.@.O.z.8.( ` 8.O.[ w.6.&.k.f S J U.I.OX<X4XsXAXLXLXKXJXKXPXAXgX0X,XQ.R.T.K S d j.@.[ { ~ { { ( } } w.r.7.....o.7.z.@.",
",.z.c.x.n.N.8.' 8.F.*.} 7.*.*.9.>.]  .} p.k.f S A I.!.2XwXfXxXvXmXxXpXqX+XI.F F S f K.j.z.:.,.,. . .[ | } ' *.w.b.8.o.-.b.v.b.8.",
"[ ,.<.@.0.G.r.] *.w.7.` } | *.%.6.,.=.=.*.q.=.f.d.A.L.E.P.W..X X.X.XE.E.L.K.k.k.p.h.7.e.0.l.N.0.e.r.*.7.7.} w.n.w.v.&.f.v.8.8.8.",
":.,.X.o.<.v.8. .7.} ] ` | [ *. .=.$.[ [ *.,. .] 1.8.8.c.a.p.j.k.j.V.m.B.7.e.>.' 9.,.] :.2.8.x.9.7.e. .9.q.O.-.v.-.G.v.O.7.*.*.8.",
"<.b.2.' o.+.] @.b.| { 5.q.r.=.*.=.=.~ ] O.[ 1.4. .$.O.7.=.} ' 0.9.,.<.b.n.b.>.^ 9.| [ +.l.B.z.z.,.>.>.8.8.O.[ X.8.H.r.O.*.O.*.9.",
"<.M.0.` ] @.o.z.w.%.$.6.e.i.*.) $.$.! } O.( %.=.*.7.X.o.D.=.o.<.3.,.[ w.u.7.] ] =.{  .| ,.w.+.8.0.,.8.r.w.7.}  .v.b.$.>.e.7.$.q.",
"z.2.9.:. .8.&.c.$.*.5.| | 7.*.} O.h.-.q.5.{  .v.w.e.[ { =.q.o.@.M.N.,. .]  .{ %.%.%.q.q.-.-.o.0.8.X.@.r.8.7.7.>.w.7./ | q.$.| | ",
"n.,.t.t.>.X.@.z.*.q.i.^ ! %.&.u.@.w.F.e.6. .:.N.w.y.7. .$.=.u.S.G.G.,.[ ~  .` *.8.8.w.7.} ' +.z.<...' 8.9.>.r.7.9.6.^ ^  .| { ^ "
};
