/* XPM */
static char *out[] = {
/* columns rows colors chars-per-pixel */
"64 64 251 2 ",
"   c #367909",
".  c #505C08",
"X  c #7A490A",
"o  c #6D550F",
"O  c #77560C",
"+  c #6D5817",
"@  c #487A0B",
"#  c #50710F",
"$  c #587C16",
"%  c #6A660F",
"&  c #676613",
"*  c #637317",
"=  c #B81F0D",
"-  c #883D08",
";  c #983507",
":  c #95340E",
">  c #A92908",
",  c #B72908",
"<  c #B22D0F",
"1  c #A53209",
"2  c #CE1F0E",
"3  c #C4230B",
"4  c #C9290C",
"5  c #D7260A",
"6  c #CC380E",
"7  c #C92914",
"8  c #D72A13",
"9  c #DB3515",
"0  c #E9350F",
"q  c #E92C17",
"w  c #E73915",
"e  c #FA3B18",
"r  c #F93D22",
"t  c #884409",
"y  c #864812",
"u  c #825411",
"i  c #AC5E1E",
"p  c #907510",
"a  c #B36E12",
"s  c #DB4A08",
"d  c #D25015",
"f  c #F74A0C",
"g  c #E94615",
"h  c #F44516",
"j  c #FC4515",
"k  c #F44C14",
"l  c #FC4C14",
"z  c #F5441C",
"x  c #FD441C",
"c  c #F54B1C",
"v  c #FD4C1B",
"b  c #F05412",
"n  c #F45414",
"m  c #FD5315",
"M  c #F45B14",
"N  c #FC5B14",
"B  c #F5541A",
"V  c #FC521B",
"C  c #F65E1B",
"Z  c #FC5C1C",
"A  c #D16811",
"S  c #EB6D0B",
"D  c #F5760B",
"F  c #E96917",
"G  c #F76516",
"H  c #FB621B",
"J  c #FB6D1D",
"K  c #F87619",
"L  c #EB4722",
"P  c #FA4823",
"I  c #FE4B21",
"U  c #FB5523",
"Y  c #C86522",
"T  c #F96725",
"R  c #FA7727",
"E  c #1C8700",
"W  c #1B8C01",
"Q  c #1D9102",
"!  c #1B9706",
"~  c #248E02",
"^  c #2C8B08",
"/  c #3B870A",
"(  c #249404",
")  c #2B9505",
"_  c #259904",
"`  c #2B9A05",
"'  c #24950A",
"]  c #2C940A",
"[  c #259B0B",
"{  c #2C9B0B",
"}  c #329505",
"|  c #329B06",
" . c #33950B",
".. c #3B960B",
"X. c #339C0C",
"o. c #3A9C0D",
"O. c #398916",
"+. c #269C11",
"@. c #2C9D11",
"#. c #2C9916",
"$. c #349D12",
"%. c #379816",
"&. c #3A9E13",
"*. c #3B9C1B",
"=. c #1EA10D",
"-. c #2DA305",
";. c #27A50B",
":. c #2DA10D",
">. c #33A10D",
",. c #3AA20E",
"<. c #37A80B",
"1. c #26A311",
"2. c #2DA213",
"3. c #2DA619",
"4. c #34A313",
"5. c #3BA414",
"6. c #35A914",
"7. c #3CAA15",
"8. c #34A519",
"9. c #3CA51A",
"0. c #35AA1A",
"q. c #3CAB1A",
"w. c #2FB211",
"e. c #36B219",
"r. c #3DB11D",
"t. c #399D22",
"y. c #3AA723",
"u. c #3DAC23",
"i. c #3AB221",
"p. c #46860B",
"a. c #419A0E",
"s. c #5B900D",
"d. c #468917",
"f. c #578719",
"g. c #479619",
"h. c #5A951A",
"j. c #6B8D18",
"k. c #44A50D",
"l. c #42A515",
"z. c #4AA717",
"x. c #42AB15",
"c. c #42A51A",
"v. c #43AB1B",
"b. c #4AAC1D",
"n. c #54AA1A",
"m. c #44B21C",
"M. c #49B31C",
"N. c #54B11B",
"B. c #6BA51A",
"V. c #578A22",
"C. c #43AC21",
"Z. c #48AA21",
"A. c #59A924",
"S. c #44B222",
"D. c #47B626",
"F. c #4BB322",
"G. c #52B925",
"H. c #878619",
"J. c #AF901C",
"K. c #CF9B1E",
"L. c #F88A0B",
"P. c #EB920F",
"I. c #F8970A",
"U. c #F88615",
"Y. c #FB9714",
"T. c #F8A90C",
"R. c #ECA71A",
"E. c #FCA41A",
"W. c #F4B117",
"Q. c #F98826",
"!. c #FB8B2B",
"~. c #EF9022",
"^. c #F89727",
"/. c #FB922E",
"(. c #FC9C2C",
"). c #FE8532",
"_. c #FE8C32",
"`. c #FD9333",
"'. c #F89737",
"]. c #FE9B34",
"[. c #EAA528",
"{. c #FBAB27",
"}. c #FDA42D",
"|. c #FDAA2D",
" X c #F8B628",
".X c #FCB42C",
"XX c #FDBB2D",
"oX c #F6A736",
"OX c #FDA433",
"+X c #FDAB33",
"@X c #FCAD3B",
"#X c #FDB434",
"$X c #FDBB33",
"%X c #FDB53C",
"&X c #FCBA3B",
"*X c #FAC619",
"=X c #FCD61A",
"-X c #FCE41F",
";X c #FEC423",
":X c #FCC827",
">X c #FBD828",
",X c #FCC233",
"<X c #FBC23C",
"1X c #FFCA3C",
"2X c #FAD637",
"3X c #FEE42A",
"4X c #F9E738",
"5X c #FEB442",
"6X c #FBB946",
"7X c #FDBC4B",
"8X c #FBC849",
"9X c #FBD249",
"0X c #FDCC53",
"qX c #FAD656",
"wX c #FDD55C",
"eX c #FDDC5C",
"rX c #F8E74B",
"tX c #FAEA56",
"yX c #FCE15D",
"uX c #FEDD62",
"iX c #FEDB6A",
"pX c #F8DD75",
"aX c #FEE162",
"sX c #F9E267",
"dX c #FFF065",
"fX c #FEE374",
"gX c #FDE47B",
"hX c #FDEB7B",
"jX c #FFDD97",
"kX c #FEE683",
"lX c #FEE68B",
"zX c #FDE98C",
"xX c #F9F286",
"cX c #F7E894",
"vX c #FDEB94",
"bX c #FDEB9B",
"nX c #FDF398",
"mX c #FEEDA4",
"MX c #FFEEAA",
"NX c #FEF1A9",
"BX c #FFEFB3",
"VX c #FEF1B3",
"CX c #FEF4BB",
"ZX c #FEF6C4",
"AX c #FDF7C7",
"SX c #FDFACC",
"DX c #FBF7D1",
"FX c #FEFBD4",
"GX c #FEFCDB",
"HX c #FEFDE3",
"JX c #FFFCE9",
/* pixels */
"G.N.o.X.5. .] $.8.$.4.[ ( { 6.r.8.2.q.5.4.:.6.0.+.{ ` 5.&.X.4.y.9.v.{ 7.,.>.v.S.r.1.@.[ ( ` X.S.C.8.4. .~ } 4.} ' ! +.#.8.' ' #.",
"x.5.,.X.} X.$.&.$.' { ` ( :.6.:.3.[ 2.6.4.{ [ { %.5.-.` 5.a.X.%.c.9.4.5.5.<.e.<.4.[ :.2.[ 4.6.c.9.4.4.&.} ) o.X.@.' ' @.+.' ' W ",
"M.5.,.} ) 5.9.9.$.~  .4.X.6.>._ [ ! ( >.5.4.) @.3.4.<.} &.x.{ =.[ &.z.6.{ <.<.-._ ( ( { $.{ 5.5.{  .4.c.v.o.o.7.0.[ ( [ ' +.' ~ ",
"r.6.>._ { 5.&.5. .( 5.F.7.>.4.X.+.Q ( { 5.| ` 8.8.{ k.| ) 8.$.' q.:.6.} ,.>.>.7._ _ Q { 4.( 4.q. .X.X.v.F.5.4.v.u.[ ] @.( [ #.#.",
"6.6.r.>.{ >.X.c.X.) c.G.5.| 4.X.@.{ X.) | ` { 1.8.( } `  .g.O t $ ..<.| x.M.e.b.>.>.>.7.7._ 5.c.5.5.&.4.l.o. .M.7.` >.:.( [ q.4.",
"6.>.0.4.` X.5.F.5.>.c.F.l. .,.>.&.{ 4. .{ { 4.6.2.[ >.6.C.V.> q > u $ _ r.G.M.k.7.D.q.6.X.( >.>.4.x.5.o.5.} ) q.:.{ 6.` _ :.r.$.",
":.:.:.:.{ 6.7.x.x.5.l.z.l.5.5.X.4.{ X.,.` 5.q.u.X.4.c.M.G.f.< r r 5 > O g.v.k.k.5.F.q.X.) ( { X.,.l.4.&.5.X.X.q.4.>.5.>._ 4.6.` ",
"[ 6.2.4.m.m.5.4.>.x.5.l.o.5.c.X.0.4. .l.~ 4.5.9.9.@.9.M.n.# , z l j e 7 ; * 5.-.>.M.c.7.>.4.4.7.c.5. .} 5.&.&.q.6.6.6.m.:.:.:.4.",
"@.4.4.5.F.M.5.,.o.x.x.,.x.5.q.7.$.&.>.,.` ..&.q.%.( ,.7.z.& 7 r x j j z q > % C.z. .6.i.M.b.0.M.F.5. .%.*.9.$.$.5. .` 6.7.&.6.4.",
"q.5.{ { 5.l.4.l.X.c.9.o.5.X.5.5.1. .>.4.k.v.4.6.{ ( 4.7.x.O 8 x j j x e z w > % M.o.;.:.7.v.5.5.b.5. .$.9.8.{ { 5.4.` { ,.5.m.q.",
"q.X.] ) X.,.X.o.X.l.,.>.q.7.q.6.' ^ 8.5.l.S.{ _ >.+.4.k.7.y 9 f h v l c j x w , * ] >.{ 4.6.X.] X.X.@.] @.~ E ' 7.S.7.>.5.9.5.{ ",
"5.>.5.5.5.5.&.X.X.4.5.5.v.m.q.>.] } l.l.z.5.( ` 4.4.X.<.d.; q f l T Z j x e U q > @ 4.x.>. .{ ( o.X.^ ] $.' E ( 5.b.m.q.M.5.] ) ",
"5.l.v.v.4.4.5.&.] 5.v.q.7.4.>.4.4.0.7.5.v.,.{ 4.{ o.) [ o , e x k R ).x v P j k q ; ^ l.>.{ ] ~ X.4.X. .8.+.~ +.5.7.,.<.7.o.} { ",
"5.7.b.x.&.&.&.X.X.$.9.9.$.{ ` 6.e.6.,.k.M.l.` [ [ q.;.  ; 9 h x f ).'.R L x e l z 5 . +.6.+.%.} | 5.9.4.$.' @.y.v.5.>.| ,.4.X.$.",
">.,.7.5.4.&.&.$.$.] ] &.{ X.{ 5.d.& a.l.7.,.4.' #.V.$ X 3 x v e H _.'.'.T j v e c 0 < @ &.:.4.9.b.m.5.$.8.2.@.6.5.} >.>.7.v.&.$.",
"<.>.|  .X.$.&.&.$.^ ] X.] { ( 5.+ > g.l.-.<.v.q.f.> , 5 r P f B R '.'._.!.H j L j x 4 y #.>.>.y.G.M.5.[ { [ +.2.,.| ,.M.M.c.&.8.",
"7.4.| >.{ 6.5.9.4...1.8.^ ( ;.V.= > $ | y.F.D.6.: 9 e j P r x R `./.`._.'.R B x x x 0 <   ` %.S.7.M.5.o.} ] 4.$.] { ,.F.v.9.+.#.",
"v.l.X.4. .5.x.l.l.o.&.9. .2.p.: 7 = p.[ [ 7.q.$ , w I c h I T /._.`.`./.`._.U x x x c 7 . ~ { v.q.>.7.,.>.4.X.C.4.4.X.,.5.&.Q *.",
"X.o.c.b.4.4.&.} %.>.o.o.` #.X 5 L > / +.;.` %.y 5 x v j l T _.]./.`.`./.`.`.R c x x c q - } >.5.S.>.7.6.5.5.] *.5.q.4.{ 4.9.' t.",
"X.o.v.7.}  .X.) &.4.X.a.X.. , B g X ^ +.-.-.O.> 0 P x v T !.]./._.`././.'.`.).C x x e e < g.6.o.4.7.>.{ :.9.9.$.&.$.,.{ 4.9.+.] ",
"4.6.r.>.` 5.7.5.7.9.4.7.t.t w Z 4 # ' 2.l.@.& 3 g x x T !.'.`.).`.`._.`./.`.`.R x x z P 3 $ v.l.] 5.:._ { 5.C.$.{ { { ` ` 4.~ E ",
"` >.r.6.6.q.r.m.x.&.q.6.O.> B w 1 d.:.3.Z.] t 8 x x U ).'././.`.`._.`.`./.`.`.R k x P v 8 * x.v._ { :.{ [ 4.$.@.8.7.` ( >.6.' +.",
"_ ( :.:.>.6.7.r.7.o.5.[ ^ ; L < & %.;.0.S.p., e x B R `.`.`.`.'.`.`.`.`._.`.`._.Z x x x 8 O x.c.[ W X.4.X.2.{ #.8.8.>.<.6.4.8.y.",
"7.) ` _ 7.7.>.>.0.k.| ^ &.t = X *.1._ u.S.# 3 g c T _.]./.`.`.`.`.`.'.`.`.].'.`.U c v j q X <.9.1._ 4.m.9.@.2.3.2.+.| v.,.:.0.3.",
"5.X.) &.m.v.x.5.z.5.z. .k.f.&  .3.] [ 4.X.+ 5 L B ).`.].`.].`.`.].].].`.`.`.`.`.T l B l q - 4.y.;.1.9.q.k.&.3.3.1.W ` x.l.>.:.1.",
"c.c.o.5.b.v.v.b.x.z.c.l.7.9.t.#.'  .6.{ ' t 0 x Z ).`.].'.].].].].].].].].OX`.].R l I v 9 t ..l.0.#.u.l.5.1.+.] 2.Q _ ,.,.>.{ [ ",
"&.v.v.l.c.,.,.v.z.M.&.9.l.[ d.o   0.0.:./ : g v T `.].(.(.OX].OXOX].OXOXOX].].].Q.j I v 9 X ..<.f.+ $ o.8.1.! +.1.' { | ,.7.6.{ ",
"&.c.q.5.} _ | ,.b.x.{ %.5.  ; 2 O u.x.<.p.> e v R ].].(.(.+XOX}.OXOXOXOXOXOX(.].!.m I x w - 4.q.O 3 ;  .2.4.( =.[ 4.7.x.x.v.q.4.",
"&.$.4.X.~ ( >.5.M.5.;...%.t 7 0 : c.g.z.f.> z v R ].].OXOX+X+XoXoX@X@XoX+X+XOX]._.m c l w ; g.$ > q , #  .4.] ~ [ 6.M.x.x.x.,.4.",
"$.{ 4.4.( ` 7.7.5.4._ _ # 2 L h < @ #.Z.h.= c B R ].OXOX+X@X+XoX6X8X5X+X+X+XoX].).Z V l h , + 1 q P 9 t  .4.*.[ [ <.m.x.x.x.| ( ",
"&.&.9.q.>.| 4.4.l.7.>. .; q U I q t p.c.f.3 z v Q.OX+X@X@X5X@X7XqXqX6X+X@X+XOX].!.m I l c 9 6 8 x B e , $ 9.6.1.[ :.k.z.z.l.{ ` ",
"5.v.v.c.4.) ) o.q.b.5.* 2 P n P L 5 ; * u 7 x v R OX@X5X5X5X7X0XsXeX6X+X5X@XOXOXQ.n I B I P e U m B P 5 u q.{ =._ ` x.N.n.k.` [ ",
"k.c.v.4.8.[ W +.9.6.C.t w x V l v v 9 4 8 g v m Q.].5X5X5X8XqXeXaXeX7X7X7X5X'.oX!.N j I I c B z I U c w ; Z.^ E ` 4.6.4.v.x.} } ",
"o.5.q.4.4.[ W @.4.&.d.1 w v U l c V v I P v v V !.oX6X6X6X0XeXyXyXwX7X6X7X5XOXOXoXJ n f j M R H v v v e >   ( ]  .6.4.X.c.z.,.| ",
"X.>.5.4.2.@.( ' 8.%.& 3 z U v m v x v k k v c Z (.+X5X6X8XqXyXyXyXwX8X6X7X5XOX|.|.^.Q.K K Q.`.H v m V P = % :.q.q.q.6.` X.x.,.-.",
">.] { @.@.$.' { q.g.- 2 P V m J G m v M N v k K }.oX%X8XqXeXyXyXyXeX8X6X8X%XOX|.}.OX+XOX}.+X].m x x l P 5 t &.0.r.6.6.{ } 5.5.| ",
"r.` [ ( ' $.$.q.7.d.> 3 v m C !.^.H v n m l n Q.|.|.&X8XqXeXyXyXyXeX0X6X6X%X+X|.{.#X+X}.{.#X(.f m V l v 5 > ..[ :._ X.4.5.6.>.>.",
"r.[ { ' @.4.4.S.7.g.> 4 m N G OX@X^.R G M J Q.OX+X+X&X0XeXyXaXyXaXuXqX8X6X&X+X.X.X+X|.|.|.+XQ.M m U m B 2 > p.{ ! ( 9.v.X._ | <.",
"6.2.4.$.$.4.$.5.q.g.y 3 n N J {.{.#X#X}.].|.+X#X.X#X&X0XeXaXaXaXsXuXuX0X6X&X#X.X|.#X+X.X.X+XK N N Z m B 3 : O.@.[ :.v.c.` Q ` 7.",
"[ 2.4.+.{ 4.{ { >.g.+ , n Z J }.#X X{..X#X{..XoX.X.X6X9XyXyXuXaXsXeXuXqX<X8X$XXX$X#X#X|..XOXK N N Z n n 4 - ^ @.0.X.X.&.X.` >.6.",
"4.{ W [ ' [ :.{ } ) # > k C K {..X#X#X.X X#X#X.X.X.X8XwXsXiXpXfXfXpXsXuXwX8X<X,X,X,X%X X$X(.G M N Z M n ; # E *.r.4.] ] { 6.{ 4.",
"v.X.( [ ! [ [ 6._ &.d.- 9 H S }. X#X#XXX X.X#XXXXX&X0XuXfXfXfXgXgXgXfXfXiXwX0X9X<X<X$X.X$X^.N H Z N H g -   { 6.q.9.5.&.:.q.o.x.",
"F.4.( @.1.:.@.6.3.%.4.& 7 Z S (.XX$X#X.XXXXX$XXXXX<XwXpXhXhXkXkXkXkXkXkXhXfXiXeX0X<X$X X.X^.G G H H N 6 o ] 7.<.:.q.v.&. .4.5.b.",
"v.o.] 2.8.3.[ +.9. .-.g.; n D Q. XXX#X$X$XXXXXXX$X0XiXkXlXzXzXzXvXzXlXlXlXkXgXiX0X<XXX X.X[.K K K J g < f.6.&.,.4.9.8.[ { 4.&.z.",
",.5.X.2.1.2.+.1.4.] ` 8.O 4 G K  X$X$X$XXX,X,X<X8XiXgXlXcXbXvXbXbXvXvXvXvXzXkXgX0X<X,X,X$X$X{.E.U.J 8 O 7.w. . .q.8.2.1.{ X.o.l.",
",.v.c.{ ( @.[ +.3.2.! ) p.1 b J (.#X,XXX,X,X8XqXiXgXvXbXbXmXmXmXMXmXmXbXbXbXlXkXuX0X<X<X,XXX,X$X^.b < p.7.8.&.' 4.` ' ! 4.X.&.a.",
",.x.7.) ~ @.' +.2.3.! ( | % 6 T U.|.:X:X;X:X9XfXlXvXbXmXNXBXVXVXVXVXVXBXMXmXvXlXkXiXwX9XXXXX,X|.K , o ;.x.5.4.1. .Q W ! 0.&.o.l.",
",.M.c.} { y.$.@.@.#.[ +.q.g.1 s D Y.*X:X:X:X0XgXbXbXmXmXNXBXCXCXZXCXVXVXVXmXbXvXcXkXiX9X:X:X X~.6 ; [ r.v.,.} x.&.' ! [ i.5.c.a.",
"` x.l.o.5.4.>.{ =.[ ,.z.<.*.@ , G D W.>X:X:X9XfXvXbXNXVXCXAXZXZXFXAXCXCXCXVXMXbXcXhXwX2X:X*X^.0 ; / 1.q.m.l.( >.l.X.{ | 5.l.>.{ ",
"x.<.5.x.l.,. .` ;.`  .c.b.n.p s s K I.;X>X=X2XsXbXmXVXVXCXSXSXSXSXFXAXZXCXVXBXmXnXqX2X:X=XT.s > p.' $.7.v.5.{ X.l.X.` { 7.F.5.4.",
"G.5.,.v.7.4.X.` _ } X.C.F.n.Y b S D P.Y.:X>X>XqXlXNXCXCXZXDXGXFXFXGXFXAXCXZXVXmXgX2X>X*XW.L.s i h.] &.c.5...2.9.5.| 4.6.v.M.c.7.",
"b.,.>.x.{ 7.5.X._ ,.z.c.v.k.p S U.L.I.L.E.:X>X4XsXvXCXAXSXFXGXGXGXGXHXFXSXZXmXhXrX2X:XR.L.L.P.M p a.4.q.6.{ :.0.>.4.q.r.q.5.X.7.",
"k.X.,.7.` 5.q.4.4.F.b.4.4.X.a.a K L.I.I.P.W.4X>X4XhXVXSXFXGXHXHXHXHXHXGXSXVXhXrX-X;XR.P.Y.U.D S j.g.{ 9.S.0.[ { 2.:.7.x.6.X. .,.",
",.X.6.x.4.>.5.5.9.b.m.>.:.6.9.h.Y F L.I.I.I.*X3X-XrXxXCXFXGXHXJXJXHXGXGXZXnXtX3X*XP.I.L.Y.U.d H.g.*.[ 4.9.5.` [ 2.( ) X.>.5.x.5.",
",.,.x.b.x.>.>.6. ...2.` 4.q.C.v.A.a F U.P.I.T.>X3X3XtXNXSXFXGXHXHXGXGXSXNXdX3X=XT.I.I.P.S a * y.5.g.@.' %. .` >.:._ ) ) X.m.M.x.",
"| ,.5.,.c.X.| { X.~ ^ ( X.e.m.o.z.z.p A D L.T.W.3X-X4XxXZXGXFXGXGXGXFXZXxX4X=X*XI.I.D F a h.>.-.@.+.' ^ ' 1.:.X.;.4.4.) ( 7.b.5.",
"<.x.l.z.v.5.>.X.l.5.~ ] 4.{ ] q.,.:.&.h.p A S U.[.*X>XrXnXSXFXSXSXFXDXnXrX>XW.L.K S a j.b.5.` _ ( ( ' ' ( '  .&.q.&. .}  .5.7.o.",
">.x.l.l.v.m.5.) 5.C.4.] &.>.$.4.:.` &.' [ g.H.a S S P.{.9XiXjXbXcXkXeX1XE.D A Y p j.5.4.l.&.,.<.[ [ ] [ ' ( &.9.q.5...&.c.q.c.5.",
"_ -.,.,.c.F.v.( 4.9.4.( [ ] 4.[ 8.[ @.[ { 9.#.] g.f.H.K.K.T.R.[.[.[.R.K.J.H.j.g.( 0.6.0.6.<.m.k.q.q.$.6.&.X.c.b.9.c.&.a.q.q.5.5.",
"-.>.X.} o.q.4.X.4.{ ( ( { ' @.X.9.%. .' $.0.@.#.<.>.,.z.z.s.s.B.h.B.B.N.6.w.-.( 0.&. .:.w.k.z.<.6.0.{ 8.4.X.4.5.&.F.c. .&.X.$.5.",
"x.7.,.( } X.} X.u.{ ' 2.8.9.8.$.*.+.W ] X. .@.1.[ @.X.&.%.] ' u.w.<.>.M.m.v.#.#.q.' (  .7.7.5.4.>.:.4.6.5.| {  .9.F.q.X.X.$.4.6.",
",.M.7.( ` o. .x.q.{ [ 3.0.u.4.^ #.$.~ [ ` Q { 4.@.8.@.X.c.&.] *.z.>.! 6.0.6._ ! :.! 1.X.a.l.4.6.7.{ 5.c.c.4.{ { 9.v.@.2.8.4.+.8.",
"k.<.e.;.{ 4.&.b.{ $.2.+.[ #.@.^ $.*.&.8.>.( { q.7.q.] ] &.5...| m.x.| | _ X.] ] } %.8.3.4.o...l.7.} >.x.5.4.4.:.5.6.[ [ 8.$.[ [ ",
"n.>.r.w.{ X.o.a.$.8.i.' W @.9.c.X.q.C.q.8.[ @.C.5.q.4.[ +.8.c.v.m.G.9.{ W [ [ 1.4.y.9.$.X.) } l.,.} ) 5.6.{ r.2.6.8.! ! +.[ ' ! "
};
