/* XPM */
static const char *cGJ2YV9fMV8tZXJ6Ymlyb3QtY2VyaXZyaiAoMSk__67bd66b78f975[] = {
/* columns rows colors chars-per-pixel */
"64 64 256 2 ",
"   c #040101",
".  c #0C0200",
"X  c #0D0A01",
"o  c #090905",
"O  c #00000B",
"+  c #130300",
"@  c #1A0400",
"#  c #130B00",
"$  c #1C0C00",
"%  c #1D1300",
"&  c #191602",
"*  c #020210",
"=  c #230C00",
"-  c #280B00",
";  c #231400",
":  c #2A1500",
">  c #251B00",
",  c #2B1B01",
"<  c #281C0B",
"1  c #331D00",
"2  c #311B09",
"3  c #2D1D14",
"4  c #2D2201",
"5  c #2C2408",
"6  c #332301",
"7  c #3A2501",
"8  c #342A01",
"9  c #3C2B03",
"0  c #34250A",
"q  c #3A250B",
"w  c #352A0C",
"e  c #3B2C0B",
"r  c #3A3504",
"t  c #3D320B",
"y  c #2C2215",
"u  c #372816",
"i  c #3C2C13",
"p  c #3C3314",
"a  c #3C3617",
"s  c #383422",
"d  c #452704",
"f  c #422C03",
"g  c #422D0C",
"h  c #433203",
"j  c #4A3503",
"k  c #493B04",
"l  c #43330C",
"z  c #4A340C",
"x  c #463A0D",
"c  c #4B3B0D",
"v  c #533807",
"b  c #442C14",
"n  c #433413",
"m  c #4B3514",
"M  c #443B13",
"N  c #4C3B14",
"B  c #44341B",
"V  c #4B351B",
"C  c #453B1A",
"Z  c #4C3C1B",
"A  c #553817",
"S  c #533C14",
"D  c #523D1B",
"F  c #603A09",
"G  c #483A23",
"H  c #523D24",
"J  c #3C4119",
"K  c #0E7C00",
"L  c #307105",
"P  c #56450A",
"I  c #4D4214",
"U  c #4E431B",
"Y  c #4C4819",
"T  c #544313",
"R  c #554B12",
"E  c #53431C",
"W  c #59431B",
"Q  c #544A1D",
"!  c #5B4818",
"~  c #644B19",
"^  c #6A5213",
"/  c #4D4322",
"(  c #4C4627",
")  c #534423",
"_  c #5A4523",
"`  c #544B23",
"'  c #5A4C23",
"]  c #53442B",
"[  c #5B442C",
"{  c #544B2B",
"}  c #5B4C2B",
"|  c #4E512B",
" . c #595227",
".. c #4D4632",
"X. c #584B33",
"o. c #5A5435",
"O. c #634D26",
"+. c #635324",
"@. c #64542B",
"#. c #6A582A",
"$. c #70532A",
"%. c #685836",
"&. c #745D36",
"*. c #726024",
"=. c #77662C",
"-. c #676336",
";. c #6B623D",
":. c #766739",
">. c #675C46",
",. c #735E48",
"<. c #6B6546",
"1. c #776947",
"2. c #7A7249",
"3. c #767053",
"4. c #805723",
"5. c #856828",
"6. c #987728",
"7. c #886F30",
"8. c #8B7538",
"9. c #987A38",
"0. c #A57C2D",
"q. c #A77B37",
"w. c #887847",
"e. c #8B734E",
"r. c #937947",
"t. c #867853",
"y. c #827962",
"u. c #0A8901",
"i. c #158400",
"p. c #198902",
"a. c #1B8C00",
"s. c #1C9203",
"d. c #199706",
"f. c #16980B",
"g. c #248D01",
"h. c #278B05",
"j. c #38890C",
"k. c #249403",
"l. c #2A9403",
"z. c #259B03",
"x. c #2C9C04",
"c. c #27960B",
"v. c #2C9C0A",
"b. c #359705",
"n. c #339D0B",
"m. c #299A14",
"M. c #389B15",
"N. c #29A308",
"B. c #33A30B",
"V. c #3DA40C",
"C. c #35A909",
"Z. c #3CB40C",
"A. c #2BA615",
"S. c #34A413",
"D. c #3BA412",
"F. c #3CAB14",
"G. c #38A818",
"H. c #38B517",
"J. c #3BAC24",
"K. c #468A0A",
"L. c #429D0A",
"P. c #449A16",
"I. c #45A90C",
"U. c #4CB40C",
"Y. c #42A513",
"T. c #43AB14",
"R. c #47A819",
"E. c #53AA19",
"W. c #47B41A",
"Q. c #54B51C",
"!. c #4E9627",
"~. c #47A624",
"^. c #53AC29",
"/. c #4CB523",
"(. c #46B925",
"). c #56B926",
"_. c #57B034",
"`. c #6BB234",
"'. c #3CC123",
"]. c #58C42B",
"[. c #59C733",
"{. c #6ACD32",
"}. c #6CE436",
"|. c #73B648",
" X c #7BC448",
".X c #978538",
"XX c #A7853A",
"oX c #B58A35",
"OX c #C59A3A",
"+X c #CDA53C",
"@X c #988548",
"#X c #8F8953",
"$X c #968757",
"%X c #A88946",
"&X c #B38C44",
"*X c #B99848",
"=X c #A38E50",
"-X c #A89557",
";X c #B79656",
":X c #88B64F",
">X c #98B957",
",X c #B6AA59",
"<X c #9C8D67",
"1X c #A99964",
"2X c #AD9B6F",
"3X c #9ABE65",
"4X c #BAA868",
"5X c #B8A779",
"6X c #B4B170",
"7X c #C79C4B",
"8X c #D1A445",
"9X c #D2A94F",
"0X c #C8A659",
"qX c #D9B35A",
"wX c #EAB44A",
"eX c #E4BA5A",
"rX c #C6A967",
"tX c #CEAC66",
"yX c #CBB56A",
"uX c #D7B868",
"iX c #C8B778",
"pX c #D8BB74",
"aX c #E4BD67",
"sX c #E3BE72",
"dX c #89C651",
"fX c #ACCA4C",
"gX c #9BCA6E",
"hX c #AFC76E",
"jX c #CBC452",
"kX c #F3C757",
"lX c #CFCB6F",
"zX c #DBC675",
"xX c #E8C76A",
"cX c #F4CA69",
"vX c #F8D168",
"bX c #E9CA79",
"nX c #F3CC76",
"mX c #E9D378",
"MX c #F5D478",
"NX c #F5E37C",
"BX c #BBAE85",
"VX c #CCB98E",
"CX c #BCDD9F",
"ZX c #D2CF8A",
"AX c #E9CA83",
"SX c #E9D887",
"DX c #F3D785",
"FX c #EFD795",
"GX c #D8E697",
"HX c #F7E789",
"JX c #F2EA8D",
"KX c #FAE894",
"LX c #FFF596",
"PX c #F3DBB3",
"IX c #F1E8AB",
"UX c #FEF3C8",
/* pixels */
"Q./.n.k.C.R.L M.N.V.F.z.p.A.W./.Y.D.W.g.F.k.A. XZXKXnXaXeXwXwXwXkXkXvXvXNXLXLXGX Xk.J.d.i.G.h.{.F.S.).P.M.N.(.v.A.A.h.k.[.k.v.G.",
"Q.).S.i.c.g.L.B.z.s.v.v.c.S.C.N./.A.k.x.R.:XVXrX;X&XXXoX7XOXOX8X9XeXqXxXxXmXHXJXIXIXUXgXk.~.l.E.l.G.).P.~.p.p.l.M.m.f.(.S.s.c.m.",
"[.N.H.u.p.F.C.T.M.u.a.D.M.n.C.N.d.f.P.hX,XXX6.6.6.&X&X;X;X4X-X-X-X4XrXiXbXbXmXMXNXNXHXLXIXgXV.b.M.k.G.E.Y.n.T.).R.(.u.B.z.J.h.h.",
"].k.H.u.c.[.x.P.b.f.W.h.W.G.V.z.(.:X=X.X6.6.9.%X%X5.^ j 9 , ; $ ; , 6 6 j ^ 6.7XjXNXNXJXLXFXZX XD.v.c.Q.I.T.M.R.p.z.A.A.a.G.n.b.",
"M.R.Q.D.n.v.g.E.l.s.b.{.W.p.V.`.;XXX6.6.XX9.+.7 ; ; 6 8 + . + = +.#.#.Q x 8 ; $ 9 +.1XAXKXLXHXSXhX[.N.g.W.x.b.Q.C.z.S.c.s.i.F.b.",
"(.x./.n.v.v.W.Q.L.^.b.}.B.M.4X&XXXoXXX5.v 1 6 C ..3.y.t.% ; + + O.#.@.%.1.1.1.X.( , $ h 7.mXLXHXFXlX:Xh./.n.i.W.c.i.D.m.i.N.(.G.",
"d.v.l.G.s.C.B.Y.).i.T.Q.`.,X%XXX&X7.v - 1 W @.} ] u 3 # . ; ; : $ @ $ ; ; , p G o.t.Z , $ 9 9.FXLXKXZXhXK.b.s.T.H.z.R.G.F.H.A.N.",
"u.(.l.(.F.T.B.b.Y./.W.:X,X*X*X%XP @ + H 1.D : ; = q G y G <.2.2.] q :.t.1.X.@ $ $ r @.1.i : ; k ,XHXLXzXhXR.a.W.N.z.n.T.F.G.H.z.",
"s.S.T.C.}.U.b.~.k.a.:X0X0X0X=.4 X   X > 0 @ = v r.$X1.1 = u w 0 % # e ' t.,.B y.@XP ; 7 ] %.{ , > 7.HXLXSX>X~.M.Y.x.f.U.F.l.R.Y.",
"I.n.m.d.B.b.g./.x.>XuXxXrX*.; > s o # X ) e.W z v 7 = : , : 5 < 0 5 w : ; = $ _ -XZX$X; # n %.@.r # P SXLXSX3XM.W.B.s.M.`.T.C.b.",
"F.k.i.v.n.Y.b.R.:XbXbXtX$.@ 6 w y   5 <XVXt.6 @ 1 b g g q 6 n B i i B B Z I t r > M I N :.f 1 E  .> + v zXLXHX>X/.T.T.p.Y.F.N.S.",
"N.W./.F.M.h.D.>XuXnXuX~ @ u ) , # p { #Xh , l ) V B l 9 z h 6 e n i i p n M Y ` ` w : = $X5X$.- : $ G = v zXLXmXgXL.b.Q.b.T.a.h.",
"(.V.Q.W.g.b.:XuXnXuX~ @ G B $ , 6X2X% % M E Q c S c S j f h h 9 6 6 q e p l M / / } ) e - @.5X_ . 6 %.H + v zXLXlX:XY.R.Y.T.A.c.",
"k.Y.E.T.g.P.zXxXxX5.$ G .., 0 VXZXr 8 ` { ' Q T T S c T ! 8.-X^ j E @.' ` U n Z Z } Z ) E , = g ' 6 : %.H @ ^ SXLXlX|.u.).F.d.v.",
"T.V.V.D.M.hXuXzX.X$ e ] , . 2.2Xw t  .`  .Y I  .Q S S O.$.r.;X=.P T T W @.#.' Z U ) ) E x N w $ 8.=X1 , [ l ; 7.JXJXgX~.`.E.s.F.",
"S.v.k.c.`.uXpX4X4 % ) 6 ; 2.8 # a o. . .Q Q E U N ' $.&.8.r.9.5.~ +.#.#.' Q +.E Z n Z { U U C 7 , 8.<X: 6 } 6 > ,XLXSXhXQ.E.T.'.",
"B.(.p.^.qXeXpXT & p n ; -X6X& t o.|  . .N l D E c w.1.[ b D ! ! l l O.e.! +. .Q N N w B ) Z D c 7 , t.e @ n #.% P SXLXzXgXD.v.S.",
").Y.a.hX9XeXr.; p a # 1.ZXR r o.| | ` M 7 f z W P w., . + 0 #.f . . ; 1.I '  .} N l n q i Z N S D 9 . Z n - %.4 o @XLXHXhXm.d.!.",
"c.R.`.tXqXtXf . # % $ 2X;.4 Q Q ` ` C q 9 z z Q R #Xw . . , } 0     > 1.e { ` U N N 7 w w w E c N Z , I 5Xf y + X r mXLXFXGXK n.",
"a.b.hX0XtX9.$ 0 > . Z 0 % ` ` ` ` / n n &.&.1.$X#X#X&   o < { 5     & y.G > B ) ) m g 0 0 p z N N N Z % @X1X$ 3 G $ .XKXHXIXi.J.",
"Q.R.qX8X0Xj , %.6 T 5X; p o.I Q ) U l N &.: @ $ # X o     X   o       & ..<.G % n Z Z q 0 i e Z N N Z l r 1X3 3 ] > P mXHXSXCXu.",
"p.:X8X+X%X, I Q ; -Xw.4 G { ' E } _ N W :.+ . .                           & ..G ; g n n i 0 n N N z ) _ > 6 V . ) I % ,XHXSXIXK ",
"f.ZXOX8X*.1 o.> l BXt p o.C E ' ' Q W ' :.+ .     O * O             .   o     ..0 $ 6 n p n 7 c S z Z ) B $ w.9 l :.> *.HXHXIX].",
"{.zX8X9Xd u >.# z $.; / ) ) } } @.Q ' ' :.; # X     O O   o X X X X X .       X >.$ + n C e l z E m N ) ] ; 1X8.$ 2.C 4 zXDXIXV.",
"`.yXqX*X- o.X.$ Z $ 6 Z E S } `  . .) C ;.%.;.3.|       & ..n N } %.@.{ X       s B . $ ( G n g ) C N E ] : #.rX: %.<.# 0XDXFXD.",
">XuXaX6.- ,.n 9 1X> Z ) T S Z  .Q ` 5 w 4 % % I -.    o & { T h c c O.1.(       < o.. $ w H V m H E x l : $ f 1X8 C 2.4 7.mXKXm.",
"lXsXuX^ 7 1.1 =.$X4 x S v S ' M / 5 a % Z U I -.-.    . ; :.@X8.v f m g >.o     # { $ &.{ ) S l D ` x 8 l N c &., > <.4 ^ bXmXdX",
"uXsXuXk $ 7 $ w.:.> N S v S I / w p u G / ` I 1.;.o     > +.*.@X#.1 m 0 >.X   X % o.# 2X%.n ' z N Q M t c f S O.i & 3.M j pXxXfX",
"xXxXpX7 , q = %.n 6 D A A D t a & / ..B g 6 n o.<.o     >  .c :.&.l 6 X...  o   % @.+ t.) 4 } Z N I p a j j S D / X %.U 6 yXxXjX",
"vXxXiX, _ [ + m # i V A A m n 4 / C C %.$Xw.' %.>.      # { C { ] / X.G       . n %.w.$.4 ; ) Z N q a a =.=Xr.@./ o a / , rXeXkX",
"kXxX4X; #.+., #Xi q D A m e w U Y ' 9 +.8.5.~ #.<.        X . X o   X     o   . %.7 &.O.t 4 B ) Z i ( a =.8.8.O.o.X a ` $ ;XaXeX",
"kXMX4X, @.! 6 1Xn q A S 7 ; C ) I z h +.@X.XP #.<.          .                 . V O.~ #.8 M C w 6 H G M =.=X@X! } X X + ; =X9XeX",
"vXMX4X> O.W 6 1Xn 0 m W 7 , H { E l e #.r.8.P *.;.                  .           . C :.-X#X` ) q 0 H G  .r.%X@X+.@.$ ; . $ %X9XwX",
"vXnXyX> n m ; w.6 i D S m w 4 / ` ' M %.@X@X~ @.;.        # X + # # X # # .   o . X -.8 $ : n ) l n / t.+.^ P #.} . 5 ; $ %X8XwX",
"xXMXzX: 7 } + 9 # e N N Z n n 4 ` ` l %.$Xw.+.%.<.o     & o./ / ' +.@.%.<.X.X       B ` + ; [ H l 9 ` 1.! v v #.] # 2.:.1 %X8XwX",
"lXxXzXf f %.$ :.c , D m N Z n t > U } n 9 4 t %.<.      % %.Z T w.=.T 6 # ( ..      # <.. u ] Z T k x :.E c S @.] + -.! 1 &XOXwX",
"lXxXbXk 6 @.$ t.:., E m N N C ) e 4 2 G B U M ;.<.      % @. .:.w.~ 1 b 5 X o.#     # <.$ H D j z T I :.#.#.~ &.i . -.T d ;XOX+X",
"hXmXDX^ 6 &.: %.$X1 N Z N N } Z { 6 u $ Z Z  .-.<.      < %.#.@X#.f g C , X <.    o X >., H S j ! c k x  .&.~ 8., u ;.7 F XXoXjX",
"dXSXbXXX: H 6 g 1X- n E c T ) } E Z i 0 4 > & I -.      & G 8 h 6 N I ' t { s       & ;.t _ f S _ S x x % + f 4Xw a { : 4.&X*XfX",
"dXSXDX;X: ) D @ S - 6 U E T ) } Q ' / B 2.;.<.3.|       & ..n N ) o. .:.;.a o     . p -.x N l _ A g x M / ; ^ iX4 { o.: 7.q.;X:X",
"M.ZXbXsXd g } @ l #.% ' T x ' }  .' E ' ;.$ . X     O     . . . .   . X   . . . . + 1.' k r E E m m l ` / > 1X@X% ;.t 7 q.q.rX^.",
"].gXAXbX*.- O.q l VXl q ' ` E Q ' ' E ' 1.. .     O * O         O O       . . . . X.&.k k h ' E z N Z C p # e.g q 3.: P 0.q.VXW.",
").dXSXbX;X= m n ; <X$X, ) ) Y U ` E z N ;.+ + .     O O O   .           . . . # } e.N 9 r ' ' N z A N C > t q + 3 H = 7.6.&XPX).",
"^.j.lXbXAXj 1 } 6 U BX% n ' Y  .` E x x &.: ; # % X o     o . o       & # < ) :.:.S z 9 E ) ` N m m Z 8 r 5XB + @ + j XX6.rXgXL.",
"D.).|.SXDX9.- @./ # B e $ Q ` ` Y I l h &.:.t.$X$X$X5   . < X.y     & 3.>.1.;.#.D m 9 m _ ) H G V H n > #X<X; . + @ 5.9.9.6XR.T.",
"x.V.F.hXbXuXf 6 o.& # <X:.8  .` ` ` Z 8 7 h j P P @Xw . . , } 6 .   > 1.C U Q E ) V g g _ D H G H Z % I 5Xl 4 ] + A q.6.1X`.j.M.",
"F.{.N._.nXMX9.% & o $ <.ZXk w | { { ` C 7 g m W k w., . + 0 +.7 . . 4 :.I Q ' Q n w n S z W m A V : $ M i % ) l : 7.q.XX{.k._.E.",
"A.).{.u.lXxXbXc   X # $ 1XiX& a o.o.{  .N g Z E k w.1._ N O.P ! m Z Q w.' ! ' T n e g l E S N z 7 6 w.z . p ) $ P %XXX#XZ.C.B.C.",
"v.b.W.x._.AXDX;X: + b b ; :.r & J |  . . .` Z U c ! #.=.7.@X@X*.~ ~ #.#.+.#.+.z f b H H D C Z 6 1 @Xr.$ i w % 6 XXXX%X~.l.{.c.S.",
"b.Y.H.T.E.:XbXAX8.= m ,.6 . 2.BXr r `  . .` ` I Q c c ! $.8.@X*.P ! T #.#.W T z N _ _ ) ) n : # 8.r.1 ; G w ; 8.*XXX`.M.b.E.g.H.",
"U.I.s.H.H.R.lXnXbX^ @ G X.w 4 5XZXR , ) X.{ ) } ) m m S ! 7.r.+.t }  .' W N N N I Q I U M : : h z 7 $ ] B @ 5.*X*X`.F.B.b.E.C.N.",
"Q.T.l.R.z.M.`.uXMXuXW + ] / , 6 1X1X, ; q H / n Z m A S f 9 g 7 0 w l e g n n E ` Y M 8 ; @.5XW + $ i i = $.0X7X-Xk.z.R.l.z.B.D.",
"/.T.h.E.g./.b.|.lXMXyXv = b _ 6 - 1 @.$XT ; w ) C a e q f f d d d q b b n E { { ] 0 ; $ $XBX_ - 4 ] a - ~ uX0X,XH.H.Z.E.V.s.i.n.",
"n.x.T.l.b.B.V.Y.`.yXDXyXA @ z _ ] : : $XiXw., # : w t 9 g e 1 b g V b B Z Z n , : G X.H %.e : B ) 6 - ~ pXaXpX^.H.d.p.B.F.W.V.Q.",
"F.a.W.W.V.N.x.M.c._.uXbXpX5.= 7 ,.y X & C t.Q h T 7 = $ ; : > u 2 2 2 , > . $ +.2XZXr.= $ w u u ; = 5.bXnXyXM.v.s.M.c.u.B.E.Q.U.",
"G.R.R.I.n.F.x.S.c.h.~.,XbXpX@X, $ . # . > . $ c r.$Xw.g ; u p 5 % # B { 3.1.t w.w.j ; 6 Z { 0 X 6 %XbXnXuX`.N.N.G.^.R.s.l.E.).b.",
"/.).Q.E.)./.D.K W.M.p.p.:XmXAXrXP % . , H H 7 ; $ q G < u ,.2.w./ w ;.t.1.G + # ; # / } ` , = ~ yXzXbX6XM.c.l.Y.I.n.!.j.D.N.B.b.",
"k.R.L.R.R.b.T.i.).].R.v.B.R.zXAXbX@Xv - : A @.%.X.a < $ $ = ; ; % . + # ; 0 p %.>.% w 6 = j XXuXzXzX>XL c.s.g.Q.I.T.L K./.H.B.).",
"x.x.M.b.D.}.I.m.D.W.v.c.A.N.^.>XnXnXsX%XP ; = : H %.%.%.@.' D ; 6 @.%.} @.%.%.} b @ - v 9.qXeXaXpXgXm.`.a.A./.{.a.P.B.Y./.x.].D.",
"A.l.F.a.W./.R.g.n.c.c.i.c.h.M.v.`.zXbXDXAXrX8.v - : - 1 9 j m ; + g A m h 1 - - d $.%XtXuXqX9XuX|.R.u.(.C.d.(.M.B.E.E.m.~.k.v.b.",
"N.V.z.c.k.g.D.M.).m.i.[.(.x.D.L ~.R.!.lXbXbXbXbXtXXX*.P f 6 1 : : , 1 7 v ^ 6.oX8X+X8X9X7XpXZX~.B.z.S.k.F.k.G.M.D.].D.G.Y.x.a.R.",
"Z.I.W.a.c.l.g.W.b.n.S.s.B.W.l.!.!.k.u.^.|.bXAXbXMXbXDXAXpXiXyXrX4XrXtXtXtXaX9X8X+X8X9XbXPXdXl.h.F.C.l.Y.W.k.i.c.S.b.F.a.{.x.a.n.",
"F.b.].(.a.G.B./.v.b.c.N.d.(.B.j.~.B.k.R.v.|.GXFXSXbXbXDXDXMXnXnXMXxXaXaXaXqXtXpXAXFXPX|.[.i.l.R.Q.N.g.).W.T.).k.(.V.s.'.l.v.d.S.",
"[.b.W.W.a.G.x.[.K ).(.d.m.G.A.H.C.x.).b.F.s.R.).hXKXKXDXMXvXcXcXcXvXcXcXnXDXKXGX Xg.B.D.l.G.M.L.h.l.c.M.T.x.H.H.a.R.K u.S.k.f.m."
};
