/* XPM */
static const char *cWJiZTQ__67bd65810a404[] = {
/* columns rows colors chars-per-pixel */
"64 64 243 2 ",
"   c #441600",
".  c #5B2A06",
"X  c #592A15",
"o  c #602D0B",
"O  c #65340C",
"+  c #632E13",
"@  c #653312",
"#  c #6A3414",
"$  c #6C3C14",
"%  c #68381B",
"&  c #6D3B1B",
"*  c #723C1A",
"=  c #683822",
"-  c #753D25",
";  c #0D7E00",
":  c #127D00",
">  c #35730B",
",  c #475C12",
"<  c #70430E",
"1  c #6E4417",
"2  c #734315",
"3  c #73431B",
"4  c #7B4B1D",
"5  c #496A15",
"6  c #6F4225",
"7  c #734323",
"8  c #794327",
"9  c #7B4B24",
"0  c #7D4B2B",
"q  c #7B5026",
"w  c #7B4B32",
"e  c #556522",
"r  c #824A28",
"t  c #814C2C",
"y  c #84522D",
"u  c #89592B",
"i  c #925B2F",
"p  c #864E30",
"a  c #875636",
"s  c #8C5B33",
"d  c #925A35",
"f  c #925639",
"g  c #945E3A",
"h  c #8C6739",
"j  c #8C633D",
"k  c #956234",
"l  c #93643A",
"z  c #98663B",
"x  c #946B3D",
"c  c #93753F",
"v  c #8C6241",
"b  c #946743",
"n  c #9B6B43",
"m  c #9B6C4C",
"M  c #8F7D4F",
"N  c #9C784B",
"B  c #9B7A55",
"V  c #A4754B",
"C  c #A37B53",
"Z  c #A87B57",
"A  c #AC7D54",
"S  c #B27E54",
"D  c #0C8100",
"F  c #148500",
"G  c #1B8600",
"H  c #158A00",
"J  c #1C8C01",
"K  c #1D9303",
"L  c #1C9807",
"P  c #238702",
"I  c #228D01",
"U  c #2A8D01",
"Y  c #358A0C",
"T  c #249303",
"R  c #2B9504",
"E  c #259905",
"W  c #2B9906",
"Q  c #249509",
"!  c #2C950A",
"~  c #259A0B",
"^  c #2C9C0B",
"/  c #339506",
"(  c #319A06",
")  c #389906",
"_  c #32950B",
"`  c #339C0C",
"'  c #399E0E",
"]  c #3A8C13",
"[  c #269B10",
"{  c #2C9D11",
"}  c #3A9615",
"|  c #349D12",
" . c #3A9E12",
".. c #26A20E",
"X. c #2EA10D",
"o. c #30A007",
"O. c #34A20D",
"+. c #3AA20E",
"@. c #2DA313",
"#. c #2EA81A",
"$. c #34A313",
"%. c #3BA414",
"&. c #35A915",
"*. c #3CA916",
"=. c #34A418",
"-. c #3CA51A",
";. c #35AA1A",
":. c #3DAB1B",
">. c #3DB11C",
",. c #36AA20",
"<. c #3DAC21",
"1. c #3EB624",
"2. c #478A17",
"3. c #47961B",
"4. c #52961D",
"5. c #42A415",
"6. c #4BA617",
"7. c #42A915",
"8. c #42A51A",
"9. c #43AC1C",
"0. c #4AAD1D",
"q. c #43B21D",
"w. c #4AB11E",
"e. c #558B28",
"r. c #4A9823",
"t. c #569928",
"y. c #5D9A34",
"u. c #6C8B33",
"i. c #669B35",
"p. c #75923D",
"a. c #4BA525",
"s. c #43AE21",
"d. c #4BAC22",
"f. c #54A929",
"g. c #44B323",
"h. c #4BB423",
"j. c #4CB926",
"k. c #49B828",
"l. c #4CBA2A",
"z. c #52BA25",
"x. c #55B729",
"c. c #52BC2B",
"v. c #5AB635",
"b. c #68A63A",
"n. c #69B636",
"m. c #66B43A",
"M. c #54C12D",
"N. c #58C635",
"B. c #68CF3C",
"V. c #7F8F47",
"C. c #7A9644",
"Z. c #72AD44",
"A. c #78A943",
"S. c #71B545",
"D. c #79B348",
"F. c #908D49",
"G. c #978755",
"H. c #9A9A5B",
"J. c #A58354",
"K. c #AA8659",
"L. c #B78656",
"P. c #B6835C",
"I. c #B38C5D",
"U. c #BC8B5C",
"Y. c #A89657",
"T. c #B79357",
"R. c #BC915D",
"E. c #93A84C",
"W. c #92AA52",
"Q. c #9BA956",
"!. c #88B856",
"~. c #A4A55B",
"^. c #B58C64",
"/. c #BC8D63",
"(. c #B88A68",
"). c #A99A62",
"_. c #BC9264",
"`. c #B89865",
"'. c #BC936B",
"]. c #BE9472",
"[. c #94BE64",
"{. c #A8AA62",
"}. c #BCA466",
"|. c #B7B266",
" X c #C18D5D",
".X c #C3935D",
"XX c #C69A5A",
"oX c #C28D64",
"OX c #C48C69",
"+X c #C49363",
"@X c #CA9465",
"#X c #C49A64",
"$X c #CA9C64",
"%X c #C4946A",
"&X c #C9966B",
"*X c #C59B6B",
"=X c #CB9C6B",
"-X c #D19F62",
";X c #D19E6D",
":X c #C28F70",
">X c #C79673",
",X c #CB9473",
"<X c #C59D72",
"1X c #CC9B72",
"2X c #D19D73",
"3X c #D29B78",
"4X c #C3A464",
"5X c #CDA164",
"6X c #C5A46C",
"7X c #CDA16C",
"8X c #D3A364",
"9X c #D2A36C",
"0X c #D6A96D",
"qX c #D8A86C",
"wX c #CDA372",
"eX c #CBA877",
"rX c #CEAC7A",
"tX c #D3A373",
"yX c #D8A576",
"uX c #D5AB74",
"iX c #DAAC73",
"pX c #D3A47A",
"aX c #D9A47B",
"sX c #D3AB7B",
"dX c #D9AC7C",
"fX c #CAB475",
"gX c #CCB279",
"hX c #D7B37C",
"jX c #8FC35A",
"kX c #96C164",
"lX c #AAC672",
"zX c #B7C77C",
"xX c #D5AA82",
"cX c #DBAC85",
"vX c #D2B085",
"bX c #DDB582",
"nX c #D9B486",
"mX c #E2B989",
"MX c #E6B794",
"NX c #E6B9A6",
"BX c #BCC982",
"VX c #C6D287",
"CX c #FBCEB5",
/* pixels */
"z.h.R ` 7. .: -.-.$.-.T H ;.@.1.<.Q k.&.$.^ @.g.@.^ W %.` ` -.s.-.k.^ *.O.o.q.q.>.~ ^ @.J T ^ c.s.$.-.I R R  .` K ~ { { ,.H Q | ",
"7.9.%.( ` R | 9.| G $.! K E &.@.@.~ ^ ^ :.O.E E { $.` T 7.%.| ^ $.9.` w.O.+.q.*.$.&.@.E $.s.^ g.$.$.9.` R W _ ! { K H ,.{ Q Q J ",
"j.` 7.W I -.s.-. .G T 9.$.$.&.K L ~ T ` 9.R J =.Q 9.9.( ` 9.^ E ` ` $.*.W +.*.T T H ~ E =.! %.:.$.I W h.7.` %.s.:.;.; Q ~ { F J ",
"g.W $.I R 9.! $.` R g.g.%.$.$.T ;.D T W *.%.^ $.:.` ` +.R 9.^ Q 9.^ *.( O.W ` q.^ H K @.:.F w.$.^ %.W h.z.%.%.7.&.E ^ :.K { :.{ ",
"&.:.g.W 9.^ ` h.W U ` c.7.W *.$.^ Q :.I $.^ K $.:.T ` I P %.9.! %.$.%.I z.h.( c.T :.^ :.:.J %.h.I g.' ( g.` R z.k.E $.E K @.:.$.",
"@.@.>.X.T R *.h.9.' ' B.` P ' ` :.Q :.` R R :.@.~ K :.+.9.h.-.G T ^ %.I w.B.9.*.%.M.:.$.:.^ ` 9.9.*.9.` *.R G h.T J >.^ H X.:.^ ",
"$.E ^ $.T :.9.7.9.W h.5.' 0.g._ s.! W 7.R ` r.b.e.Z.i.D.A.b.e.e.Z.t.b.t.y.!.b.b.i.S.jXZ.D.Z.e.t.f.` 9.' *.*.` 9.O.X.>.O.T $.:.W ",
"E >.E $.k.9.%.+.' 7.%.%.` ' 9.m.S.v.a.S.zXm.BXzXlX!.!.jX!.!.!.[.lXlXzXlXBXBXzXBXBXzXzXzXVXVXVXVX!.8.` P  .$.` 9.*.%.*.>.:.W O.O.",
"E :.&.:.N.*.*.+.W 9.7.%.7.*.f.VXfXfXnXgXnXnXhXhXgXgXgXfXgXgXvXgXgXgXgXgXgXrXvXrXrXhXhXeXhXrX6XfXA.} _ ` 9.-.I %.%.T T q.&.I :.%.",
"9.O.^ R ` 9.*.%.( 0.7.W 9.R 8.VXgXhX7X#X%X%X%X*X=X=X#XR.%X*X'.%X'._.+X_.%X%X%XoX+X+X+X+X%X=XyXeXH.3.` ! -.s.| T *.*.T T :.:.c.$.",
"9.` G R ` ` ` +.+.+.%.^ *.%.:.zXnXpX9 @ + # # # # # $ @ @ & + . @ O # o + + + + # # O @ . b cXnXH.t.` `  .J F T 9.g.w.` *.:.$.| ",
"` $.g.:.%.%.` *.( %.7.$.j.g.&.lXrXxX& % - - - - - * 8 7 # - - - & & 0 * 8 - - = & * & & + m MXvX).3.I I -.Q D F s.*.h.h.*.*.I ! ",
"7.` g.7. .%.9.` I 9.%.l.` $.$.lXsXaX# & f a f g f f f f p f p t a p a y f f v f y s y a 0 m MXvXG.Y ^ { =.{ Q $.:.7.+.*.%.*.` R ",
"O.*.7.g.` R %. .! %.%.$.| R ^ kXrXaX3 y OX,X,X,X,X3XOXoX,X3X,X3X3XpX1X1X,X:X>X:X%X%X%X<X^.K.mXvX).} &.=.^ I H k.*.7.o.T +.+.` ^ ",
"O.7.w.%. .h._ -. .| _ !  .:.J D.fXwX1 4 /.pX2X1X&XyXyXaXtX&X2X&X&XtX#XyXtX1X3X1X7X#X7X*X^.K.bXeXG.d.=.^ $.s.~ ;.*.R O.R w.9.W  .",
"+.W W W R  ._ %. .: ` 9.G T W m.fXwX< q _.wXx 2 4 2 4 r 1 u pXyXyXU.4 4 2 3 9 3 1 x tXwXI.J.mXgXH.d.W ^ ! $.E $.$.R *.w.z.9.%.%.",
"7.7.I :.R %.7.s.*.` ` s.J J :.f.|.7X3 9 /.cXl @ $ 2 $ $ O 9 bX7XtX+X. 3 2 * 3 $ % Z pXtXI.J.mXrXF.0.*.` I G -.-.R R *.h.9.%.! | ",
"7.9.^ *.R %.:.+.9.*.` -.$.^ ^ _ |.7X3 t oXaXg r oX/././.C l dX=X9X X$ A +XU. X/.a (.2X&XI.J.mXgXC.I h.%.7.*. .-.-.%.R ` 9.| J | ",
"R ' g.9.%.` *.W R %._  .R ! I P |.7X3 y %XyXg g aXyXaXcX%Xn dXtXtXU.$ /.dXtX9XsXb (.1X=XI.J.mXrXW.` q.R ` %.I s. .z.%.T :.:.I ,.",
"` ` 7.g.G ` W R %.` ` -.I Q s.d.{.wX7 0 %XaXz l tXtXyXpX/.x dX7XiX.X$ U.tX9X9XyXj (.2X=XI.J.mXrXC.8.^ O.&.:.$.! ! ` :.X.$.k.I  .",
"h.O.&.&.J g.:.W *.*.*.*.l.Q :.v.Q.eX7 0 %XaXl k tXuXdXpX%Xn dX$X9X+X2 U.tXqXqXiXb '.tX$XK.J.mXrXu.9.^ H $.=.k.! $.J O.^ T :.J F ",
"H $.N.T >.:.*.N.9.` :.` T H $.<.{.wX& 0 &XyXk k 9X9XtXpX*Xn dX=X9X.X$ _.9X9X8X0Xb '.tX#XK.K.mXrXu.Q *.X.H ^ <.J :.:.R T W &.Q J ",
"E F :.E W *.$.q.+.%.:.^ H ;.E -.{.wX& 0 %XtXk z qX0XtXwX%Xx dX=X9X.X2 +X9X0X8XiXh _.9X=X^.K.mXeXi.G W 9.` $.T =.=.<.T %.*.%.$.k.",
"l.H ^ W &.q.T +.7.` ` I ^ N.E a.~.<X7 y %XtXk k 9X0XuX=X%Xx dX=X$X+X2 R.5X0X8X9Xx '.tX7XI.J.nXvXi.J =.q.9.| ~ ,.@.E ` h.( +.;.@.",
"%.` T R c.*.9.' 5.+.5.W 8.s.! a.{.1X7 0 %XtXk k 8X0X9XpX_.x hX*X=X+X3 /.9X9X8X9Xx _.tX=X^.J.nXrXi._ j.9.! -.@.@.#.H T 9.+.` :.~ ",
"8.d.` 9.h.%.x.9.x.0.5.0.h.8.s.3.{.wX7 0 %X9Xk k 9X0XtXpX_.x dX#X=X+X4 +XtX0XqXiXb '.tX=XI.K.mXsXC.| $.%.g.-.Q L ,.H W 7.+.%.K L ",
" .9.9.9.' +.5.5.' 0./ %.` G $.f.~.*X7 0 %XtXz k 9X9X7XpX'.n bX7X@XoX3 /.=X5X8X9Xj '.tX=XI.K.mXrXC.-.W :.$.{ Q ~ L @.T R *.+.$.=.",
"` 9.%.9.( I ( %.z.h.W -.9.^ $.m.Q.*X3 0 %XtXz k 9X9X=XwX_.l sX#X+XU.3 /.tX9XqXiXj '.tX=X^.J.nXeXp.Y R ^ | ^ { Q $.T q.( 7.c.9.$.",
"` $.$.^ I G +.` h.$.T %.^ E K S.Q.#X3 0 %X;Xl s tX9XwXpX'.x dX=X.XU.3 /.tX9X8X9Xj (.2X=XI.J.bXeXp.3.F I R s.T H ^ $.M.z.7.+.%.^ ",
"$.R 9.O.T ^ h.*.%.&.T T ^ $.~ m.E.`.3 y &XyXz s =X9X1XeX/.l dX=X$XU.2 /.tX9X8X9Xb (.;X=XI.J.bXrXC.2.%.( W %.^ { E $.*.+.7.7.R W ",
" .` ` 9.*.I %.%.` g.$.T ^ ^ @.f.E.`.3 y &XaXn s yXdXpXpX/.x hX=X=X+X3 /.yXuXqXdXh (.;X=XI.J.bXeXp.] h.c./ 7.=.;.E W 0.6.6.7.^ T ",
" .h.g.:.%.W I ` l.%.:.:.:.T @.r.Q.#X1 y #XtXl y U._._.'.Z j sX=X9X+X$ A U.U.L.L.a ^.9X$XI.J.bX6XC.] +.6.3.d.=.E E E 9.w.v.) W ^ ",
"5.*.7.%.;.~ K ^ 9.` 7.c.*.T @.] E.T.1 q *XwXN s b m v m m m pX=X7X_.9 v b m m v v C =X9XK.N bX6Xp.Y ' / 3.6.I ; $.O.:.R w.5.( I ",
"' *.%.=.E ~ H E $. .` 9.*.T :.v.E.#X1 a I.n <XxXxXnXcXxXMXxX=X#X.X+X<XxXnXcXxXcXnXeX$X.XK.J.bXeXC.Y *.x.f./ I W J $.:.^ 7.0.7.W ",
"' ` g.^ $.:.D ^ =.$.$.` 9.$.W v.E.<X% w ].CXv ^.eXsXwX#XtXyXXX8X0X$XiX7X7X.X.X5X6X#XXXXXT.J.dXwXC.] %.x.6.5.%.>.k.g.X.W R 7.O.O.",
"$.J %.! $.$.Q T g.=.q.&.g.q.R n.W.<X= X NXCX+ b pXtX7X7X$X$XXXXXXXXX$X$X5XXXXXXX$X4X8X8XI.C bXeXV.r.9.8.%.U +.:.k.$.:.T R 9.+.o.",
":.T T J ^ | | :.g.W W $.$.%.9.e.Q.'.w X X 6   v xX7X$X9X=X=X9X$XXX9X;X=X$X$X-X$X7X#X-XiX'.K.cX<XV.Y $.9.c.q.W E E F 9.^ 9.&.%.O.",
"k.E W $.J -.%.l.$.&.q.$.T R :.b.~.wX& a w   & Z 1X#X7X#X%XU.R..X.X@X&X+X&X@X X@X'._.9XiX^.B cXeXV.r.g.%.:.:.^ $.E H %.g.^ T W :.",
"@.;.^ =.^ $. .:.*.:.q.T T $.{ Z.~.%X3 t /.V 9 $ $ $ 3 $ 7 y +X=X=XP.3 * 7 * # & % m =XaX^.N pX6Xp.] :.T M.$.^ O.T $.9.j.J H T q.",
"^ ^ g.Q =.$.R W ` %.w.` T ^ <.Z.}.%X$ 9 _.=Xu o y 0 7 0 7 p mX%X2XoX. 0 t t r w = Z 2X+XK.C uX6XF.4.W J &.&.T ^ 1.T  . .$.W ^ *.",
"$.W H E ~ ^ W W W I ` ` G :.-.Z.}.%X& t /.=Xu y 1X>X%X>X^.b dX#X=XU.$ /.1X&X%X>Xa (.2X#XK.J.uX4XF.3.%.` K E : +.k.$.I _ W g.I +.",
"g.` F @.L H ;.:.T %.` I I $.<.Z.}.%X& t /.1Xs u pX2X2XpX'.n hX$X=XU.2 +XtXtXtXtXj ^.7X$XK.J.uX4XG._ s.T T H ` $.g.=.h.W $.%.` w.",
"h.:.T ;.@.~ ;.~ =.:.W d.-.T | D.}.%X& t (.1Xg s =X=X=XtX/.x dX#X$XU.< R.5X5X5X7Xh ^.=X#XK.J.sX6XG. .-.T E ^ 9.%.T -.h. .R *.*.z.",
"9.` J $.;.;.Q @.:.T %.-.:.W $.b.}.%X& 0 (.,Xg s =X$X$X9X/.x dX=X=XU.< T.5X5X5X5Xh _.$X+XK.C sX].G.2.T O.q.&.` *.` s.$.^ Q ` ` %.",
"+.%.%.=.E @.H ;.;.H ^ | $.:.-.D.4X+X$ 0 (.,Xg u tX=X9XtX/.l sX#X#XU.< U.5X5X8X9Xh _.=X%XK.B xX].G.> :.k.&.` T ` s.:.^ ^ ^ %. .0.",
"' 7.$.^ J <.[ Q =.;.E ^ T :.^ i.}.+X$ 0 P.&Xk i =X$X5XtX/.l pX_.%XU.1 U.$X$X5X7Xh '.&X%XK.B xX<XG.5 :.^ :.j.^ G :.T E K $.` U 5.",
"+.w.*.^ G Q Q [ ;.@.H K ^ W | jX}./.& 0 P.@Xk u $X$X=XtX/.x uXXX$XR.2 U.=X=X;X1Xj '.=X%XJ.N uX#XM e X.J g.%.$.$.` F L K k.`  .6.",
"' z.9.I ` s.$.{ ~ @.E T :.j.-.b.`./.& r S @Xk u $X=X=X=XI.x uXXX#XU.2 U.#X$X=X1Xj '.&X%XA N uX#XG.e ^ l.9.W $.q.$.W D ..g.%.%.5.",
"R %.7.( 5.*.:.E E ^ *.x.U %.$.D.`.@X# r L.@Xi i =X$X=X#X_.x uXXX$XL.2 U.+X=X=X#Xj ].*X%XC N dX'.B , E :.z.9.G +.5.9.T ^ $.w.W ` ",
"%.%.+.w.9.W W T $.T R 0.x.h.^ Z.T.+X- r P.@Xd s ;X#X=X=XI.x uX+X%XL.2 U.#X#X#X=Xj (._._.Z C dX*XB , ^ $.j.` ` ^ %.( W ` +.h.$.` ",
"M.%.( 9.7.` %.T ^ I ' 5.h.j. .Z.T./.7 8 P.&Xg s +X@X&X1XP.n yX X+XS 2 U.=X$X.X#Xl %X%XU.V V yX#XN , $.g.:.I &.g.*.W &.$.7.c.:.7.",
"h.%.` q.W %.w.` J %.w.7.%.:._ A.}.I.6 w P.%Xy y =XtX%X&XoXn aX@X+XS O L.=X#X$X=Xs /.+XR.A V 5XR.c 5 ` :.%.` X.X.:.T q.g.%.*.+.%.",
"%.( R h.I *.%.%.` M.*.$.&.^ _ b.`./.* 0 S &Xd d &X@X/.1X'.s tX+X+X/.* U.=X+X#X#Xn /.R.U.A V =X#XN , R -.M.;.T E ^ X.>.g.%.T I *.",
"7.( %.9.^ &.%.%.8.h.g.R O.=.-.A.`.oX# 8 S 2Xg r U.L.U./.m s aXU.%XP.$ n S L.L.L.a ^.%XI.V V tX#XN , ! :.g.^ T ;.;.T H O.&.9.7.+.",
"( +.h.w.9.` $.` ( U g.^ ^ g.x.Z.`.U.@ 0 P.OXg r u u s y 9 n 1XoX1XA 9 0 y s u u 0 Z '._.C C wX/.C 5 _ R J $.W W E X.T I W w.h.0.",
"( +.) 9.%.` W %._ P I I X.g.d.i.`.I.@ 8 S oXOXaX9X9XpXaXaXaXU.oX/.P.1X1XpXpX1XpXpX>XI.R.Z N *X*XB 5 ! I E ;.$.$.W :.9.I I 9.z.( ",
"+.h.+.7.9.*.O.R s.%.I R $.^ Y b.`./.. a S /.%X+XL..X/./.%XU.U.oXU. XU.oXU.U.L.U.P./.U.L.A V 2X#XN > ! $.J Q `  .9.` U U %.' 5.` ",
"+.+.5.0.*.9.:.H g.j.%.R :.^ Y !.I./.* t n A %XR.T.L._.^.K._.I.U.U. X XU.U.+X.XU.%X/.L.V V V 1XI.G.> Q T ^ Q U d.7.9.U  .d.7.` g.",
"E W 7.) 5.M.:.T ^ :.$.G $.| } y.`.A . 0 C >X<XY.Y.Y.H.Y.Y.).).).R.+X/.%X%X/././.'.(.R.K.m Z ,X'.F.r.E <.$.! d.x.` 8.3. .d.7.s. .",
"o.W +.R ` 0.:.R %.| J I T H -.} r.r.> > e.e.2.2.2._ a.] 2.2.2.2.2.4.t.t.] 8. .I 9.` ! } 3.2.4.a.R -.E :.:.R 8.'  .x.8.R 9.I %.| ",
"*.q.W T ` R ` ` j.^ H <.g.<.$.^ | { H | ^ T g.^ ^ ^ ^ %.9.P U j.*.o.*.w.l.q.^ K k.$.T R 7.h.' 9.$.E &.W %.R ` ` %.v.$.%.^ ^ ^ <.",
"+.j.*.H ^ +.R 9.%.Q @.;.^ l. .G `  .F Q T H ^ =.J 9.^ I h. ._  .q.W I W l.&.K E ^ H ! ! ` 7.*.` %.+.&.%.j.` J W $.9.:.E g.=.^ :.",
"5.' j.E T 9.' d. .Q @.L H <. .P  .9.! g.^ W I :.:.:.Q J s.` ! _ *.z.W $.H =.H Q T ^ s.$.-.` _ 0.7.( R k.%.+.;.@.g.$.H @.@.@.E ~ ",
"w.' &.>.X.W / d.I g.1.L H Q -.d._ 8.j.=.;.T =.j.%.:.;.^ I -.d.8.z.h.o.$.F E $.| s.$.<.^ ! ! U 5.%.R R %.+.` >.@.W g.H L @.~ Q K "
};
