/* XPM */
static const char *dnpudHJmICgxKQ___67bca85f9d2f8[] = {
/* columns rows colors chars-per-pixel */
"64 64 161 2 ",
"   c #0D7E00",
".  c #127C00",
"X  c #0D8200",
"o  c #158400",
"O  c #1B8600",
"+  c #158A00",
"@  c #1C8C00",
"#  c #179503",
"$  c #1E9302",
"%  c #1C9905",
"&  c #1F990A",
"*  c #218500",
"=  c #228D00",
"-  c #2A8E01",
";  c #249303",
":  c #2B9404",
">  c #259905",
",  c #2B9906",
"<  c #249509",
"1  c #2B9509",
"2  c #259A0B",
"3  c #2C9C0B",
"4  c #329406",
"5  c #329A06",
"6  c #31970B",
"7  c #339C0C",
"8  c #389E0E",
"9  c #2C9D11",
"0  c #339D12",
"q  c #3A9E12",
"w  c #339E1C",
"e  c #27A007",
"r  c #2FA006",
"t  c #26A20E",
"y  c #2EA10D",
"u  c #33A007",
"i  c #33A10D",
"p  c #3AA20E",
"a  c #3AA90F",
"s  c #2DA213",
"d  c #2FA719",
"f  c #34A313",
"g  c #3BA414",
"h  c #36A915",
"j  c #3CA916",
"k  c #35A419",
"l  c #3CA61A",
"z  c #35AA1A",
"x  c #3CAC1C",
"c  c #3CAF1C",
"v  c #3FAF1D",
"b  c #3FAC1D",
"n  c #3CAB1B",
"m  c #3BB11D",
"M  c #3EB11C",
"N  c #3AA420",
"B  c #33A921",
"V  c #35AE20",
"C  c #38A820",
"Z  c #3AAF22",
"A  c #3EAD21",
"S  c #3EB621",
"D  c #3EB023",
"F  c #3DB829",
"G  c #429D11",
"H  c #41A515",
"J  c #49A015",
"K  c #42AA15",
"L  c #44AC17",
"P  c #42AA16",
"I  c #4DAB16",
"U  c #41A61A",
"Y  c #4AA519",
"T  c #43A81A",
"R  c #41AA1A",
"E  c #43AA1A",
"W  c #42AB1B",
"Q  c #41AA19",
"!  c #44AB1B",
"~  c #40AC1B",
"^  c #40AE1B",
"/  c #40A81D",
"(  c #41A91E",
")  c #41AD1C",
"_  c #42AE1C",
"`  c #41AC1E",
"'  c #40AD1E",
"]  c #42AD1F",
"[  c #45AC1F",
"{  c #43AC1C",
"}  c #4AAD1D",
"|  c #50AF1D",
" . c #40B31A",
".. c #41B41B",
"X. c #42B31D",
"o. c #44B01E",
"O. c #44B01F",
"+. c #47B31F",
"@. c #40B71F",
"#. c #44B11D",
"$. c #4DB71F",
"%. c #4AB31E",
"&. c #42AF20",
"*. c #42AD23",
"=. c #42AF22",
"-. c #45AE20",
";. c #47AE21",
":. c #42AE21",
">. c #4AAE22",
",. c #56AD22",
"<. c #45B120",
"1. c #47B020",
"2. c #45B522",
"3. c #40B727",
"4. c #45B724",
"5. c #44B323",
"6. c #49B020",
"7. c #4CB123",
"8. c #49B523",
"9. c #4BB423",
"0. c #4FB521",
"q. c #49B224",
"w. c #4AB527",
"e. c #4FB426",
"r. c #4BB423",
"t. c #46B925",
"y. c #49BB27",
"u. c #4CB824",
"i. c #4FB827",
"p. c #4CB925",
"a. c #44B529",
"s. c #4BB629",
"d. c #45BA2A",
"f. c #48B828",
"g. c #4CBA2A",
"h. c #51B726",
"j. c #58B727",
"k. c #53B925",
"l. c #52BC26",
"z. c #52BA25",
"x. c #55B62A",
"c. c #58B62A",
"v. c #51BA29",
"b. c #54BB2B",
"n. c #52BE2A",
"m. c #50BB2D",
"M. c #52BB2B",
"N. c #5CBE2D",
"B. c #4FBE31",
"V. c #58BF32",
"C. c #61BF2B",
"Z. c #4CC02B",
"A. c #54C12D",
"S. c #59C12E",
"D. c #51C033",
"F. c #5CC432",
"G. c #56C834",
"H. c #5CC936",
"J. c #5ACA3A",
"K. c #68CE3E",
"L. c #68D139",
/* pixels */
"k.0.: 7 Q q . b l f l ; @ z s S Z < f.g f 3 s 3.s 3 , g 8 5 l *.l w.3 j i r ....m 2 3 s @ ; 3 m.*.f l = : : q 6 $ 2 9 9 B + < w ",
"K L g 5 5 : 0 ( 0 O f , ; , h y s 2 3 3 ~ i > 2 9 f 7 : Q g 0 9 f ) 7 %.i p  .j f h s 2 f *.3 <.f f [ 7 : , 6 1 9 $ + C 9 < < @ ",
"u.7 Q , = l -.n 0 O ; v f f h $ % 2 ; 7 ) : @ k 1 ) ! 5 8 ~ 3 2 0 7 i j , p j ; ; @ 3 > f 1 g n f = 1 e.Q 7 g ;.z z   ; 2 9 o @ ",
"2., f = : ) 1 f 5 : 7.#.g f f ; z X ; , j g 3 f x 7 5 p : #.3 ; ) 3 j 3 i : 7 X.3 + @ s v o #.f 3 g , 7.M.g q Q h > 3 z $ 9 n 9 ",
"h v 4., v 3 5 9., - 8 b.Q , j g 9 < n = f 3 $ f x ; i = * g ( 1 g f g = l.%.5 v.; n 3 n z @ g 8.= -.8 , ;.8 : k.y.> f > ; s z f ",
"s y M y ; : j e.! 8 8 K.8 * 8 7 x ; Q 8 : : x s 2 @ n p [ e.b O ; , p = %.L.! j g A.n f n 3 7 ) [ j ! 5 j : O e.; @ v 3 @ y v 3 ",
"f 2 3 f ; n ~ K [ , 7.H 8 } 9., n < , Q : 7 i.5.n 1 Q S.e.g 1 z 7 7 g j 5 K } K j 8.X., ; O ; , j 5 [ 8 j j 5 ~ i 3 M i ; i n , ",
"> M > f y.~ g p 8 K g g 7 8 [ ; v z : [ = g l k *.3 g b.[ 7 = < z #.j L p : 7 : 5 u.~ h 7 f ) f g ! 7 = f g 0 ) n h j M n , i i ",
"2 z h n H.n j p , ! K g H j j ) 3 3 g g : 5 6 q.f : 8 K [ 3 ; f , #.! K : 4 8 ! e.= g X.g.X.f m.b.q 6 0 ( b = g g ; ;  .j ; n g ",
") 0 3 : 5 [ j g 5 } K , [ : n n 0 0 g p g 7.6 x @ @ g j Q 3 9 z , $.p j 5 g U 9.u.: , g X.8.7 i e.g 6 1 l *.0 : n n ; ; ~ n m.f ",
") 3 O , 5 8 5 8 8 8 g 3 j h n g ; = 8 H Q u.; > s 3 n j [ 8 3 4.j #.g g [ Q m.g j 3 f , : f x : 6 g 5 9 q @ o ; ) 9.#.5 j n f 0 ",
"8 f 9.n g g 8 j 6 g Q f y.<.h n = : j ! K n ; > x k i i g 7 @ k g i [ n i.g m.@ g 3 , <.f 7 3 = 5 g = = l ; X o -.j 8.8.j j = 1 ",
"Q 8 9.Q q g Q 5 = [ g i.7 f f f z w.j 7 K j : ) 3 : : : , 3 @ > ; : n n ( f l o ; ; ; k v : = = g p 3 0 k 9 < f n Q i j g j 7 : ",
"i j Q 9.8 : g 0 1 g g f i : 3 3 v g 8 } l.K : ; ; ) f @ g f > s f g 7 ; b 0 9 ; + $ h > f ; *.1 : p g z 1 = @ f.j K 5 ; p q 7 3 ",
"i j #.g q 7.6 g q 0 6 1 f n @ ) ) = 4 ! p i 7 ; f g.g @ ~ f 3 f w.8.: o l 3 < < f $ > h , f 0 1 %.k.k 3 k A 2 z j : i : %.! , 0 ",
"i , 5 , : f 1 g 0 . 6 ( O ; 3 g 0 : ! j : j 2.h v k ; , g n v , f 9.O = 3 1 + @ f.x $ 3 f q.; -.L.$., 3 1 0 2 f g : j $.h.! g g ",
"Q Q @ n : g x -.j 6 5 *.= @ x z ; ; f 7 j A.t.h 3 f 3 = ( g [ ; , 7 : U l 1 0 < f x n 3 o ; g w.g #.j 7 = O l l : : j 0.[ g 1 0 ",
"Q ) 5 j : g n 8 [ j 6 l f 3 3 ; f l 3 7 3 f x h z , 7 0 ; i.e.= , j H H 5 = f n [ [ 8 h , o 3 9.) = 8.g Q j 0 l l g : 8 ( 0 @ w ",
": 8 9.[ g 8 j , : g 1 q : 1 = + n A @ k ; 3 , f n f q.g = j j ; : -.g 7 j 8.L g 0.k.5 i v , 7 6 e.i #.; 7 j = *.q M.g ; z A = N ",
"5 8 Q 9.O 8 , : g 8 6 l = ; *.A *.*.o f , n ; f n z 0 @ 1 3 f 3 = w.! : ! u.g j p : p j f z Q 6 n j 3 i h n f 1 1 6 n y f 4.= k ",
"2.i h h @ 8.n , j j j g g.; A g.f n + s k z = 1 9 k 0 9 ; g n 3 ; L 0.: j i ; 3 = 8 j : p A.#.5 ; *.3 @ f k f.1 g @ i 3 ; x = o ",
"o f G.; M n x H.~ i n 7 ; + f f @ f < z 4.; ; ; 0 k A f = f.z O y a p : : n 3 @ 8 g g j p a L %.= ; z y + 3 A + x v , ; > h < @ ",
"> o x > , j f X.i g n 3 O k > 2 3 z 3 D f.: : g 1 3 A 9 @ 9 z , i j 7 : ; 2.f 3 7 Q ; i j j K #.f o , ) 7 f ; k k A ; g j g f f.",
"i.+ 3 , h X.; i Q 8 5 = 3 J.> f k s ; f.<.i O g f ; f g.f 3 2.3 , f h g A.M ; > g g 7 w.i i H j 3 $ k #.) 0 2 V s 2 7 u.5 i z d ",
"g 5 ; : v.K ! 8 H p H : U -.1 3 z < i f , 7 7 g 7 k ; k ; ; f x ; n g j f 3 > 3 7 , j H.g ; 8 ( 3 t f.) 1 l s s d o ; ! p 7 z 2 ",
"U ;.7 ! 0.g k.! j.} H } e.U *.; < ; i , , 7 i i n 7 k , ; f k x ; f i.g n , , M f g : <.i 3 g n f s f g <.l < & V + 3 K p g $ % ",
"q [ [ [ 7 g g H 8 } 4 g 8 O f , @ q.<.i = i p i g 7 w.k ; $ ; f 3 3 ) h q.3 n n 0 O 9 7 3 f i i v x , n f 9 < 2 % s ; : j i f k ",
"6 [ g [ 5 = 5 g k.0., j ( 3 k g.: ( 9.5 ; 7 H.v., , g ) , ; ; $ 3 y 3 = ; 3 D 9 1 o 0 7 3 , g g 3 3 : 3 7 3 9 ; f ; 2.5 K b.) f ",
"7 f i 3 = O f 7 8.f ; g 3 2 $ 5.0 U Q H b.j e.g ; : f ) 3 , 3 ; ; 7 j ; : h h t.n g j f , , 3 #., i o @ : *.; @ 9 f S.z.K p g 3 ",
"f : ) 7 ; 3 8.j g h = ; 3 f 2 9 1 q 4 q M.#.#.7 i.1 f ) f.v n ) ; @ j j : 3 f , #.g <.n h t.X.v.n j g , , g 9 9 , f H p K K : , ",
"0 5 8 [ j = g g 5 #.g ; 3 3 9 9 - * 8 H H 5 9.@ n o 1 f x 0 0 i.g u.! 7 g f ; @ f f 3 x i > j > h h 7.N.4 Q z z > , ! I I K 3 ; ",
"q e.9.l g , ; 7 M.j Q n n ; s @ l g 6 ;.Q 3 7 f 3 o @ ; 9 f ; 3 u.p ! e.n g ; k 7 f @ h , , : j M f p Y G >.k > > > ! | C.5 , 3 ",
"H j Q g z 2 $ 3 ) 8 Q b.j ; i o 3 g 3 3 3 f h i 7 3 6 3 0 z @ ; M g 5 j n g i l ( f @ 3 3 3 ; i , , 8 4 J Y ;   f i ~ : %.Y 5 = ",
"7 j g k 2 2 @ 2 k i 8 [ g ; n x 3 s f > x h y y v 1 6 0 k f > $ 3 3 : , f ~ [ g 0 f f 4.( 8 : ; f 3 j c.,.4 = , @ f n 3 Q } K , ",
"8 7 <.3 f v X 3 k f f 7 X.f : 2.2 g.$ @ h n g y.3 0 0 l 2 @ 2.y @ 3 : 7 ; = p 7.g f @ n -.@ @ 3 ; 0 g x.Y H g M y.5.i 3 : K i i ",
"g = g : f f < ; 2.f X.h 2.X.: f 3 3 f k g i : n g , < z @ 2.X.h , h Q j p , ~ 9.Q = < 3 3 f , 3 , 3 ( U g : i x t.f v ; , ~ i u ",
"v ; ; = 3 0 7 x 2., , f f g ) O < s 4.g : Q , : v ; z 9 f 5.~ g 3 h 8 e.#.$.g p : : @ 3 k 8.2.4.3 ; f [ b.X., > > o *.3 ~ h h i ",
"t.> , f @ l l i.g h X.f ; : x 0 < v g 8 4 [ 7 j : k 3 f ; ) g : : 3 = ! j #.: : 3 v 3 $ n j , 5.f x q.g v n 3 f > @ f <.7 ; : n ",
"s z 9 k 3 f 0 n j n X.; ; f 3 9 ; ; w.= 4 Q Q , @ 3 q.f = g , g j 7 8 : #.#.! 5 : f 3 $ n n n 3 = 6 Q ; Z.f 3 i ; s ( i.@ @ ; X.",
"3 3 5.< k f : , i g #.7 ; , A f 0 0 8 = , , e.[ ) : x l #.) j 9.Q 7 7 g #.u.#.b.n @ > + ) #.f , 1 7.1 @ h h ; 3 5.; 0 q f , 3 j ",
"f , + 2 2 3 , , , = 5 5 O v n 9 *.0 ( g n = ) <.m.6 6 U Q j , n g g ! 7 p L 5 %.w.; $ > n n : , Q Q g 7 $ > . i f.f = 1 , w.= i ",
"<.7 o s % + z v ; g 5 = = f A 9 0 0 l 7.<.7 3 n 6 U * - j : 7 3 f j H K : : i 3 , i M 2.3 7 X.7 U 5 <.; > + i f 5.k 7., f g 8 } ",
"e.n $ z s & z , k n , ;.l ; 2 z 0 7 ( g 7 , ; 3 j : : : g <.7 , @ g [ : 7 , , : 3 g.3.+ <.g z 7 g g l ; , 3 ~ j ; l q.0 : j j h.",
"! 5 @ s z z < s n ; g j x , f 9 -.0 0 g @ n i 3 n g - [ 9.v.~ 7 ; : g 9.f f ; ~ k x > ; g g g f 7.8 ; 7 X.h i j 7 *.k 3 ; 5 7 g ",
"p g g k 2 d + z z + 3 0 f z f ; 6 = 8 q.; k 3 f f 3 g Q , 9.j 3 7 = : [ i i 3 7 3 f 3 x @ 1 X.= 1 5 x y.j i ; 7 *.z 3 3 3 g q } ",
"8 K f 3 @ Z 9 < k z > 3 ; v 3 ; q 6 0 l <.<.g , , *.k 1 8 g j [ 7 1 m.8 ; , ) g 3 5.D $ ; g 1 : 3 l h 3 n w.3 O n ; 2 # f 5 - H ",
"p $.j , O < < 2 z s + $ 3 , 3 -.1 x 0 f 8 j f ; 3 k ; ; 7 , Q [ *.+ Q g = z ) ; 3 f.+ 9 x = 0 n w.k y @ 9.g f f 7 o % # f.7 q Y ",
"7 k.! = 0 *.f 9 2 s < ; n y.z f @ 3 g 0 8 = n ; x k f 3 7 Q g #.i k z 7 f 3 f O 0 ; @ 3 g.; g : ) 3 3 g.Q , f X.g 3 X t 5.g g H ",
": g K 5 H j h , > 3 g M.- p y $ s 2 l ; l @ n 3 y f f ~ K p  .u M x t.x x f g = 0 j g = [ ~ : , : f > n h.! O f H ! ; 3 f } , 8 ",
"g g p %.! , , ; f ; : } j.7.> % > h f f 7 ( 0 5., , g 7 $.5 p ..x @ h > , 3 ; ) <.g 8 j H 7 7 9.f + 3 f u.7 7 3 g 4 , 7 8 e.f 7 ",
"S.j 5 ! Q 5 h ; 3 @ 8 H 7.h.> m > o f 3 g f.g w.= i <.O f z h y > 2 o , ; f = v f g , H H e.e.i ) = f <.n = h <.j , h f Q b.Q n ",
"0.g 7 #., g #.7 @ g } Q g n ; f i , : 3 i 7 g ; l 7 f > ; @ ; ; 3 3 ; f f v f 1 1 0 5 Q Q #.) 7 ( j 7 n g 3 y y v ; X.<.g j g g ",
"g 5 : 8.= j g g 7 F.j g j 7 ; , H k.L , : j g , ( ) 3 2 $ 2 D 1 n @ ; k < 9 *.= g f f h 7 3 f [ q 0 : l D.z ; , 3 y M 2.g ; = j ",
"K 5 g ! 7 h g g U e.9.: i f g ! H %.L p g i 9.8 : f @ < d 2 A 0 z < $ 2 + < 0 1 6 0 n ; ; f ~ g g 0 1 x 3.3 ; z h ; + i h ) K p ",
"5 p 0.%.~ 7 f 8 4 - 9.3 , 2.w.[ N.} #.A.j , g g ; n k 9 k @ 9 z z ; x ; ; A < 9 ; 3 7 ; 3 f g g l *.6 < @ f , , > 3 ; = , <.e.! ",
"5 p 7 ! g 7 , g 6 = @ = y 2.<.: %.! i 8.g . 3 n f x f < f s 9 l n @ 3 n : B.z 3 n f @ ; <.i ; h ; 1 1 = > z f f , z ) = @ [ h.4 ",
"p 8.g K [ j i : -.g = ; f 3 ; g g 7 7 n : 3 k 3 f , ; 1 = 1 3 l f @ g v ; f.; > 2 k = 3 w.j ; , < o 1 k @ ; 6 0 ) 7 - - g 8 H 7 ",
"p p H } j [ ) + <.i.g ; x 3 1 f., ; f 5 @ z 3 3 f k f 8 * : 1 x h 7 h v , 2.3 3 @ t.X.i j : j 3 > 2 @ ; 3 ; - >.Q [ - q -.Q 7 9.",
"> , ! 5 j F.n ; 3 n f O f 9 q @ 5., f ; 6 ) 3 3 f f 9.g 8 8 7 8 ~ 7 3 f 3 h f 3 , i h n h 7 F.i 2.d.< v f 1 ;.x.7 U H q ;.Q -.8 ",
"u , g : 7 } n : g 3 @ = ; @ l 3 z n @ 1 *.z $ > z , [ 7 g - 7 7 7 L n t.3 M f @ ) 3 ; i n j g ! 2 x < v n : U 8 q x.U : ( = g 0 ",
"j #.3 ; 7 : 5 5 f.3 @ Z 5.A f 9 0 9 O 0 3 ; 3.3 3 3 1 g [ * - e.j i j #.g.X.3 $ f.f ; , H 0.7 ~ f , z , g , 8 5 g V.g g 3 3 3 A ",
"p u.j + 3 p - [ l < s z 3 g.q O 0 q o < ; + 3 k @ v 3 = w.q 6 0 +.3 = : i.k $ 2 3 + 1 1 8 Q j 8 g f j h e.i @ , f ) z ; 4.z 3 n ",
"H 7 t.e ; [ q >.0 < d & + A q * 0 ( 1 4.3 , @ x n n < @ 5.6 1 6 j l.3 f + k @ < < 9 *.f l 5 6 [ Q 5 : u.g i z y q.f @ s s s % 2 ",
"| 7 j m y , 4 } - 5.F # + < b >.6 b w.z z ; k i.g x z 3 = l >.( M.u.u f o 2 f f *.k A 3 1 1 - H g : : g g 7 m s , 5.+ % s 2 < $ "
};
