/* XPM */
static const char *dnpudHJmICgxKQ___67bcb03a7892c[] = {
/* columns rows colors chars-per-pixel */
"63 64 256 2 ",
"   c White",
".  c #003CB4",
"X  c #003CB7",
"o  c #E60000",
"O  c #003BB4",
"+  c #0137A6",
"@  c #FEFDFD",
"#  c #003AB0",
"$  c #F4F4F4",
"%  c #6C0000",
"&  c #E3E4E3",
"*  c #EFEFEE",
"=  c #FAFAF9",
"-  c #F8F8F8",
";  c #E0E0E1",
":  c #D8D8D7",
">  c gray99",
",  c #E7E7E7",
"<  c gray58",
"1  c #03379F",
"2  c #8A8A8B",
"3  c #F1F1F1",
"4  c #BCBCBD",
"5  c #B4B4B4",
"6  c #C4C3C3",
"7  c #1A4FB5",
"8  c #EDEDEC",
"9  c #E9EAEA",
"0  c #DBDCDC",
"q  c #04328A",
"w  c #043595",
"e  c #FEFFFF",
"r  c #555556",
"t  c #B7B7B7",
"y  c #4E4E4E",
"u  c #686867",
"i  c #9A9B9C",
"p  c #0540B7",
"a  c gray81",
"s  c #C6C6C6",
"d  c #B9B9BA",
"f  c #616262",
"g  c #A6A7A8",
"h  c #CCCCCB",
"j  c #D2D2D1",
"k  c #4A4849",
"l  c #0944BA",
"z  c #5B5B5B",
"x  c #A3A4A5",
"c  c gray83",
"v  c #646565",
"b  c #7F7F7E",
"n  c #838383",
"m  c gray20",
"M  c #0D3582",
"N  c #E90200",
"B  c #1543A1",
"V  c #777777",
"C  c #848485",
"Z  c #8E8E8F",
"A  c #CACACA",
"S  c #929191",
"D  c #727372",
"F  c #063CA8",
"G  c #373737",
"H  c #0C3D9E",
"J  c #013DB7",
"K  c #08307C",
"L  c #255BC2",
"P  c #2D4062",
"I  c #6A6B6B",
"U  c #DDDEDE",
"Y  c #0037AC",
"T  c #0E3B91",
"R  c #9C9E9D",
"E  c #F6F6F5",
"W  c #33599C",
"Q  c #13316D",
"!  c #2E4B82",
"~  c #969797",
"^  c #F8CD7E",
"/  c #FFD583",
"(  c #163B85",
")  c #052B78",
"_  c #590504",
"`  c #465166",
"'  c #204A9D",
"]  c #4A576E",
"[  c #1E458E",
"{  c #0039B7",
"}  c #37568B",
"|  c #1548AD",
" . c #6B788E",
".. c #00329C",
"X. c #164197",
"o. c gray68",
"O. c #2A4D91",
"+. c #022D82",
"@. c #797B7C",
"#. c #A8A8AA",
"$. c #2F4977",
"%. c gray35",
"&. c #EDECEB",
"*. c #AFB0B1",
"=. c #A2A19D",
"-. c #7D8390",
";. c #878786",
":. c #7C7978",
">. c #27509E",
",. c #686E77",
"<. c gray79",
"1. c #3B3C3C",
"2. c #582D29",
"3. c #E61206",
"4. c #254482",
"5. c #A9AEBA",
"6. c #0F49BB",
"7. c #650202",
"8. c #09399A",
"9. c #475B85",
"0. c #5D6E92",
"q. c #6F6F6E",
"w. c #BFBFC1",
"e. c #5B1212",
"r. c #2E64C6",
"t. c #1A53BF",
"y. c #6E7383",
"u. c #AF0704",
"i. c #2D57A5",
"p. c #818892",
"a. c #A18A66",
"s. c #456099",
"d. c #5A6575",
"f. c #DF0100",
"g. c #214EA5",
"h. c #8E9195",
"j. c #0A2963",
"k. c #3D4249",
"l. c #AC966E",
"z. c #D9BF85",
"x. c #013AAC",
"c. c #3B66AB",
"v. c #386BC1",
"b. c #083FAE",
"n. c #687999",
"m. c #45618E",
"M. c #9B613D",
"N. c #144DC0",
"B. c #4E6AA1",
"V. c #D80C08",
"C. c #636E84",
"Z. c #455478",
"A. c #374F77",
"S. c #908477",
"D. c #E06E34",
"F. c #96A0BD",
"G. c #DD5627",
"H. c #354663",
"J. c #8B93AD",
"K. c #7B6B63",
"L. c gray37",
"P. c #EB1809",
"I. c #D80101",
"U. c #1B366B",
"Y. c #78736A",
"T. c #7A7E87",
"R. c #29385A",
"E. c #8A7E72",
"W. c #003092",
"Q. c #C12D20",
"!. c #133678",
"~. c #202E45",
"^. c #A79680",
"/. c #CBAD72",
"(. c #E7C887",
"). c #958D7C",
"_. c #E5BE75",
"`. c #C36F6F",
"'. c #997952",
"]. c #EEC479",
"[. c #BD9F63",
"{. c #DCB938",
"}. c #601F1F",
"|. c #482423",
" X c #AE6B45",
".X c #56688B",
"XX c #345FA8",
"oX c #9C7B61",
"OX c #634B4B",
"+X c #88644B",
"@X c #8E231B",
"#X c #C95042",
"$X c #A65831",
"%X c #423A3A",
"&X c #E8411B",
"*X c #795858",
"=X c #0C224B",
"-X c #565D6C",
";X c #254175",
":X c #AAAAAA",
">X c #6A5D51",
",X c #C7A6A6",
"<X c #769A72",
"1X c #D7A3A3",
"2X c #B1A27C",
"3X c #867F69",
"4X c #E2BC74",
"5X c #FFD888",
"6X c #9A7630",
"7X c #B8821A",
"8X c #B44446",
"9X c #705454",
"0X c #BD9427",
"qX c #FFD382",
"wX c #EDE5E5",
"eX c #D0BBBB",
"rX c #36496D",
"tX c #866B3C",
"yX c #D1C3A3",
"uX c #56492E",
"iX c #954D4D",
"pX c #D9391A",
"aX c #203E7D",
"sX c #9598A1",
"dX c #A11C1C",
"fX c #C4824C",
"gX c #BCC7B6",
"hX c #E93013",
"jX c #6E2929",
"kX c #244C2B",
"lX c #6F5422",
"zX c #3E573F",
"xX c #C6B380",
"cX c #A97818",
"vX c #D2D7E5",
"bX c #2A55B0",
"nX c #C0AB81",
"mX c #D4BD93",
"MX c #253550",
"NX c #C0BCB5",
"BX c #B7764F",
"VX c #577A59",
"CX c #909E80",
"ZX c #AC3131",
"AX c #B3A98A",
"SX c #954949",
"DX c #D38B8B",
"FX c #D69999",
"GX c #D00707",
"HX c #7F4408",
"JX c #BF772E",
"KX c #D8AC17",
"LX c #9C7E7E",
"PX c #D5A816",
"IX c #BCA868",
"UX c #DAD6BD",
/* pixels */
"                                                                                                                              ",
"                                                                                                                              ",
"                                                                                                                              ",
"                                                                                                                              ",
"                                                                > @                                                           ",
"                                                            * x D &.                                                          ",
"                                                        - *.-X~.u >                     @ = E $ =                             ",
"                                                      : ,.A.v.P s               &.<.=.b f r k k.o.                            ",
"                                                  @ o.` XXr.H ] -         8 t @.` H.$.} W W ~.I 9                             ",
"                                                E h.A.r.N.X ) =.      ; i d.} c.v.r.L t.l Q h.-                               ",
"                                              $ T.} L p O # U.:   8 x .Xc.v.L 6.p O O Y j.~                                   ",
"                                          = t ,.W t.. . . ..] E <.n.c.r.N.J O O . . O ) <   : i a       @ >                   ",
"                                          s MX;X7 # . . . +.y.5.B.L l O O . . . . X +.-.> &.D q.y j   ; b I a                 ",
"                                          h.X.| T w + . . ) H.XX6.. O . . . . . . W.d.3   h *.> ~ 2 > < 5 ;.u =               ",
"                                        j H.X.9.' K w . # M B p O . . . . . . + q P 0     h 6   & n j g   & I 9               ",
"                                      $  .O.s.(. .( q # . F . . . . . . . x.w q j.*.      a w.  > ~ i <.  3 @.9               ",
"                                      *.W B 0.qX(.9.M + . . . . . . . . + q q ) C.@       j 4     S D &.  * V 8               ",
"                                    &.0.7 1 T./ / 2XT q O . . . . . . x.q +.K =XC t 4 <., w.5     :.;.    ; n =               ",
"                                    5.i.p ..y.^.y.9.8.+ # . . . . . . w M ( [ 4.! ! $.P k.k.d   @ < A     *.4                 ",
"                                  - n.7 # + H w T T T F . . . . . . O F b.p l l l 6.N.L L ! <.  @ c -   : Z =                 ",
"                                  U s.l O O 8.i.L t.7 ' F . . . . . . . . . . . . O O Y >.J.j 0 & ; 9 > 4 @.s                 ",
"                                  d i.J . + >.6.W.!.M + # . . . . . . . . . . . . . . H w.    $ & a < < 3 & ~ @               ",
"                            @ E , p.7 O . H 7 q C.d 5..X8.. . . . . . . . . . . . . O g.&         @ i b > - I d               ",
"                      - *.-.C.Z.P U.7 O O B F 9.,     8 n.Y . . . # . . . . . . X X O bX9 @ h h : o.q.s   , x S $             ",
"                      &.` ' + + q ( 7 O . | 8.J.        ; i.O . X F w + + 1 w w w 1 + ' ;   c 4 R z d   - 5 ; g &.            ",
"                        t m.t.J 1 ( 7 O . H 8.F.    3 3   F.# + T H M q K !.[ [ O.` k.-.s       > < #.a R w.8 x -             ",
"                          4 m.7 b.K g.. . 1 1 J.    gX<Xh vXB ,.xXd.K M X.| >. .AX/.'.NXR ,       : D C h * ~ <.              ",
"                            c  .O.M [ p . x.+ B.-   &.<XzXR @.4X5X2XU.B W p.z.5X/ /.tX=.; g ; > @ > d i t S d @               ",
"                              3 i R.4.F . . O ' 0     & VXkX[.[.].nX[ p.(./ 4Xa.-XP ~.k h &.t i < 5 g v 2 ,                   ",
"                                * ] | + O . . F F.    e 3 CX4X4X^ S.$./.^.0.W ' X.U.h.h v 5.5 D z 2 s & @                     ",
"                                - y.X.) ( # . O B.9     $ mX^ _.].} + B # { X J p | s.0.>.H P D 5 @                           ",
"                                  ;  .aXZ.s.1 X g.6 > & yX^ ^ ^ E.+.K ;X4.O.B # . . J p . M sX$                               ",
"                                    - s Z R  .>.O.S yXz.^ / qXl.R.8.1 H X.O.! q 1 . X Y ( g @                                 ",
"                                          0 o.@.y K.^ / / ].3X` } p # Y Y Y # # # # ..$.d                                     ",
"                                          0 ;.u k y z.z.l.uXu u W J 1 v D Z.Q ..w ! -.U                                       ",
"                                        3 z k v D 2 6 : x ).[.tX$.l # $.9.4.Q A.#.9                                           ",
"                  =                     , V < t E 3 ,   6 <.'.uXP 7 . ..) rXy %.b E                                           ",
"              > :XV :.=.s -             $ n 6 U a 4 5 = =.@.d.! B g.l O Q f b b f s                                           ",
"              h r 2 E.$X@XK.,           - V < g t U s Z ,.} | p ..U.7 X + ` v Z q.L.a                                         ",
"              #.r f C BXP.u.*X8         = ;.&.    $ i rXg.l # +.] #.m.b.w j.n 8 i V R                                         ",
"              :Xr r v l.&XN u.*X:     ; 6 Z C <.5 ,.! 6.J + Q -.* 0 T.4.K 0.9   A n >X:                                       ",
"              d u v v ^.G.o o dXn c 0 n t t q.u ] [ T 1 W.P 5     x t p.5.$ = @ e LX_ }.5                                     ",
"              w.%.%.r ).D.o o V.,Xx 2 g U > @ 0 -.!.+.j.] :       #.S & & c t * 6 }.% 7.2.U                                   ",
"              a I u f b D.N o f.DXE i 6 & E   E j ,.=Xu 9         E 4 C 6 $ $ A b 9X}.7._ :.>                                 ",
"              & f z r q.fXP.o o `.e E 6 $     5 < S %.,               x t c 5 g h & l.HX_ %X:                                 ",
"              E @.u v u oXhXo o `.e   eX`.&.  9 Z < I ,             & =.h : * @   UX{.7X2.k A                                 ",
"                i y z r Y.G.N I.1X    wXQ.#XwXE < V V $           E S ,X1XFXeX3 & {.0X6XlXf &.                                ",
"                c r v L.I '.3.8X&.    & ZXu.SXo.2 L.0             6 @XV.f.f.GX8XIXPXa.7X>Xo.                                  ",
"                @ C y f z Y.+Xh       6 jX% 7.9X@.Z             3 iXI.N o o N I.JXKXcX6Xn $                                   ",
"                  & y y z L.b 5 &.* a 2 e.% % e.V :             t u.N o o o o N Q.{.0XY.a                                     ",
"                    s k y %.y %.2 x ~ OX7.% % e.6             > oXV.o o o o o o f.M.3Xg @                                     ",
"                      t m m G G r :.OX_ % % % e.a             8 M.3.o o o o o N Q.E.< 3                                       ",
"                        t 1.G 1.m %X_ % % % % 2.9             U $X3.o o o o 3.#XS.< &                                         ",
"                          d 1.m G 1.2.7.% % _ K.@             0 M.P.o N 3.pX X;.;.;                                           ",
"                            6 k m G G k 2.|.|.a               ; +XD.&XG. XS.C 2 ;                                             ",
"                              : z m m 1.r 1.R                 c v a.a.).Z C #.3                                               ",
"                                * < y m k ~ -                 * n 2 2 2 g ;                                                   ",
"                                    &.0 9                       * a : 3                                                       ",
"                                                                                                                              ",
"                                                                                                                              ",
"                                                                                                                              ",
"                                                                                                                              ",
"                                                                                                                              ",
"                                                                                                                              "
};
