/* XPM */
static char *_bf3fff785d740b48bf17bc2500480e4iCt2u23e53MBWorO[] = {
/* columns rows colors chars-per-pixel */
"64 64 161 2 ",
"   c #01131E",
".  c #011522",
"X  c #091724",
"o  c #001A25",
"O  c #091A27",
"+  c #011D2A",
"@  c #0A1E2B",
"#  c #011F31",
"$  c #03222E",
"%  c #09222E",
"&  c #042433",
"*  c #0A2532",
"=  c #052935",
"-  c #0C2A35",
";  c #04273A",
":  c #0A2739",
">  c #052B3B",
",  c #0C2C3B",
"<  c #102735",
"1  c #112A36",
"2  c #112D3A",
"3  c #07313F",
"4  c #0D313D",
"5  c #13323E",
"6  c #18333F",
"7  c #0C2F41",
"8  c #073544",
"9  c #0D3343",
"0  c #133543",
"q  c #1A3642",
"w  c #143946",
"e  c #1B3945",
"r  c #103748",
"t  c #153B4A",
"y  c #1B3D4A",
"u  c #213E4B",
"i  c #17414F",
"p  c #1D414D",
"a  c #164151",
"s  c #1C4353",
"d  c #1E4956",
"f  c #1E4C5A",
"g  c #1F505F",
"h  c #23434E",
"j  c #28424F",
"k  c #21484F",
"l  c #234553",
"z  c #294552",
"x  c #244A56",
"c  c #294A56",
"v  c #214659",
"b  c #244C5C",
"n  c #2A4D5C",
"m  c #314E5C",
"M  c #25515D",
"N  c #2B515E",
"B  c #30515E",
"V  c #254F60",
"C  c #294F60",
"Z  c #255161",
"A  c #2A5565",
"S  c #2E5564",
"D  c #2D5765",
"F  c #2F5665",
"G  c #2C5767",
"H  c #2B5262",
"J  c #2D5965",
"K  c #295669",
"L  c #2D5868",
"P  c #2E5969",
"I  c #2E5A69",
"U  c #315561",
"Y  c #305462",
"T  c #315563",
"R  c #335463",
"E  c #305663",
"W  c #305464",
"Q  c #305565",
"!  c #325664",
"~  c #335765",
"^  c #315666",
"/  c #305766",
"(  c #345564",
")  c #325563",
"_  c #395663",
"`  c #315867",
"'  c #305A66",
"]  c #325A66",
"[  c #345866",
"{  c #345A67",
"}  c #345966",
"|  c #395B66",
" . c #315668",
".. c #325568",
"X. c #315869",
"o. c #335868",
"O. c #315B69",
"+. c #32596A",
"@. c #315B6B",
"#. c #355A6A",
"$. c #325C6A",
"%. c #365C69",
"&. c #325B6D",
"*. c #325C6C",
"=. c #375C6C",
"-. c #345E6C",
";. c #345D6F",
":. c #365D6E",
">. c #375E6F",
",. c #345B6B",
"<. c #385C6A",
"1. c #395F6A",
"2. c #385E6B",
"3. c #3A5E6C",
"4. c #3A5C6C",
"5. c #2F5E70",
"6. c #365F71",
"7. c #385F70",
"8. c #36606E",
"9. c #37616F",
"0. c #34616D",
"q. c #39616D",
"w. c #3A606D",
"e. c #39606F",
"r. c #3A626E",
"t. c #3D616F",
"y. c #3E646F",
"u. c #3B606E",
"i. c #376072",
"p. c #356272",
"a. c #3A6170",
"s. c #386270",
"d. c #3B6271",
"f. c #386173",
"g. c #3E6270",
"h. c #3B6573",
"j. c #3A6472",
"k. c #3D6473",
"l. c #3E6672",
"z. c #3A6375",
"x. c #3C6374",
"c. c #3D6274",
"v. c #3E6375",
"b. c #3B6676",
"n. c #3D6475",
"m. c #3F6476",
"M. c #3F6677",
"N. c #3C6373",
"B. c #3F6977",
"V. c #3E6876",
"C. c #386779",
"Z. c #3F6B7B",
"A. c #416571",
"S. c #416676",
"D. c #446874",
"F. c #416877",
"G. c #416B79",
"H. c #406A7A",
"J. c #436A7B",
"K. c #436B7B",
"L. c #486C7C",
/* pixels */
"& 8 t w w w w w t i i s a t t a t a a a a a t r w 9 0 4 $ + & = , , , , , , , 7 9 7 , > ; ; > > 8 8 9 , , , 4 0 0 4 4 4 w w w & ",
"M ' ' E ! [ %.2.[ q.q.j.B.G.G.x.p.z.z.6.6.-.O.O.! #.2.c , , l n F F ! ! O.-.s.b.b.b.b.x.x.x.b.b.b.b.j.s.t.g.A.A.D.y.y.2.4.E x , ",
"O.8.S n c x c b x N b b S '  .b V Z V b b b b b b H H y & 9 ! ! c b b b b Z A L F F L L &.;.&.&.L L F F ! ! ! ! E N ! E ~ n y & ",
"$.s.N n c c x c x b x b b x c v f f f b b b b b n n H a > t q.N v b b b b b f f f f f b V V V b b b c c n c c c n x n c n n t , ",
"O.j.n n n n n n c n b b b b n b b b V Z Z V b b b b F s > w q.N b b b Z Z M M b Z Z b b Z Z V V b b b b n n n n N n n n n n w & ",
"-.G.H n c c x x l b b b b n C v b Z V b b b b b b b H s > 9 l.! b b b b b b Z V Z Z V V V V V V b b b b n n n n n n n n H C 0 & ",
"G Z.N n c b b b v b c b b C H b b Z Z b Z Z Z Z Z b b t = 3 8.n b b b b V V V Z V V V V b b b b b b n n n n n n c n C b c c , & ",
"Z Z.Z n c b b b c b d b b b C F f Z H Z Z Z b b b b H a > 3 s.M b b b b b V V C V Z C V b b b b b b n n n n n n n H b s y s > & ",
"Z Z.M b b b N b b b b b M b H O.A Z b b H b b b M d H d > > b.b b c b b b b b b Z Z V V b b b b b b b b n n n n N b s b b c , & ",
"A b.b b n b b x b b b b b b C H H H b b b b b b n b H b 9 = %.H b x b b b b b b b b b b b b b b b b H S H n b s l b b M n b 9 , ",
"p.p.b b b c c b b b b M n N H n n N b x x b b b n n n N w > ! O.b x b b b f b f M b b b b b b M M N N n n n n H H H b M N b 4 & ",
";.L b b x b c b b x b N n N H n n N N n c n n b c n n n 9 9 O.' b b b b M b b b f f f f b b b b N n n c c c n n c b b b x x 9 & ",
"H Z b n c N n n n b n N N N Y n n n n n x x c n n n n c & 9 4.N x x x x x x x x b b x b b b b n n c n n N B Y E N M b n n n w & ",
"O.' n n x n n n N n n n n n n n m n m n l z n n n n n x & t t.n n n c n n n n x x x c n c c c c c c n m B n n n H N N N x x 5 $ ",
"F H y t w e y y y y y p h y e y e q e q 2 5 e q y y l y , 0 B l q 6 5 6 q q 5 5 5 q y y e q 0 5 q q u j h q , , , w l y = = * = ",
"t t & & & $ $ $ & & & = , & $ * = - 2 = $ = , & & & , 5 & & 0 & & $ @ $ * = & + $ & , , : $ + + $ & = , = & # & & $ & & + & + + ",
"t t t t t w w w w 0 , , : & & & & + & & w w 9 , w w y t 9 > > 9 w w w 0 9 9 0 0 0 0 w = & + & , t 9 > ; 9 9 9 9 9 w t t w 0 9 0 ",
"B.B.B.B.b.b.l.g.S.S.g.g.3.4.4.#.! 9 > N L.S.S.F.J.F.G.S.s.-.s.G.F.B.j.q.s.g.b.F.b.q.s.-.b & > O.K.K.Z.p.b.H.K.Z.G.K.K.K.K.G.G.J.",
"L L L L J J F H F F ! O.#.-.4.4.N w 0 [ 4.c H ~ [ E H N N N S ' S N b b n N S S H n x N E 9 0 g.;.p.p.p.p.b.p.$.J J J O.J S S J ",
"Z Z Z Z Z M b b b b b M N H H N y , 5 [ B n Y n n n c b b b b b b b x x c c x x x n c x x > 0 #.b f f Z Z H b b b b b b b b N M ",
"D D D D H N M M M M M N N M M n c - 5 R c N n n N N N N N N n b n n N N n b x b l x x x y $ w q.H b d b d b b M N N N N N S E E ",
"S S S H N M b b b b N N S H S S l * 5 R c B N R n n n n n b c c x b n b x x x b N x x n y & y %.c b n b s c H C b b b b n N N N ",
"H H H H H n n n n N n N n N n n l - 5 R B B B x H N N n n n n N n n n n b b n n l x x c w $ p l.c v b c b c n c n n n n n H Y H ",
"H H H N n n n n H H H H H H H H l = - | R x E N N N n n n n n n n n b n n n b c b c x n t o w S.7.b c c n c H c n n n n n N Y N ",
"H n n C C n n C C C H H H H H H x = & [ 4.N n N n N N n H H H N N n b b b b b b c b c x t + 9 K.K.b b b c C b b b b b b b b C n ",
"C b b b C b C H b b b Z H Z H H x , , 2.[ n n b H H H H H H H H b b b n b b b c c x b b a & 9 G.p.f b b b b f b b b b b b b b b ",
"b b b b b V Z Z H Z b Z Z Z H S l & , 2.[ N S N n N H n H H H n n n n c c b n b b b l b s & t l.A f b b b b f b b b b b f b b b ",
"b b b b b b b b M b b b b M H H l & , 4.~ n n N n N N n n n n n n n n n c n n c b c l c t + t %.b f b f f b f b b b b b b b b b ",
"N N N b b N N N b b n N N S S E l - 2 t.| N N N E E E E B B B n c B R E Y B n c c c x x w $ y [ b b c x b b b b b b b b b b b b ",
"p h h p p h l h l h l h l h l l e - , _ B c z z z z l h h h h h u h z h z h h h u p u y 0 % e n p l l h l l p p s p l l l p s p ",
"* * * * * % * - - - - * * * * * - * $ e 5 - * = = * * % $ % % % * % * * * % * - * * - % & + * 5 - - - - 2 - , * - - , - , - - - ",
"+ + o + o . o + + + o . o o + + o $ o $ . o + + + + o . . . . . . . + $ $ + o o + + + o $ + + $ + + o o o o + + + + + + + + + + ",
"s p p y 5 o 5 e y y p p l l h h l s s l l l l l l c l s y t y t & $ y x b b d b x b x x x b b b b b l s a i i i s y t y s l l l ",
"p.O.! n w + p N E E S S E S N N S H S F O.#.:.-.-.6.;.;. .!  .n & > S Z.K.Z.C.p.0.0.0.0.$.$.;.;.p.p.p.-.;.8.8.p.O.J J O.-.-.4.s.",
"b c b l 5 o y N b b b b n b c x b b c b n n C H Z Z b b n n c y & = [ g.F b f f b M M b b b b b b b b b b b b b x x b b b b n H ",
"b c n x 0 $ p x x c b b n N n N N N n n n n C C H H V b n H n t $ = ~ 4.b f b Z b b b b M b b b b b b b b c x x x x x c x x c b ",
"n b n s 4 + p l x c b b b b n n N M b b n H H H Z H M b c n c w & = Y ! b b b f b b b n N n V V b n n n n n n n n c c n n c c b ",
"c b H l , $ l n c c b b C C H N b M N N n H H H Z M M b b c c w + & C Y b V V b b b b n b b b b b b b b c c c c n x x c b b b b ",
"b C ! l , + l n v b b V V Z Z H b M M b V H H b H Z Z H b b b w + , ~ Y b b b Z C b b n b n Z b H H C b n n b b b b b c b b b b ",
"H b n s , + x H b b b V V b b b b M M M H H H Z Z b b Z b b b w + , Y H b C b b b b b c b b b b b b b b b b n b b b b b b b b b ",
"M H n p , + l N b b b b Z Z Z Z b Z H H H Z H A Z A b b b b n w + , Y ! b Z V b c c b b b b b Z V V b b b b b Z b f f b b f b Z ",
"H H n t = + l n c b b b V b b b b b b Z H A A H b Z b b b b H y + , ~ ! b A b b b b b b b b b b Z b b b b Z V b A b b b Z b f f ",
"b H H t , $ x n b b b b b b b M M M C C H H H C b Z b b b n H l + = Y n b b b b b c x x b N H N M b b b Z M b b b b f f b Z Z Z ",
"n H S w = + l N c c b b c b b b b n n n n n C c c b b b n n n l $ = R n b C C H b c x b n N n b M b b b b b b b b N H b b b b Z ",
"H n n e , + y n n n c x x x l l h l c c c n n c c n b n n n n z $ - _ n n n c n n n n n n N N n n n n N n n c n n N N n n n H H ",
"t 0 w 5 2 $ 2 q 0 0 0 5 , , - - = = , 5 q q q 0 5 5 5 5 5 5 5 2 % - h y y y y y y t e 0 0 0 t y e y y y y e e e e e q w t y t t ",
"& + + $ $ o + $ o o + + o . . . o . o + + . . o o o o . . . . o . o $ + + $ $ + & & $ + + + + + & % % % % % % % * + + + $ $ + + ",
"9 , & + + + $ = 2 5 0 0 , = = , 0 q q 5 * + + * , 2 - * * * % - - 2 , , , 5 , & + & , 0 t t 0 , = % $ + + % % * o o + $ = = , , ",
"b.p.L V b b F &.6.6.-.-.:.:.#. . .Q C n u @ , y n Y ( #.:.-.4.4.4.%.:.O.;.8.s.O.N %.g.7.:.O.F ! ! Q n c B m z < . $ y N H F H :.",
"K 5.p.C.C.C.C.p.G A Z Z Z H A A b V b c 0 + , x [ [ .. .L L O.O.A A Z Z Z A A b -.b.p.' H H N H H F O.! #.E z - + , n J Z A Z K ",
"b b b f f b b b b b f v b b b b f b f x , . - x N b c b b f b b Z b b b b b b b l c c l c c x c b b b d x x l 5 o = N J f g V b ",
"Z M b b b b b b b f b b b b c b b b f b 5 o - h b b n N Z Z Z b H b C Z b b b b s b c n N N n b b b b f b b N y o & M I f f Z Z ",
"b b b M M M b b b b c c b b c c b f f x 5 + 4 k x b N N Z M M b H M M M b b b b d b b x b b b b b f f f b x c 0 o $ b 0.M f Z Z ",
"M M b b b b b b b b b b c b c c b b b x , . 5 x b N H S H Z H F J H H M b b b b d b b b M M N H Z b b f x x n 5 . . s 8.M f b b ",
"b b b Z Z Z b b b b b b b b c c b b b x - . 5 c c n n H H H S F F F H H b b b s l b b b H n c c b b b b b x c 2 . . l l.H b H C ",
"Z Z b b b b b f b b b b b b b b b v x l - o 5 x c c n C H H H H H H H N b b b a b b c b C b c c b b Z b b x c 2 + . x g.b b C n ",
"b Z Z b f b b b b b b b V b b b b v b l , o q l x c n n H A H H C H H H C b b v b b b b C b b b b b b Z b l n 0 . # H -.b H n C ",
"b b b b f b b b V b b b b b b b b v b s , + e x c n C C A H H N C C H C n b c b s v b H H C b b b V b Z b b n w . & H F c C C C ",
"n C V b b b b b b b b b b b b b b b f d 7 + y x b c C H H Z n M b M M b b b b M a s b Z Z b b b b b f f d d c w + , H b b b b b ",
"c b b c c c c b b n b n n n n b b b f b 0 . w x x b n H M M b b b M b M b b b M f f b b b b b b b b b f d b c 0 . , H x b b b c ",
"n n n n n n n c c n n c c c b b n b b b 0 . 5 x x b n n n b b n x b M M M x b b M b x b b b b x b b b x x n c e . 2 N x N n N n ",
"h h z z z l l l c n n c c c c c c l l l 5 o 2 h l x z x l z l z l z z x z x x x h p p p x x l p l l l h z c h e o 2 z h l h h u ",
"$ * = * * * = = 2 5 0 , 2 5 5 2 2 , 4 , * . % 1 * * * * % $ $ % % % * * % % % % + + + + % % % @ $ $ $ $ % * @ O . @ < * * * * % ",
". + + + o o + + o + $ + + $ & $ + o $ + @ O . o + o o o o . .   . . .         . . . . . . . . . . . o o . . . X X         . o . "
};
