/* XPM */
static char *_d4b664fbad24e7e9c5dd93bc12ea5c7[] = {
/* columns rows colors chars-per-pixel */
"64 64 250 2 ",
"   c #1F1D26",
".  c #7B1D1E",
"X  c #77312E",
"o  c #0D7E00",
"O  c #137D00",
"+  c #28751D",
"@  c #222268",
"#  c #335A56",
"$  c #3C7852",
"%  c #335976",
"&  c #515E63",
"*  c #497A69",
"=  c #457879",
"-  c #9D1B19",
";  c #AF281A",
":  c #B01E26",
">  c #972728",
",  c #8C2C30",
"<  c #AD2E2E",
"1  c #C51312",
"2  c #C9181A",
"3  c #D61518",
"4  c #D6231D",
"5  c #C61923",
"6  c #C72528",
"7  c #DA2629",
"8  c #C83337",
"9  c #EB2121",
"0  c #ED222A",
"q  c #E82429",
"w  c #A44E35",
"e  c #86683A",
"r  c #9F554E",
"t  c #AC4E54",
"y  c #916D51",
"u  c #AA736B",
"i  c #C45654",
"p  c #CC7176",
"a  c #0C8100",
"s  c #148500",
"d  c #1B8600",
"f  c #158A00",
"g  c #1C8C00",
"h  c #1D9302",
"j  c #1D9906",
"k  c #228803",
"l  c #228D01",
"z  c #2A8D01",
"x  c #249303",
"c  c #2B9404",
"v  c #259905",
"b  c #2B9905",
"n  c #249509",
"m  c #2C960A",
"M  c #259A0B",
"N  c #2C9C0B",
"B  c #329506",
"V  c #329A06",
"C  c #389906",
"Z  c #31960B",
"A  c #339C0C",
"S  c #399D0E",
"D  c #348718",
"F  c #269B10",
"G  c #2C9D11",
"H  c #339D12",
"J  c #3A9E12",
"K  c #389A1A",
"L  c #26A20E",
"P  c #2EA10D",
"I  c #30A007",
"U  c #33A20D",
"Y  c #39A20E",
"T  c #2DA313",
"R  c #2EA81A",
"E  c #34A313",
"W  c #3BA414",
"Q  c #36A915",
"!  c #3CA916",
"~  c #34A518",
"^  c #3CA519",
"/  c #35AA1A",
"(  c #3CAB1B",
")  c #3DB11C",
"_  c #398F32",
"`  c #38A822",
"'  c #3DAD21",
"]  c #3DB322",
"[  c #429D10",
"{  c #42A515",
"}  c #4BA617",
"|  c #42AA16",
" . c #41A51A",
".. c #43AC1C",
"X. c #4AAD1C",
"o. c #44B11D",
"O. c #4AB21E",
"+. c #519632",
"@. c #6B933A",
"#. c #43AD21",
"$. c #4AAD23",
"%. c #4AA52A",
"&. c #44B323",
"*. c #4BB423",
"=. c #4CB825",
"-. c #47B828",
";. c #4CBA2A",
":. c #51BA25",
">. c #55B728",
",. c #52BC2B",
"<. c #55B82E",
"1. c #4DA638",
"2. c #54A839",
"3. c #64AB33",
"4. c #53C12C",
"5. c #5AC634",
"6. c #68CF3C",
"7. c #4A924F",
"8. c #6F9F47",
"9. c #52A74C",
"0. c #6EAF54",
"q. c #518F74",
"w. c #639777",
"e. c #5CA667",
"r. c #71B56B",
"t. c #948650",
"y. c #8AA15F",
"u. c #A88E78",
"i. c #8CAB72",
"p. c #D58765",
"a. c #34338A",
"s. c #2D1FB0",
"d. c #1930B5",
"f. c #252BA9",
"g. c #382EA9",
"h. c #2A37A9",
"j. c #3839A4",
"k. c #252AB9",
"l. c #322AB7",
"z. c #2938B8",
"x. c #3636BA",
"c. c #553D93",
"v. c #4A39B0",
"b. c #314D95",
"n. c #36658C",
"m. c #1F43A8",
"M. c #3649A7",
"N. c #775B91",
"B. c #5C6A90",
"V. c #514AB4",
"C. c #6B5BBB",
"Z. c #4F6BAD",
"A. c #6A67B7",
"S. c #7970B2",
"D. c #1E27CB",
"F. c #1B34CD",
"G. c #1A29D6",
"H. c #272BC9",
"J. c #2834C8",
"K. c #3636C8",
"L. c #292CD4",
"P. c #262CDA",
"I. c #322FD2",
"U. c #2733D7",
"Y. c #1B2BE8",
"T. c #1D32E7",
"R. c #1C2CF3",
"E. c #1B2AF8",
"W. c #1E31F4",
"Q. c #242CE4",
"!. c #242CED",
"~. c #2929E9",
"^. c #2533E8",
"/. c #232CF4",
"(. c #292CF4",
"). c #2729F8",
"_. c #242CFA",
"`. c #2631F6",
"'. c #2331FD",
"]. c #3643CE",
"[. c #4845C8",
"{. c #5353C9",
"}. c #675ECC",
"|. c #666ED6",
" X c #6064E2",
".X c #9A7DAA",
"XX c #DB7B83",
"oX c #8372CA",
"OX c #669195",
"+X c #74B193",
"@X c #7FC39A",
"#X c #7A86D2",
"$X c #748BDC",
"%X c #90B48B",
"&X c #AEB38F",
"*X c #9286B4",
"=X c #A78AAF",
"-X c #95ABBE",
";X c #B7B3AE",
":X c #D69491",
">X c #E88A8E",
",X c #D7AE91",
"<X c #EFB598",
"1X c #C090A0",
"2X c #D2B2AE",
"3X c #EEB7AB",
"4X c #FCB8A7",
"5X c #8BC58D",
"6X c #A2C99C",
"7X c #B0CBAC",
"8X c #D0C897",
"9X c #FAC99B",
"0X c #DBC4A9",
"qX c #DBCAB2",
"wX c #FACCA6",
"eX c #F8D3A8",
"rX c #E8CAB1",
"tX c #F8C9BA",
"yX c #FCD4BA",
"uX c #8C93D9",
"iX c #AB91CE",
"pX c #B2AAD3",
"aX c #8A91EE",
"sX c #93ABF4",
"dX c #B5B4FA",
"fX c #D1B0CE",
"gX c #EBBCCD",
"hX c #D6B4F0",
"jX c #AFCCD7",
"kX c #B8C9F2",
"lX c #D3CDD0",
"zX c #FACAC6",
"xX c #EBD2CC",
"cX c #EACCD9",
"vX c #F9CAD4",
"bX c #F9D6D4",
"nX c #D5E8D0",
"mX c #FBF1D4",
"MX c #CFC6E5",
"NX c #D9DCFD",
"BX c #EACEEC",
"VX c #D2E3F2",
"CX c #E8E5E8",
"ZX c #FCEAE6",
"AX c #FDF7EB",
"SX c #E9E9FC",
"DX c #ECF3F3",
"FX c #FEFCF5",
"GX c #FAF6F9",
"HX c #FDFDFD",
/* pixels */
"H n f ` G G M h A W c c l ^ E #.,.V x g T N M ) o.o.I I ! b *.^ #.^ A S W b N T &.T N E ! ;.M ' ] T / g n ^ E ^ ^ O J ..Z c *.:.",
"g n n G ` d h G Z Z c c A ..E E #.V #.E M T E E ! o.Y U o.N ..E G H E ..x A E G M M U ( N N F T T Q M h N E d H ..H c V B W X.| ",
"g s G M n o / / #.W A ..=.c l E ( ! m E n M g x x ( Y b ! E A A M N ..A V ....n ~ g n ..N n M j h Q E E ( x d H ^ #.^ l c ..A =.",
"G ( N h / G v Q ..E E ,.*.B E N E ..s ( T h f N o.A b U V ! N ..x N #.K %.+.9.e.9.7.1.1.H x a ~ n E E ! &.*.c V E N ..c l E b &.",
"E ( T h v E M ;.=.c A *.B S #.l *.! g ( ( N ( x 4.V *.:.l W E W 9.w.= j.x.K.H.L.P.L.H.k.M.= $ _ E { c ..,.A z c =.V N ..N &.( Q ",
"N ) P g N ) g x =.d c W Z ..W ....A N ( E ( 4.W ! ..6.O.l W 9.q.M.f.f.f.L.~.).).).)._./.^.G.D.J.b.$ k A 6.S S X.=.! b n P ) T T ",
"b ( U x U ) N U ..V W W S ..V W b x d x b ..=.! | o.| V e.B.].J.H.s.{.j.k.Q.(./.(.).).).!.T.T.^.L.J.h.#  .*.c ..| ..( x E N M E ",
"U U b ( ) W W ! ..A E J l A ..W E ..E A ! ..=.V # * 9.w.z.U.G.^.L.[.dXoXg.H.^.!.!.!.).)./.Q.U.H.b.* 7._ W W | A U W ..-.E v ) n ",
"! ( l ! o.x x ! ! l ^ ..A Z W ,.,.E o.;.o.E l 9.z.U.b.J.G.Y.`.P.s.oXBXhXC.l.d.^.T.Y._.(.!.H.M.* 0.$.W ! W | X.c Y W ! 5.( ! ( M ",
"E ,.( ..x x ! ! n H #.~ m A { *.H A =.O.E b n w.D.Y.Y.Q./._./.D.a.iXbXbXhXV.k.G.G.W.Y.Q.h.Z.+XH ( ( c ..c | O.V W W ..A n N A ..",
"H E ( W V O.O...x s g H A A W V x ( U b v E N w.D.R.!.!.!.!.T.d.B.fXtXtXgX.Xl.G.T.Y.Q.z.OX .l x ! ( ! ! N E U Y Y V A V n d V ..",
"m l W ! =.=.W ..s a n ~ l l W V l N A E &.b E OXU._._.(.!.~.T.J.A.pXfXgX2XhX{.P.Y.`.D.|.r.W c l ( ! &.*.E ..E B { A E E ( *.E A ",
"n A W W ! U ..( E n G ~ G N Y W g l n ( Q x e.n.U.(.(.).(.(.R.T.H.[.C.iXfXhXaXk.G.Y.P.[.#XdXr.( E E U U =.! ..l V ..W J ..*.A | ",
"N A Y Y x I | W -.g l N ~ ! U c m #.n E v Q q.d.Q._././././.R.R./.P.l.v.v.V.}.K.^./.^.L.l.M.Z.#X2.N n E E ~ W m H W c A *...! U ",
"H N X.O.c I c W / M ' ~ N ~ :.O.m H E N Q 9.b.^.!.`./.!./.!.R._.).(.P.L.L.I.L.P.Y.W.Y.!.~.L.L.z.Z.OX0.E m N H H ^ Z *.J E O.| U ",
"~ W ..:.O.! c E E n E m N b O.5.#.x &.E N 7.J.Y.!.P.H.J.].].J.P.~.`.R./././.!.`.'.E.R._.(.).R.!.G.z.n.* 9.N O H W m J c c b b U ",
"H m W ..=.W c c ! ! d l A ! O.W *.! x s N w.H./.P.K.|.kXSXNXdX}.H.(._._.E./././._._._./._.'./.R.T.T.P.J.n.7.A W #...! c ( l ....",
"K k H ..A n ! ^ ^ H W ..W =.l ..*.N s b ..* L.Q.z.aXGXHXHXHXHXNX[.P./._.'._.R.R._./.(.(.R.E.R.R.R.R./.!.G.m.7...A ( ! n W N ....",
"` k ( ! x W ,.J #.l ! A c o.U *.A A N ( ^ & K.k.a.NXHXHXHXHXHXHXaXJ.Q.).).)./.'._.R./.).'._.E.W.E.'.!.!.^.G.J._ c W A W ..*.A c ",
"K l &.E N ( A m Z W ( ! U N ! ( Z ..( E ! % g.@   SXHXHXHXHXHXHXsXd.P./.).)./._._.'.'.!.!.!.Q.P.G.z.m.b.b.b.b.a.D c A d *...A V ",
"O g ( x P P g E m -.~ E g N #.x V X.4.Y c # S.%   lXHXHXHXHXHXGXaXF.^././._.R.R.'.R./.(.P.H.M.n.OXw.e.r.2.1.%.#._ ( &.g ! ! U &.",
"g n Q b x v ( ( g ' N d P ( x l O.| Y Y | # MXN.  nXHXHXHXHXHXHX$XJ.^.!.R.`.W.W.W.E._.Q.I.}.-X_ E E d n A ( U ..5.! ( ) x 5.E f ",
"-.E ! ( W x ( ~ ~ x E A ..N s E O.| ! ! Y = CX;X# DXHXHXHXGXHXGX{.J.~.(._.W.W.R.E.'._.Y. XsX6XM M v / d N ( ! Y o.E ! b v ( s b ",
"R / E V *.A M T ` M H ..#.! h N ^ { U U =.i.ZXZXmXFXFXFXHXHXFXpXS.{.K.~./.R.Y.W.'.E.E.!.H.x.#XjXE n 5.N l A U | U c o.W b N g =.",
"M ( A Y X.x f R T T ^ m ..*.L N ..A x ! 5.  u.3XqXxXZXZXZXxX0X0XrXcXoXx.P.`.Q.Q.~./.'.W.Y.P.J.M.w.H &. .c { S { S X.! ,.c c V E ",
"j h W Y | b f ` j n ^ &.! E T E ( E N U #.x u tXzXxXfX2X2X,X0XeX9XtXBXV.K.H.K.[.l.H.G.'.W.R.T.U.b.q.#.*.X.{ X.=...:.W *...Z $. .",
"/ E U ! c x T j M n G E ( b ( ( U A E N A A d rXzXvXvXvXyXwXwX9X9XtXBXS.a.aXNXNXpXA.z.G.!._.Y.^.I.j.7.H E c X.S { W E A ......H ",
"E ..,.| V o.x E n G N A N n N N W W b N A H O m qXvXvXzXeX9X9X9XeXtXgXN.*XGXHXHXHXSX#X[.K.H.U.Q.~.L.% ..^ c =.:.W V l V ..W ..A ",
"N W Y | :.4.E G g x #.n l s U N &.N N b U ! ! ( -.0.zXyXeX9XwXwXwX3X,X.XlXHXHXHXFXHXSXMX.XC.v.x.L.U.k._ ! x E =.A E d l N E E A ",
"b c | | Y W ~ M G N ! c V Y W ( ,.o.-.! ( o.! O.b E P ,X0XrX<X<X,X:X,X2XlXHXGXHXHXHXCXcX2XcXfXA.n.= = _ x x ! W W =.N x A ..n E ",
"x b | } } X.b n ~ / ..B <.O.Q Q v W v U ! N E E g x U W &X;X&X,X<X4X<X3XlXHXHXHXHXDXCXlX3XyXtX&Xe.` G N c E X.V W W l W ..H A H ",
"b V C <.O.X.v n n ~ $.[ } Y E ) ! b b b Q x E A ~ x E ( =.0.2X0XwX<X<X4X2XAXHXHXHXHXNXpXfXgX2Xr.%.T n ( ( ..W ,.A l b ! ^ *.*.J ",
"x V { O.c ( U E o l } } B S N N U x N N N g E ..^ E W ..2.6XqX0XeX<X<X4X:XcXHXHXHXdXuX{.v.v.V.= 9.T x W ,...A ..N h M / ! ..W { ",
"b | X...N ( E g b l B $.>.W N E n n A ..&.E E H W ....7X0.FXxX0XeXwX4X4XzX2XfXpXA.j.z.I.L.L.F.h.e.( x W ..Z H E M g M M ~ W W A ",
"U U ..c N P &.-.) W { { >.W H n N g l #.( g E E *.E l jXnXFXZX2XwXwXyXtXvXBXpXa.f.U.U.D.L.J.F.z.7.%.E ..A E E ~ N a ( E N &.A A ",
"I U ..n x ( E -.( U c W  ...N N N b E N N n l ..*...b VXnXAXAXrXrXzXtXbXcXBXuXh.U.D.J.{.$XuX$Xj.$ 9.&.&.! ..E &.n n E E m ! g E ",
"I W ! ..N ..s v v N o.,...E x G &.&.=.~ N h n c Y W O.5XCXFXFXAX2XxXcXBXBXiXK.U.J.{.sXr.( -.T -X+ ..! E E b b &.( H H N g n x ( ",
"( b x A *.W g v E N ( ( ! *.( E &.b ! ( h N ( N c c o.W lXnXDXGX*XN.iX*XN.c.I.G.J.aX..c A ! ] K H ( n x E o.! E =.! ^ g E N v -.",
"o.x g g =...E x U N E 4.x ( A l N ( ( ! h N E c V | o.o.0.lX7XjXV.g.a.N.fX=Xx.U.J.aX..B l *.n n N N E n x o.( ! ( H E N ~ N / T ",
"! N b E J H x ] N x Q E g c *.m b E O...f v g ! ,.o.=.o.{ A A @X].H.V.hXBXBX}.H.H.|.c c l H H G E ( N x A O.W A b n E ~ n &.N N ",
"U l &.N m l E ;.U o v h A E ..( b b ( ( v h x *.O.V | Y A ..W +Xd.J.}.;XcXBXaXz.H. X9.! E ..H #.G ( ( d V V l b b N N M M f N E ",
"O.A ! E c *.~ &.E A f v x #.Z ^ A o.A N &.) U b V U b c | { ! +X].J.j.r.i.&XjXV.H.[.hX&.*.^ H H N ] E l l V E x ( / f j T s A &.",
"=.W ! n H *.^ n ! ..N v x ^ W W A ( ! &.g ] ;.N c b b A c ..W n }.l.J.{.%Xc z A.J.k.uXA W ..A H / M n ^ $.c ( ~ N ~ M T / x ( =.",
"W Z V x N ~ #.A ^ A ! o.A x H *.E ~ ! ^ n M ( ~ ..x E E *.E n x +Xv.k.h.-X7X%.pXx.d.Z.5X! H A #.G T N ( ^ E x ( T n / / E g V ..",
"X.J W N N N ( #.A x A ! -.( N m l &.m g ( N E N A b U A ..c l N A S.a.#XSX7X%X~ C.h.h.sX*.H l m x E ( E H N d / ~ f R M ~ ! W Y ",
"{ z V E h v x ( d N =.( N ( ^ N n m W x h ' &.N ! ..N x A ,.m N ..%XpXSXHXFXu.1XiXa.M.Z.jXH H H x N ( x N n / ~ n F ' g N U | S ",
"} [ A ;.h j s A E E E *.g P ! *.( H l ( G f -.N x ..( l E ..g #.....5XHXHXZXr X 1XMXNXSXlX;X( m #.N N N j f T / F n n d b ! O.Y ",
"{ { E &.L a N E o.E c ..;.N N ..m ! l ;.N g x H d E N E N ( ~ P O.W i.GXAX:X, . X bXFXDXCX7X%Xg E ! *.( n n T M G E ' A l X.:.A ",
"A c O.E N x ..{ E d ..:.( v E c c c ....l E ! A l ! E ( ( -.( ) P o.i.p >X< - . X bXFXCXDXDX%X` h P Y c ,.W L v M ( W { V ! W c ",
"A E =.U A b B W N A A =.E N d E *.A A | W A E &...x N N v Q g ( o.Y t.> > > , X X zXZXGXFXGXr.0.v v O.>.X.c x E x b c X.*.Y W W ",
"..( ,...E ! c W &.! l ( &.E l ..U =.=.{ { c W E ( g H x N s M v P $.r < >XgXbXvXu t XX>X>XXXp y &.b :.*.{ A l N x ! V ..X.V W 4.",
"E Y W W &.o.x ( P P A ! ( A ^ ..A ..O.....V H n m E ( H E x N N +.y < : t zXGXGXZXp > < - : 6 < @.x ( E ..O.W g A O.W b O.A W *.",
"W l x W &.) P N M n / 4.^ c A J ..E N A ( E H E l #.N n E n K t.w 8 5 6 : t bXGXFXbXt < 6 2 2 8 e Z A ! E W 5.A ! ! ! l =.c V W ",
"Y | ..! U g x / / x N &.( m H W ! ..E x n ( H A m H n f M 8.e 8 q 0 1 1 5 : p ZXAXAX<X> ; 2 3 7 < 3.E U n *.*. .E W ! N ..W V | ",
"X.=.O.b l x L v m m E g c Z #.^ E W E N x A N n H n ( n K e 7 0 0 3 7 3 2 : < :XrXqX,Xp.; 1 3 q 6 t.&.N N *.z B A E A ..O.*.Y V ",
"B =...l l ..( N H H / x l m m n ! x E &.x g E ( N ~ ;.m @.< q 9 q 7 3 3 3 4 ; p.8X8XrX<Xw ; 3 6 8 e &.P l l l Z W b A E ..C Y V ",
"Z { A E z z A ..J Z x g E m s M b x ! =.N x ~ M n n ;.+.e > : : 1 4 9 9 9 4 ; p.eXmXmXyXi 8 < > , +.N E x l W #.n U ! ..| Y O.Y ",
"*.Z ..$.J z ....$.z x N x h M v b ! b ! U o.-.g N N &.N y.@.y r < < 6 7 7 8 > r 8X&X&X,Xp p u @.<.m N ( x ! =.&.d ( ..W X.{ Y Y ",
"A ....$.J {  .A >.$.m E ' M -.&.U 5.A ! ( ! U b N E Q N Q N I $.2.y.:X>XXX:Xi.0.2.` 0.0.3.%.N &.g H H E d E ( N x ..5.{ C | b v ",
"H W l ..c  .>.J S  .n ( ( v ( v ..W W ( U n N ..g E ) b -.o.| A A A z J A ..N / v h ( ..m g ( / G ^ g x l g H ^ n ( X.Z c Y b I ",
"( N N N ! E <.W V A n ! b ! b E ..A *.| n n E ;.h N o.=.O.! I ! =.z k ..E m N N N &.n N H g G H G E ( &.( g N -.A V c V x V O.( ",
"( N / -.n ( ..E N g A *.! ! U W A W ..S m m d N M h ~ =.c l b o.H Z J *.l N ..g ~ N d n n s H A d H ;.N ~ T M ^ ..c E N d ( =.Y ",
"M n T T T g E &.T / U W =.c V | X.Z V W E #.N n n d ~ d E b :.! Z m m #.g m ( ( ( l N N &.m ..H k H ' f j R n H $.S ..x b -.A { ",
"h n M T j f &.N T ) A Y W c c W { z c m N ' ~ ' H E M s E I *.,. .$.~ l G ( ( ! =.! x / ~ *. .Z $.^ n f j ] &.l $.B b P ) Q A O."
};
