/* XPM */
static char *_83d1bbbb8704671b6949322e5567559[] = {
/* columns rows colors chars-per-pixel */
"64 64 254 2 ",
"   c #130C15",
".  c #7A1816",
"X  c #762416",
"o  c #0D7E00",
"O  c #137D00",
"+  c #3C733F",
"@  c #6A5D24",
"#  c #76652B",
"$  c #641F77",
"%  c #377F50",
"&  c #3A6772",
"*  c #494D4D",
"=  c #4F5872",
"-  c #5D6E68",
";  c #910D14",
":  c #881618",
">  c #99141B",
",  c #BA1B18",
"<  c #BA221F",
"1  c #8C1A23",
"2  c #AF1A26",
"3  c #913030",
"4  c #B32A30",
"5  c #D7131C",
"6  c #E01C1E",
"7  c #CF251E",
"8  c #ED221E",
"9  c #C81727",
"0  c #DA1924",
"q  c #EF1D25",
"w  c #D12B31",
"e  c #E62729",
"r  c #EE242F",
"t  c #9D4935",
"y  c #AE2E53",
"u  c #A32963",
"i  c #D32843",
"p  c #8C4B4A",
"a  c #AF494B",
"s  c #A46753",
"d  c #AA5E66",
"f  c #B66F6A",
"g  c #C74E4E",
"h  c #D76D5B",
"j  c #0C8100",
"k  c #148500",
"l  c #1B8600",
"z  c #158A00",
"x  c #1C8C00",
"c  c #1D9302",
"v  c #1D9906",
"b  c #228602",
"n  c #228D01",
"m  c #2A8D01",
"M  c #249303",
"N  c #2B9504",
"B  c #259905",
"V  c #2B9905",
"C  c #249509",
"Z  c #2B950A",
"A  c #259A0B",
"S  c #2C9C0B",
"D  c #339506",
"F  c #329A06",
"G  c #389906",
"H  c #31960C",
"J  c #339C0C",
"K  c #399D0E",
"L  c #3C8F19",
"P  c #299810",
"I  c #2C9D11",
"U  c #349D12",
"Y  c #3A9E12",
"T  c #359F1B",
"R  c #26A20E",
"E  c #2EA10D",
"W  c #30A007",
"Q  c #34A10D",
"!  c #39A20E",
"~  c #2DA313",
"^  c #2EA81A",
"/  c #34A313",
"(  c #3BA414",
")  c #36A915",
"_  c #3CA916",
"`  c #34A518",
"'  c #3CA519",
"]  c #35AA1A",
"[  c #3CAB1B",
"{  c #3DB11C",
"}  c #359726",
"|  c #3B953A",
" . c #38A723",
".. c #3DAD22",
"X. c #3DB323",
"o. c #459315",
"O. c #42A515",
"+. c #4BA617",
"@. c #42AA16",
"#. c #41A61A",
"$. c #43AC1C",
"%. c #4AAD1C",
"&. c #44B11D",
"*. c #4AB21E",
"=. c #4B983B",
"-. c #64983D",
";. c #48A526",
":. c #43AD21",
">. c #4BAC23",
",. c #44B323",
"<. c #4BB423",
"1. c #4CB825",
"2. c #48B828",
"3. c #4CBB2A",
"4. c #51BA25",
"5. c #55B829",
"6. c #52BC2B",
"7. c #52AD33",
"8. c #63B638",
"9. c #4BC02B",
"0. c #55C12D",
"q. c #5AC634",
"w. c #68CF3C",
"e. c #389642",
"r. c #4A8E4E",
"t. c #5AA950",
"y. c #6AA746",
"u. c #6DB153",
"i. c #548C75",
"p. c #62A068",
"a. c #6DB06D",
"s. c #7AC668",
"d. c #B49E77",
"f. c #88B16F",
"g. c #D19273",
"h. c #E38A74",
"j. c #1A1C81",
"k. c #252D93",
"l. c #1F2BBA",
"z. c #3A39AA",
"x. c #2929B8",
"c. c #332DB0",
"v. c #2832B7",
"b. c #3739B5",
"n. c #471D8B",
"m. c #4D3092",
"M. c #5130AA",
"N. c #334E94",
"B. c #364BAD",
"V. c #3647B8",
"C. c #494C8E",
"Z. c #506994",
"A. c #504FB6",
"S. c #6D4CB3",
"D. c #586DAB",
"F. c #746AB2",
"G. c #1E27CA",
"H. c #1B33C5",
"J. c #1C29D7",
"K. c #1D32DA",
"L. c #2729C6",
"P. c #352BCD",
"I. c #2833C8",
"U. c #3836C8",
"Y. c #282CD7",
"T. c #232CDB",
"R. c #2734D8",
"E. c #3335D9",
"W. c #1B29E5",
"Q. c #1B2CEB",
"!. c #1B31E9",
"~. c #1C2DF5",
"^. c #1928F8",
"/. c #1D2DFB",
"(. c #1B32F5",
"). c #1D32FB",
"_. c #272CE7",
"`. c #232CEC",
"'. c #322FE1",
"]. c #2833E8",
"[. c #3136E5",
"{. c #232CF4",
"}. c #292AF7",
"|. c #232DFC",
" X c #2833F7",
".X c #2331FC",
"XX c #433CC5",
"oX c #403EE9",
"OX c #3747CE",
"+X c #3144E3",
"@X c #4F53D1",
"#X c #665ACA",
"$X c #6E6FCE",
"%X c #5862E3",
"&X c #646FF1",
"*X c #8C71A4",
"=X c #C67696",
"-X c #8A6FC9",
";X c #857AEB",
":X c #68989A",
">X c #79B08E",
",X c #6F8EB6",
"<X c #6A84CE",
"1X c #7084EE",
"2X c #9A8D8B",
"3X c #9EAB9B",
"4X c #9195BB",
"5X c #A590B2",
"6X c #D28C92",
"7X c #DAB796",
"8X c #E6BA94",
"9X c #CD9FB0",
"0X c #CDB1AC",
"qX c #F3B7B0",
"wX c #8BC495",
"eX c #ADCEAC",
"rX c #F4CA99",
"tX c #CBDDA7",
"yX c #F8C8AA",
"uX c #FCD5AB",
"iX c #F6C5B8",
"pX c #F0D1B0",
"aX c #F1EEB5",
"sX c #9190D1",
"dX c #AD95D4",
"fX c #9FA0DA",
"gX c #8E92F0",
"hX c #97A5F4",
"jX c #B4ADF0",
"kX c #AAB9FF",
"lX c #CAB6D0",
"zX c #EDB7C9",
"xX c #D3A3E5",
"cX c #CDB6F3",
"vX c #A6CAC7",
"bX c #D7CFC9",
"nX c #E8CAC7",
"mX c #F7C9C8",
"MX c #F7D5C6",
"NX c #E6CAD6",
"BX c #F0D2D4",
"VX c #FBD6DC",
"CX c #FFFBCA",
"ZX c #FFECD9",
"AX c #C8C5EB",
"SX c #D6D6FA",
"DX c #E8D0EF",
"FX c #D5EAFF",
"GX c #F8E9EB",
"HX c #FDF6EC",
"JX c #E9E9FF",
"KX c #F2F1F8",
"LX c #F9F7FB",
"PX c #FDFDFE",
/* pixels */
"U C z  .P I A c J ( N N n ' / :.6.S M x ~ S A { &.&.W W _ V 2.' :._ F K ( V S ~ ,.~ S / _ 2.C ..X.~ ] x C ' / ' ' O Y $.H N 1.4.",
"x C C I  .l v I Z H N N J $./ / ,.F :./ A ~ ` / _ &.Q Q &.S $./ S U / $.M J / I A A Q [ S S A ~ ~ ) A c V / l U $.U N F F ( %.@.",
"x k I A C o ] ] :.( J $.<.D n / [ / Z / C A x M M [ ! N _ / J J A S $.K F $.$.C ` x C $.S C A v c ) / / [ M l U ' :.' n N $.J 1.",
"I [ S c ] I B ) $./ / 6.<.D / S / $.k [ ~ c z S &.J N Q F _ S $.M S $.N ! F J [ / S ( _ C M j ] C / / _ ,.<.N F / S $.N n / V ,.",
"/ ] ~ c B / A 3.1.N K <.D K :.n <._ x ] [ S [ M 0.F 1.4.n ( / ( Z $./ b f.cXjXhXgX1X;XgXgXjXcXT / ( N $.5.K m N <.F S $.V ,.[ ) ",
"S [ E x S { x M 1.l N ( F $.( $.$.J S [ / [ 0.( _ $.w.*.n ( S M b wXfX-XS.A.b.I.I.L.Y.P.P.c.@XD.:Xt.b K w.K K %.1._ V C E { ~ ~ ",
"V [ Q M Q { S Q $.F ( ( K $.F ( V M l M V $.<._ @.*.@.F _ ( u.4X1XOXc.x.U.Y.J.`.].`.}.}.[.'.T.K.K.OX:Xt.O.<.N $.@.$.[ M / S A / ",
"Q Q V [ { _ ( _ $.K / Y n J $.( / $./ J _ $.1.F F.sX>X! wXgXA.b.l.OX@Xx.G.Q..X|.|.|.|.|.{.{.{.`.`.E.x.C.p.>.@.K Q ( $.2./ B { C ",
"_ [ M _ &.M M _ _ n ' $.J H ( 5.6./ &.3.&.( n u.A.I.@X1X@XR.T.Y.L.#XcXF.x.W.{.|./.|.|.^.|. XJ.I.B.Z.- r.=.@.%.N ! ( _ q.] _ ] A ",
"/ 6.[ $.M M _ _ C U :.` Z J O.<.U J <.&._ V C u.XXT.K.].W.{..X_.x.sXDXNXA.L.`./..X^.{.].Y.I.A.i.t.:.N $.N @.*.F ( ( $.J C S J $.",
"U / [ ( F *.*.$.M k x U J J ( F M [ / V V / S a.@X_.].J.{.{.|.G.A.xXBXmXxXM.Y.~.^..X_.L.Z.p.n M _ ] _ _ S / Q K ! F K F C l F $.",
"Z n ( _ <.1.( $.k j C ` n n ( F n S J / ,.V S kX+X`._.`..X~.{.Y.#XcXzXzXxX-Xx.W.).Q.R.,X$.( n n _ _ &.2./ $./ D O.K / / [ <./ K ",
"C J ( ( _ Q $.[ / C I ` I S ! ( x n C [ ` M wX%XR.Q.{.Q./.~.{.}.E.@X-XdXxXxX@XT.!.!.@X>X;.( 2.] / / / Q 1._ $.n F $.( Y $.<.K @.",
"S J ! ! M W @.( 2.x n S ` _ Q N Z :.C / B ) gXH.!..X.X.X)..X~.{.`.Y.U.z.S.;X&XG.Q.Q.R.B.Z.p.7.[ S S C / / ( ( Z U ( N K <.$._ Q ",
"U S %.*.N W N ( ] A ..` S ` 4.*.Z U / S ) vX@XQ.(.~.~.{.{.|.~..X XW.W.!.T.'.'.]..X.X}._.Y.v.Z.a.$.x [ / Z H U U ` H <.Y / *.@.Q ",
"` ( $.4.*._ N / ` C / Z S V *.q.:.C ,./ S hX[././.(.].T.Y.R.K.!.W.(.)././.|.`.}.|./.|.|.|..XT.v.Z.=.M l [ J O U ( Z U N N V V Q ",
"U Z ( $.1.( N N _ _ l n J _ *.( 2._ M k S gXJ././.!.I.@XgXhX1XOX!.)..X|.|.|.{.{.|.|.~.|././.`._.R.I.& n :.S J ( :.$._ N [ n $.$.",
"T x U $.K C _ ' ' U ( $.( <.n $.<.S k V _ <XR.{. XR.1XJXPXPXKXkX+XQ. X}.|.|.~..X|.|.|..X.X/.{.Q. X`.R.N.r.J ( $.K [ _ C ( S $.$.",
" .n [ _ M ( 6.Y :.n _ J N &.Q 1.J J S [ Q sXx._.l.%XJXPXPXPXPXLX&XK.].{.|.|.~.).)./.|.{.~.(..X.XQ.{.}. XH.% ( N N ( K ( $.<.K N ",
"T n ,./ S [ J Z H ( [ _ Q S _ [ H $.[ / _ fXk.b.j.C.PXKXPXPXPXLXgXR.].`.|.|./.(.(.~.|.|.Q.Q.~.`.].].`._.R.v.& / m N K l <.$.K F ",
"O x [ M E E x / Z 2.` / x S :.M F %.0.! N 5XC.sX  * KXPXPXPXPXPXgXI._.{.|.|./.~.(.Q.|.|.}._.`.R.v.V.B.B.Z.= = - S [ ,.x _ _ Q ,.",
"x C ` V M B [ [ x ..S l E ] M n *.@.! ! >.2X= SX  * HXPXPXPXPXLX&XG._.|.|././.).).(..X_.P.U.A.D.,Xp.} P J [ Q $.q._ [ { M q./ z ",
"2./ _ [ ( M [ ` ` M / J $.V k / *.@._ _ >.2X= KX* * LXPXPXPXPXSX@XT.{..X~./.|.|.^.~.`.U.$XfX7.A A B ] z S [ _ ! &./ _ V B [ k V ",
"^ ] Q F 1.J A ~  .A U $.:._ c S ' O.Q Q eX3XlXPXbXbXPXPXPXPXGXlXA.U._.{.~..X|.|..X~.W.E.gXa.I ` ` C q.S n J Q $.Q N &.) V S x 1.",
"A [ J ! %.M z ^ ~ ~ ' Z $.2.R S $.K M >.3X- 2X9XiXMXHXLXLXGX0XiXNXsXXX_.`. XW. X(.~./.{.[.&XvX] S V ,.' N O.K O.K %._ 6.N N F / ",
"v c ( ! @.V z  .v C ' ,._ / ~ ` ' / J t.+     d yXpXnXNXNXNXpXyXyXNXgXE.].}. XW.{..X/.|./.J.B.i.P $.' <.%.O.%.5.@.4.( 1.$.H %.#.",
"` / Q _ N M ~ v A C I / [ V [ [ Q J / S 7.J l 7XuXyXnXVXVXmXuXrXrXiXjXb.T.{.{.|.~.~..X^..X XJ.V.i.` l K / D %.K O.( / J $.$.$.K ",
"/ $.6.@.F &.M / C I S J S C S S ( ( N S J U O Z ;.pXMXmXmXMXrXrXrXMXsXz.R.`.|.|.|.|.|.`.J.Y.R.I.z.r.S [ ' N 1.4.( F n F $.( $.J ",
"S ( ! @.4.0./ I x M :.C n k Q V ,.S V V / _ _ [ 2.>.pXyXyXyXrXpXnX5XC.m.v.T. X|.|.}.}.oX;XF.Z.C.B.k.} S _ M / <.J / l n S / / J ",
"V N @.@.! ( ` A I S _ N F ! _ [ 6.&.2.) [ ,._ *.V / J 8XqXyXMX0X*X*X5XdX$XXXY._.T.Y.Y.P.gXt.7.=.} e.| S M M _ ( _ <.S M J $.C / ",
"M S @.+.+.%.V C ` ` $.D 5.*.) ) B _ B Q _ S / / x M / ( iXBXlX= 2XzXqXqXzX*XM.@X1X$XOXv.b.4Xb m I I I S M / *.F ( ( n ( $.U J U ",
"S J G 5.*.%.B C C ` >.O.+.! / { _ N V V ) M / J / M / [ <.%.jX4XNXiXqXqXqX9X-XSXFXFXkXA.z.A.u.` x ~ C [ [ $.( 6.J n V _ ' <.<.Y ",
"M F O.*.N [ Q / o n +.+.D K V V Q M S S S x / $.' / ( [ >.AXsXfXNXiXiXiXqXzXlXJXKXPXLXJXhXC.:XU k ~ M _ 6.$.K $.S c A ] _ $.( O.",
"V @.%.$.S [ / x V n D >.5.( S / C C K $.,./ / U ( $.$./ N B.z.A.sXlXVXmXmXMXBXPXPXPXPXPXPXfXN. .[ [ M ( $.K U / A x A A ` ( ( J ",
"Q Q @.N V E ,.2.{ ( O.O.5.( U C S x n :.[ x / / <./ n M J Y.E.P.c.#XdXDXVXnXHXPXPXLXPXPXLXJXz.} 3.V / $.J / / ` S j [ / S ,.K J ",
"W Q $.N M [ / ,.[ Q N ( #.$.S V S V / S S C n $.<.$.V / @.].}.}.[.L.c.-XcXDXLXPXPXLXPXPXPXJXA.% u.C &.,._ &./ ,.C C / / Z _ x / ",
"W ( _ $.S &.k B B V &.6.$./ C I ,.,.<.` S c C N ! ( *.*.1.L.}.}.Y.Y.E.I.@XjXSXPXPXPXPXPXPXs.} + r.:._ / / V V ,.[ U U S x C M [ ",
"[ N M J <._ x B / S [ [ _ <.[ / ,.V _ ] c S [ S N N &.( %.Z.Y.{.[.&X+XH.v.z.sXLXPXPXPXLXtXt.:.a.p.[ C M / &._ ( 1._ ' x / V B 2.",
"&.M x x 1.$./ M Q S / 9.n [ J n S [ [ _ c S / N F @.&.&.N K V.R.[.&XkXhX#Xz.b.gXKXLXPXHXf.1.C C S S / C M &.[ _ [ U / S ` S ] ~ ",
"_ S V / Y U M X.S M ) / x N <.Z V / *.$.z B x _ 6.&.1.&.O.H >XV.x.v.sXPXDXS.m.M.F.jXSXwXH J J S / [ S M J *.( J V C / ` C ,.S S ",
"Q n ,.V H n / 3.Q k B c J / $.[ V V [ [ B c M 2.*.F @.Q J $.( vXfXfXAXPXLX=Xy u $ m.D.a.( $.U :.I [ [ l F F n V V V S A A z V / ",
"*.K _ / N <.` ,./ J z B M :.H ' J &.J S ,.{ Q V F Q N N @.O._ u.PXPXPXHXzXg 9 i u $ m.>X<.' J U S X./ n n F / M [ ] z v ~ k J ,.",
"<.( _ C U <.' C _ $.S B M ' ( ( J [ _ ,.x X.3.S N V N S N $.( x GXPXLXqXa , 0 r i u m.,X7.$.J U ` A C ' >.N [ ` V ` A ~ ] M [ 1.",
"( H F C S ` :.J ' K _ &.J M U <./ ` _ _ C A [ ` $.M / / <./ C M 8.ZXqX3 < 5 6 q e y n.@XvXU J :.I ~ V [ ' / C ] ~ C ] ] / x F $.",
"%.Y ( S S S ] :.K M J _ 2.[ S Z n ,.Z x [ S ` V Q V Q J $.N n S F a 4 2 9 5 5 r e u M.x.,XU m H M / ] / U S l ] ` z ^ A ` _ ( ! ",
"O.m F / c B M [ l S 1.[ S ] ' S C Z ( C c ..,.S _ $.S M K 6.Z S >.1 4 w w 0 e w 4 =XS.c.,XwXU Y C S [ M S C ] ` C I ..x S Q @.K ",
"+.O.J 3.c v k J / / / <.x E _ 2.[ U n [ I z 2.S C $.] n / $.x :.>.f a g w w 7 , a zX4XsXAXf.7.Z :.S V S v z ~ ] P C C l V _ *.! ",
"O.O./ ,.R j V / &./ N $.3.S S $.Z _ n 3.S x C U l / S / J ] ` Q 8.HXZXqXh.h.h t f 9XGXPXLXVX-.x / _ 2.[ C C ~ A I / ..U n %.4.J ",
"K N *./ S M $.O./ l $.4.[ B / N N N $.$.n / _ K n _ / [ [ 2.[ { u.HXHXZXpXuXuXg.p p qXzX6Xa 3 #.c E / m 6.( S B A ] ( O.F _ ( N ",
"J / 1.K J V D ( S J J 1./ S l / <.J J @.( K / ,.$.M S V B ) x [ 6XqXZXMXpXCXaXpXg.X 3 3 3 > > 3 v B <.5.%.N M / M V N %.<.! ( ( ",
"$.[ 6.$./ _ N ( ,._ n [ ,./ n $.Q 1.1.O.O.N ( / [ x U n V k # w w w g h.uXCXtXaXuX3 : 1 > > > : { B 4.<.O.K n V M _ F $.%.F ( 0.",
"/ Q ( / ,.&.M [ E E J _ [ J ' $.J $.*.$.$.F U C Z U [ U / @ w q 8 6 7 4 h.8XaXCXCXs : ; ; > > : o.M [ / $.*.( x J *.( V *.J ( 1.",
"( n M ( ,.{ E S A C ] 0.' N J Y $./ S J ] / U / n ..I C # < 6 8 q q 6 , 2 3 7XCXZXd.. : 1 1 ; : o.M J _ / ( q.J _ _ _ n <.N F ( ",
"! @.$._ Q x M ] ] M S ,.[ Z U ( _ $./ M C ] U J Z U L @ 9 5 e e q r 0 , ; . f ZXHXnX3 1 1 . 1 # $._ / Q C <.<.#./ ( _ S $.( F @.",
"%.1.*.V n M R B Z Z / x N H :.' / / ( S N J S C I -.4 w q r 0 0 9 w 2 > : X p VXPXBXp 3 p s >.6.$.2.,.S S <.m D K / J $.*.1.! F ",
"D <.$.n n $.] V U U ` M n Z Z C _ M / ,.N x / [ S f.g w e e 2 4 y d a a a p p bXeXeX6X6X8.Q %.*.N ,.,.E n x n H ( V J / $.G ! F ",
"H O.J / m m J $.Y H C x / Z k A V M _ <.S M ` A C C d.h h h f 2XbXu.u.y.y.y.y./ S _ S N $.J J _ / M S / C n ( :.C Q _ $.@.! *.! ",
"<.H $.>.Y m :.$.>.m C S M c A B V _ N _ Q &.2.x S S ,.V u.u.( _ [ N Z b U / ` ~ S S ] x S / M V 2.Z S [ C _ 1.,.l [ $.( %.O.! ! ",
"K $.$.>.Y O.#.J 5.>.Z / ..A 2.,.Q q.J _ [ _ Q V S / ) S ) S Q @.K J K K ( <./ / S S $.J C / V ,.x U U U l / [ S M $.q.O.G @.V B ",
"U ( n $.N #.5.Y K #.N [ [ B [ B $.( _ [ Q C S $.x / { V 1.&.@.J H J m O.J $.V ] B c ] :.Z x [ ` S ' l C n x U _ C [ %.H N ! V W ",
"[ S S S _ / 6.( F J C _ V _ V / $.J 1.@.C C / 3.c R &.1.*._ W _ <.m b $./ Z S S S ,.C S U x I U S / ..,...x S 2.J F N F M F *.[ ",
"[ S ` 2.C ] $./ V x K 2._ _ Q ( J ( $.K Z Z l S A c ` 1.C n V &.U H Y <.n S $.x ` S z C C k U J l U 3.S ` ~ A ' $.N / S l [ 1.! ",
"A C ~ ~ ~ x / ,.~ ] Q ( 1.N F @.%.F F ( / :.S C A x ` l / V 4._ H Z H :.x Z [ [ [ n V S ,.Z $.U b U ..z v ^ C U >.K $.M V 2.J O.",
"c C A ~ v z ,.V ~ { J ! ( N N ( O.m N Z S ..` ../ / A k / W <.6.#.>.` n I ] [ _ 1.` M ] ` 2.#.H >.' C z v X.,.n >.D V E { ) J *."
};
