/* XPM */
static char *_e72454ae55e4d77bf5302feab85f421[] = {
/* columns rows colors chars-per-pixel */
"64 64 251 2 ",
"   c #1C201D",
".  c #0D7E00",
"X  c #137D00",
"o  c #255E2C",
"O  c #6B652D",
"+  c #1C2153",
"@  c #543860",
"#  c #325F57",
"$  c #356C70",
"%  c #504D4F",
"&  c #555E5D",
"*  c #A11F1F",
"=  c #BB161C",
"-  c #B51A2A",
";  c #96292F",
":  c #A9252A",
">  c #B72327",
",  c #B72634",
"<  c #AB3238",
"1  c #C8131C",
"2  c #CC261C",
"3  c #C51926",
"4  c #DB1B28",
"5  c #F51E26",
"6  c #DB2628",
"7  c #CE2B33",
"8  c #ED232D",
"9  c #E32929",
"0  c #974D37",
"q  c #B54D31",
"w  c #927038",
"e  c #CD4D30",
"r  c #9C3D47",
"t  c #B23341",
"y  c #C63A44",
"u  c #93585B",
"i  c #B14C4E",
"p  c #986E52",
"a  c #AF704D",
"s  c #BB5967",
"d  c #B07073",
"f  c #CC5252",
"g  c #D2745B",
"h  c #CE5565",
"j  c #D16E72",
"k  c #0C8100",
"l  c #148500",
"z  c #1B8600",
"x  c #158A00",
"c  c #1C8C01",
"v  c #1D9202",
"b  c #1C9807",
"n  c #218500",
"m  c #228D01",
"M  c #2A8D01",
"N  c #249303",
"B  c #2B9404",
"V  c #259905",
"C  c #2B9906",
"Z  c #249509",
"A  c #2B9509",
"S  c #259A0B",
"D  c #2C9C0B",
"F  c #339506",
"G  c #329A06",
"H  c #389906",
"J  c #31960B",
"K  c #339C0C",
"L  c #399D0E",
"P  c #2F8E15",
"I  c #2C9D12",
"U  c #2A9818",
"Y  c #339E12",
"T  c #3A9E12",
"R  c #349918",
"E  c #26A20E",
"W  c #2EA10D",
"Q  c #30A007",
"!  c #34A10D",
"~  c #3AA20E",
"^  c #2DA313",
"/  c #2EA81A",
"(  c #34A313",
")  c #3BA414",
"_  c #35A915",
"`  c #3CA916",
"'  c #34A519",
"]  c #3CA519",
"[  c #35AA1A",
"{  c #3CAB1B",
"}  c #3DB11C",
"|  c #278524",
" . c #38A821",
".. c #3DAD21",
"X. c #3DB223",
"o. c #41A515",
"O. c #4BA617",
"+. c #42AA15",
"@. c #42A61B",
"#. c #43AC1C",
"$. c #4AAD1C",
"%. c #43B11D",
"&. c #4BB21E",
"*. c #549724",
"=. c #4A9334",
"-. c #43AE21",
";. c #4AAD22",
":. c #47AA2D",
">. c #44B322",
",. c #4BB423",
"<. c #4CB926",
"1. c #48B828",
"2. c #4CBA2A",
"3. c #51BA25",
"4. c #55B829",
"5. c #52BC2B",
"6. c #50AA33",
"7. c #55A935",
"8. c #56B833",
"9. c #67B338",
"0. c #4BC02B",
"q. c #55C12D",
"w. c #5AC634",
"e. c #68CF3C",
"r. c #569456",
"t. c #58AB49",
"y. c #6CB14E",
"u. c #4F8C6B",
"i. c #6F9863",
"p. c #75B46A",
"a. c #74C655",
"s. c #859346",
"d. c #A4976A",
"f. c #92B169",
"g. c #D69271",
"h. c #E69E73",
"j. c #8ACE71",
"k. c #29359A",
"l. c #312FAC",
"z. c #292ABA",
"x. c #2935B8",
"c. c #3636B7",
"v. c #483D97",
"b. c #4A35AA",
"n. c #344994",
"m. c #3546B1",
"M. c #5B4F98",
"N. c #725A91",
"B. c #56778C",
"V. c #567D95",
"C. c #5551B1",
"Z. c #6754A8",
"A. c #716EB5",
"S. c #1C2FCC",
"D. c #1B28D9",
"F. c #272BCA",
"G. c #3529C5",
"H. c #2935C6",
"J. c #3536C8",
"K. c #262AD6",
"L. c #232DDC",
"P. c #2934D7",
"I. c #2332DC",
"U. c #3430D9",
"Y. c #1C2AE7",
"T. c #1C2DED",
"R. c #1B33E8",
"E. c #1928F6",
"W. c #1D2CF4",
"Q. c #1C2DFC",
"!. c #1E32F8",
"~. c #272BE5",
"^. c #222BEC",
"/. c #2633E8",
"(. c #2427F5",
"). c #232CF4",
"_. c #242CFB",
"`. c #2A2DFC",
"'. c #2332F3",
"]. c #2B32F3",
"[. c #2332FC",
"{. c #2A32FC",
"}. c #3337F0",
"|. c #4339CA",
" X c #473CD3",
".X c #3645D1",
"XX c #4E51CC",
"oX c #6C5CCC",
"OX c #5966DD",
"+X c #6F70CD",
"@X c #4F4FEF",
"#X c #7672ED",
"$X c #816F9F",
"%X c #8673AC",
"&X c #C66E83",
"*X c #8371D0",
"=X c #856CEC",
"-X c #619A85",
";X c #75A68A",
":X c #6B88A9",
">X c #7682CC",
",X c #7787EF",
"<X c #B59A94",
"1X c #89B28A",
"2X c #AC8EB0",
"3X c #9BAAAF",
"4X c #D89E93",
"5X c #EC908B",
"6X c #C8B2B1",
"7X c #F9B2B0",
"8X c #A0C59F",
"9X c #F7CC9D",
"0X c #D8C9A8",
"qX c #C6CCB9",
"wX c #EBC8A9",
"eX c #F5C9A7",
"rX c #EBCDB4",
"tX c #F3C8B9",
"yX c #FAD4B5",
"uX c #C7E5B8",
"iX c #F7E9B2",
"pX c #9091CF",
"aX c #B094D3",
"sX c #8FB2CF",
"dX c #B5B9CF",
"fX c #BDA7D8",
"gX c #918FEF",
"hX c #A697EE",
"jX c #B2AFF3",
"kX c #CEB3D1",
"lX c #CBB4EC",
"zX c #E2BEE2",
"xX c #B0CBE1",
"cX c #D5CAD5",
"vX c #E9C7C6",
"bX c #F7CDC8",
"nX c #ECCCD9",
"mX c #F6CCD4",
"MX c #E8DADB",
"NX c #F6D8D0",
"BX c #ECEBD5",
"VX c #D5CCF3",
"CX c #EED1EC",
"ZX c #DAE1E0",
"AX c #F5EDEF",
"SX c #FBF5EA",
"DX c #E8EBF9",
"FX c #FEFCF5",
"GX c #FAF4F9",
"HX c #F5FCFE",
"JX c #FDFDFD",
/* pixels */
"R Z x  .I I S v K ) B B m ] ( -.5.D N c ^ S S } %.%.Q Q ` C 1.] -.] G ! ) C D ^ >.^ D ( ' 1.Z ..X.( [ c Z ] ( ] ] X T #.J B <.3.",
"c Z Z I  .z b I A J B B K #.( ( ;.D -.( V ^ ( ( ` %.~ ! %.D #.( I Y ) #.N K ( I V V ! { D D S ^ ^ _ S v C ( z Y #.Y B G F ) $.+.",
"c l I S Z . [ [ ;.) K #.<.F m ( { _ A ( Z V x N N { ~ C ` ( K K V D #.L G 6.:.Z [ c Z #.D Z S b v _ ( ( { N z Y ] ;.] m B #.K <.",
"I { D v [ I V _ #.) ) 5.,.B ) D ( #.l { ^ v x D %.K C ! G ` D #.B xXhXA.A.C.C.oX+X>XpXfX3XU k [ C ( ( ` >.,.B G ( D #.B m ( C >.",
"( { ^ v V ( V <.<.B L ,.F L ;.m ,.` c { { D { N 5.G &.3.m ) 6.sX,X.XH.F.F.F.I.D.P.F.F.J.n.B.u.t.6.) B #.4.L M B ,.G D #.C >.{ _ ",
"D { W c D } c N <.z B ) G #.) #.#.K D { ( { q._ ` #.e.&.M ;XoXH.F.L.].~.K.D.)._.W.)._.).~.F.x.n.$ r.P L e.L L $.<.` C Z W } ^ ^ ",
"C { ! N ! } D ! #.G ) ) L #.G ) C N z N C #.t.r.+.&.+.1X+Xc.U.~.~./.F.J.#X|.~.`._.[.).(.)./.P.n.# r.y.K o.,.B #.+.#.{ N ( D V ( ",
"! ! C { } ` _ ` #.L ( T m K #.) ( #.( K ` #.u.l.r.@.sXXXH./.^.).^.K.l.gXVXoXK.`.).T.'./.L.H.V.p.J #.L J ) ) +.L ! _ #.1.( V } Z ",
"` { m ` %.N N ` ` m ] #.K J ) 4.5.( %.2.%._ $ P.m.:X.XD.].T.'.T.R.z.A.VXCXaXG.^.T.R.R.S.OX;XD D #.` ) +.) +.$.B ~ ) ` w.{ ` { V ",
"( 5.{ #.N N ` ` Z R -.] A K o.,.Y K ,.%.( C $ D.K./.T.Q._._.!.T.R.J.jXCXCXlXG.^.'.R..X,X@.) Y Y { { B #.B +.&.G ) ) #.K Z D K #.",
"Y ( { ) G &.&.#.N l c Y K K ) G N { ( Z C ( $ S.D.T.Q.Q._.`.Q.[.T./.#XgXjXjX@XL.).D.OXp.o.L m N ` { ` ` D ) ! L ~ G L G Z z G #.",
"A m ) ` ,.,.) #.l k Z ] m m ) G m D K ' >.D $ S./.!.E.Q.`.`.(.W.).].D.F.c.XX}.~.)./.F.oX;X@.N c { { >.<.( #.) F o.L ) ) { ,.( L ",
"Z K ) ) ` ! #.{ ( Z I ' I D ~ ) c m Z { ' N $ K.T.!.!.[.W.(.{.).).{.`.].P.L.^.(.[.^.~.F.J.A.t.{ ( ( ( ! 2.` #.m G #.) T #.,.L +.",
"D K ~ ~ N Q +.) 1.c m D ' ` ! B A -.Z ( V _ $ ~.'.T.T.L.P.F.F.L.^.W.(._.(.)._.[.W.W.[.).].F.n.-X( D Z ( ( ) ) A Y ) B L ,.#.` ! ",
"Y D $.&.B Q B ) [ S ..' D ' 3.&.A Y ( D _ U H._.E.{.~.J.+XgX,XJ.I.'.W.{._.(.[._.[.Q.!.W.[.].L.H.-Xc { ( A J Y Y ] J ,.T ) &.+.! ",
"] ) #.3.&.` B ( ( Z ( A D C &.w.;.B >.( W | D._.].K.|.jXHXHXHXjX.X/.).).(._._._.Q.Q.Q.Q.[.Q.[.^.S.# N z #.K X Y ) A Y B B C C ! ",
"R A ) #.<.) B B ` ` z m K ` &._ 1.` N l D { S.I.K.x.+XGXJXHXHXHXgXK.^.[.W.[.)._.Q._._.`.{._.W.).T.S.o m ;.G K ) ;.#.` B { m #.#.",
"R c Y #.L Z ` ] ] Y ) #.) ,.m #.,.D l C ` L n.k.k.+ @ GXJXFXJXHXjXJ.^.[.W.W.W.W.[.E._.`.T.Y./.^./.P.l.( ] K ) #.L { ` Z ) D #.#.",
" .m { ` N ) 5.T -.m ` K B %.! 1.K K D { ! G # :XpX  + DXJXJXJXJXVXm.Y.Q.Q.[.[.!.Q.[._.(./.P.H.k.o m A B T J ) B B ) L _ #.,.L B ",
"R m >.( D { K A J ) { ` ! D ` { J #.{ ( ` ~ o cXDX    AXJXJXJXHXjXm./.[.Q.Q.W.W.E.Q._.~.J.C.-X6...-.B m @.G L ) M B L z ,.#.L G ",
"X c { N W W c ( A 1.' ( c D -.N G $.q.~ B ) % cXJX% & GXJXJXJXJXpXk.F.).[.[.'.[.[.[.~.@XjXc ] ( 2.{ Z 2.) ` _ ` Z { >.c ` ` ! >.",
"c Z [ C N V { { c ..D z W { N m &.+.~ ~ +.) MXAXGXcXkXJXJXFXFXDXpXZ.C.G.L.'.'.^.(.{.~. XgXp.' c ^ ( z V K { ! { w.` { } N w.( x ",
"1.( ` { _ N { ' ' N ( K #.C l ( &.+.` `   % 6X6XvXSXFXFXFXSXBXqXqXkXkXpX X~.^.'.`.(.'.I.H.+Xy.S S V [ z D { ` ~ %._ ` C V { l C ",
"/ [ ( G <.K V ^  .S Y #.;.` v D ] o.! ! ,.G   O wXrXSXFXSXNX0X0X0X0XtXCX=XU.~.'.(.{.T.R./.H.B.:.( Z w.D m K ! #.~ B %._ C D c 2.",
"S { K ~ $.N x / ^ ^ ] A #.1.E D #.L N ` w.) C 4XtXtXnXnXvXbXrXeX9XeXyXnXhXU.Y.W.T.].^.'.T.I.z.u.D A >.] B o.~ o.L $.` 5.B N G ) ",
"b v _ ~ +.C x  .b Z ] >.` ( ^ ( { ) D ! >.N ` ( eXbXmXnXmXbXeXeX9XeXbXVXoXF.P.P.H.H.J.z.J.J.c.C.N -.] ,.$.o.$.4.+.4.) <.#.J $.@.",
"[ ( ! ` B N ^ b S Z I ( { C { { ! K ( D K D z R  .tXmXmXbXyXeXeXwXmXlXoXG.z.c.k.Z.%X2XfXfXaXfXdXp.( z Y ) F $.L o.) ) K #.#.#.L ",
"( #.5.+.G %.N ( Z I D K D Z D D _ _ C HXJX:.X A I .. .vXbXbXvXvXkX%XC.c.|.oXpXjXVXcXnXmXnXCXCXGXAXBXFXFXy.B 4.3.) G m G #.) #.K ",
"D _ ~ +.3.q.( I c N -.Z c l ! C >.D HXJXJXJXt.{ 1.' ` t.kX2X$XM.v.l.K.G.*XlXcXcXlXfXfXkXkX2XnXJXZXHXJXJXJXA ( ,.K ( z m D ( ( K ",
"C B +.+.~ ) ' V I D ` B F ~ _ { 5.%.JXJXFXJXJX&.C ( D D 2X@ N.%XA.C.|.z.Z.lXaX%XZ.v.M.hXlXnXJXMXAXJXHXHXFXAX` _ ` ,.D N K #.Z ( ",
"N D +.O.O.$.C Z ' [ #.F 4.&._ _ V ` HXJXJXGXJX( c N ! 7.<X<XvXtXrXkXaXv.b.|.|.G.F.U.F.c.+XDXDXAXFXJXJXJXJXFX&.G _ _ m ) #.Y K Y ",
"D K H 4.&.$.V Z Z ' ;.T O.~ ( } ` C JXJXJXJXGXK ( N ( y.6XtXeXeX9XwXvXkXb.U.~.).(._.).P.l.pXDXJXFXJXJXHXJXuX` <.K m C ` ] ,.,.T ",
"N G o.&.B { ! ( . m O.O.F L C C ! N D HXJXJX8X#.] 1XkXkXkXvXeX9X9XeXtXzX+XG.~.).).[.Q.T.I.XXDXJXJXFXJXJXJX#.L #.D v S [ ` #.) o.",
"C +.$.#.D { ( c C m F ;.4.) D ( Z Z L #.>.( ( Y 6.$Xv.b.Z.aXnXvXeXyXbXCXgXJ.L.^.{.^././.I.x.pXJXJXAXAXqX#.L L ( V c S V ' _ ) K ",
"! ! +.B C W >.1.} _ o.o.4.) Y Z D c m ;.{ c ( ) ,.l.G.F.U.z.XXpXzXvXmXCX#XD.R.'.(.~.J.m.x.l.B.V >.C ( #.K ( ( ' D k { ( D >.L K ",
"Q ! #.B N { ( 1.{ ! B ) @.#.D C D C ( D D Z m #.,.$ /.^.L.F.J.l.Z.aXaX*XJ.Y.R.'.(.@XjXxXsXC.-X:.( Z >.>.` %.( >.Z Z ( ( A ` c ( ",
"Q _ ` #.D #.l V V C %.5.#.( B I >.>.,.' D v Z B 7.) I.D.XXgXJ.J.J.z.z.H.Y.[.!.Y.).K.hX6.` 8X1XZ z #.` ( ( C C >.{ Y Y D c Z N { ",
"{ C N K ,.) c V ( D { { ` ,.{ ( >.C ` { v D { D B t.=..XjXDXgX.XF.U.P.I.~.I.P.@XP.F.c.pXL ] ..Z Y { Z N ( %.` ( 2.` ] c ( C V 1.",
"%.N c c <.#.( N ! D ( 0.m { K m D { { ` v D ( B G 8.,.VXHXHXDXjXv.c.z.z.l.C.gXdXgXx.H.XXi.1.Z Z D D ( Z N %.{ ` { Y ( D ' D [ ^ ",
"` D C ( T Y N X.D N _ ( c B ,.A C ( &.#.x V c ` 5.,.a.JXHXJXFX6XN.aXhXgXhXdXB #.t.,XH.G.C.t.K I ( { D N K &._ K C A ( ' Z >.D D ",
"! m >.C A m ( <.! l V v K ) #.{ C V { { V v N 1.,.G f.FXFXGXbXi ; &Xf.#.@.J A 5.>.1X#Xc.z.C.t.-.I { { z G G m C C C D S C x D ( ",
"&.L ` ( B ,.' >.( K x V N ;.J ] K %.D D >.} ! C K ! 4XAXNX7Xf * > * d ) M n #.K { D 1X+Xc.l.Z.Y D X.( m m F ) N { [ x b ^ l K >.",
"4.) ` Z Y ,.] Z ` #.D V N ] ) ) K { ` >.c >.2.D J , < h t : > = = : u y.B B B ) D Z C 8XA.n.>XDXJXBXZ ` $.B { ' C ' S ^ [ N { <.",
") J G B D ' -.K ] L ` %.K N Y ,.( ' ` ` Z V { ' f 7 - - 3 3 3 = 3 : u y.#.M ) { D ! { R y.DXHXHXGX7X< O ] ) N { ^ Z [ [ ( c G #.",
"$.T ) D D D { -.L N K ` 1.{ D A m >.A c { D ' BX7X< > 3 1 1 1 3 * r <XZ #.) D ( ( D ( J j.JXHXFX7X< > , O D z [ ' x ^ V ' _ ) ~ ",
"o.M G ( v V N { z D <.{ D { ] D Z A ) B v X.a.FXSX5X< 2 6 6 - < p d.` K A ' -.C C ` >.;.f.AXAX7Xi > 3 3 < *.[ ' Z I ..c D ! +.L ",
"O.T K 1.v b l K ( ( ) ,.c W ` 1.{ Y m { ^ x FXFXSXyXg.e 2 7 0 i.f.#.D D Z Z ' D N ( ` L f.g.h y = = 3 3 7 0 ^ [ S Z Z z C ` &.~ ",
"o.) ) >.E k C ( %.( B #.2.D D #.Z ` m 2.D O bXSXrX0XiXh.q a y.! &.) { K D ( ' { N { m y.<Xi y 3 3 1 3 3 7 w ' S I ' ..Y m $.3.K ",
"L B &.( D N #.o.( z #.3.{ V ( B B B #.#.p < i eX0XBXiXy.9.y.{ %.Q %.! +.#.( ( ! D { c qXvXbXj > 1 1 3 - w ) D V V { ) o.G +._ B ",
"K ( <.~ K C F ) D K K 2.( D z ( ,.K K #.f > : g yXiX9.C V _ c { %.! G ,.K _ C C >.7.6XMXFXFXNX5X> 3 , w $.B N ( N C B $.,.~ _ ) ",
"#.{ 5.#.( ` B ) >.` m { >.( m #.! <.<.o.< 6 9 e h.7.Y N D x S V W _ ` ( z >.( N 7Xj i 7XGXFXJXAX5X< s.,.o.L m C N ` G #.$.G ) q.",
") ~ ) _ >.%.N { W W K ` { K ] #.K #.&.#.< 4 5 6 0 ( { Y ( N D D N N c v N ( ) 5Xf 7 7 y 7XFXHXJX( Z #.) #.&._ c K &._ C &.K ) <.",
") m N _ >.} W D V Z [ q.] B K T #.) D K < 8 5 6 a -.I Z ' Z c { A -.D v S R h 7 6 9 9 > j AXj.o.C N K ` ) ) w.K ` ` ` m ,.B G ) ",
"~ +.#.` ! c N [ [ N D >.{ A Y ) ) #.( N 0 7 6 y s.Y Z x S v Z ' R ..Z ^ Z u , 7 9 9 6 > ; d.&.o.#.` ( ! Z ,.,.@.) _ ` D #._ G +.",
"$.<.&.C m N E V A A ( c B J -.] ( ( ( D a < t *.Y Z ..Z N { N { ] I c '  .r t - , , , < s y.$.5.#.1.>.D D ,.M F L ( K #.&.<.~ G ",
"F 4.#.m m #.{ C Y Y [ N m A A Z ` N ) >.d.p i.-.D [ 5.A { D c { { I R ( Z d.s h s &Xp f.8.! $.$.B >.>.W m c n J _ C K ) +.H ~ K ",
"J o.K ) M M K #.T J B c ( A l V C N ` ,.D N ' V Z Z <.N { ` v ( [ D A B A N C ( D ` D Z #.K K _ ) N D ( B m ) ;.Z ! ` #.+.~ &.~ ",
",.J #.;.T M #.#.;.M B D N v S V C ` C ` ! %.1.c D D >.C %.` Q ` { A A n Y ( ' ^ D D { c D ( N C 1.A D { B ` <.>.z { #.) $.o.~ ~ ",
"L #.#.;.T o.@.K 4.;.A ( ..V 1.>.! w.K ` { ` ! C D ( _ D _ D Q #.L K L T ) ,.( ( D D { K B ( C >.c Y Y ( z ( { D N { w.) H +.C V ",
"Y ) m #.B @.4.T L @.Z { { V { V #.) ` { ! Z D #.c ( } D <.%.+.K K K M ) K #.C [ V v { -.A c { [ D ] z N m c Y ` Z { $.J B ~ C Q ",
"..D D D ` ( 8.) G K Z ` C ` C ( #.K <.+.Z Z ( <.v D %.2.&.` Q ` ,.M n #.) A D D D >.Z D Y c I R D ( ..>...c D 1.K G B G N G &.` ",
"{ D [ >.Z { #.( C c L 1.` ` ! _ K ) #.L A A l D V v ' 2.B m C %.Y J T ,.m D #.c ' D x Z Z l Y K z Y 2.D ' ^ V ] #.B ) K z ` <.~ ",
"S Z ^ ^ ^ c ( >.^ [ ! _ <.B G o.$.J G ) ( -.D Z Z z ' z ( C 3.` J A J -.c Z { { { m C D >.A #.Y n Y ..x b ^ Z Y ;.L #.N C 1.K o.",
"v Z S ^ b x >.C ^ } K ~ _ B B ) o.M B A D -.' ..Y ( V l ( Q ,.5.@.;.] m I { { ` <.' N [ ' 1.@.J ;.] Z x b X.>.m ;.F C W } _ K &."
};
