/* XPM */
static char *b76d6cb5111a4b61828032600429aa41[] = {
/* columns rows colors chars-per-pixel */
"64 64 252 2 ",
"   c #7D181D",
".  c #0D7E00",
"X  c #137D00",
"o  c #7B5123",
"O  c #757433",
"+  c #262A44",
"@  c #346F68",
"#  c #635B56",
"$  c #970C13",
"%  c #89171A",
"&  c #981417",
"*  c #B01116",
"=  c #BA161C",
"-  c #891A25",
";  c #AA1C26",
":  c #BA1F24",
">  c #922E31",
",  c #AA2627",
"<  c #B7262C",
"1  c #B92A32",
"2  c #AB3037",
"3  c #C6161D",
"4  c #D7181E",
"5  c #E81C1C",
"6  c #C51923",
"7  c #D81B26",
"8  c #EA1E27",
"9  c #CB2529",
"0  c #DA2527",
"q  c #CD2D35",
"w  c #C83538",
"e  c #E92529",
"r  c #F42627",
"t  c #F02633",
"y  c #924630",
"u  c #A4553A",
"i  c #916A3F",
"p  c #B03341",
"a  c #AB4F4B",
"s  c #BB4853",
"d  c #9B605A",
"f  c #B5726D",
"g  c #CC5256",
"h  c #D47273",
"j  c #0C8100",
"k  c #148500",
"l  c #1B8600",
"z  c #158A00",
"x  c #1C8C00",
"c  c #1D9202",
"v  c #1C9807",
"b  c #218600",
"n  c #228D01",
"m  c #2A8D01",
"M  c #249303",
"N  c #2B9504",
"B  c #259905",
"V  c #2B9905",
"C  c #249509",
"Z  c #2B950A",
"A  c #259A0B",
"S  c #2C9C0B",
"D  c #329506",
"F  c #329A06",
"G  c #389906",
"H  c #32960B",
"J  c #339C0C",
"K  c #399D0E",
"L  c #2A9615",
"P  c #2C9D12",
"I  c #349D12",
"U  c #369C17",
"Y  c #3A9E12",
"T  c #26A20E",
"R  c #2EA10D",
"E  c #30A007",
"W  c #34A10D",
"Q  c #39A20E",
"!  c #2DA313",
"~  c #2EA81A",
"^  c #34A313",
"/  c #3BA414",
"(  c #36A915",
")  c #3CA915",
"_  c #34A519",
"`  c #3CA519",
"'  c #35AA1A",
"]  c #3CAB1B",
"[  c #3DB11C",
"{  c #38922A",
"}  c #38AA22",
"|  c #3DAD22",
" . c #3EB323",
".. c #41A415",
"X. c #4BA617",
"o. c #42AA16",
"O. c #41A61B",
"+. c #43AC1C",
"@. c #4AAD1C",
"#. c #44B11D",
"$. c #4BB21E",
"%. c #479A21",
"&. c #6C9339",
"*. c #43AD21",
"=. c #4AAD22",
"-. c #47A52B",
";. c #44B323",
":. c #4BB423",
">. c #4CB926",
",. c #47B828",
"<. c #4CBB2A",
"1. c #53B927",
"2. c #52BC2B",
"3. c #57A736",
"4. c #52AC33",
"5. c #63B235",
"6. c #4BC02B",
"7. c #55C12C",
"8. c #59C634",
"9. c #67CC3D",
"0. c #368155",
"q. c #4C9449",
"w. c #5AA946",
"e. c #59B643",
"r. c #6BAB52",
"t. c #68B553",
"y. c #4F8B6B",
"u. c #54867A",
"i. c #6E9568",
"p. c #6BAC73",
"a. c #7CC563",
"s. c #86904F",
"d. c #96A371",
"f. c #C29B77",
"g. c #313391",
"h. c #151FAE",
"j. c #1A2DB7",
"k. c #2D33AC",
"l. c #262AB6",
"z. c #2736B9",
"x. c #3837B6",
"c. c #4B3A84",
"v. c #4638AD",
"b. c #395496",
"n. c #396E9A",
"m. c #2D47AE",
"M. c #5D5B9D",
"N. c #4E7191",
"B. c #4F51B3",
"V. c #676EA7",
"C. c #1A1CCB",
"Z. c #1D29CC",
"A. c #1D33CB",
"S. c #1C28D7",
"D. c #1C33DC",
"F. c #282DC6",
"G. c #252DCD",
"H. c #392ACB",
"J. c #2835C5",
"K. c #3636CA",
"L. c #262BD8",
"P. c #2634D8",
"I. c #3333D8",
"U. c #131EEA",
"Y. c #1B2BE8",
"T. c #1C32E9",
"R. c #1929F7",
"E. c #1C2CF5",
"W. c #1D2DFD",
"Q. c #1533F6",
"!. c #1D32F4",
"~. c #1B32FC",
"^. c #222DE2",
"/. c #232CEC",
"(. c #292BE9",
"). c #322BE3",
"_. c #2633E6",
"`. c #2431ED",
"'. c #2728F5",
"]. c #232CF4",
"[. c #232DFC",
"{. c #2A2DFB",
"}. c #2332F3",
"|. c #2331FC",
" X c #2A33F8",
".X c #453BCF",
"XX c #3744CD",
"oX c #3E41F0",
"OX c #5B57C9",
"+X c #4C51D0",
"@X c #5C52D9",
"#X c #5968DA",
"$X c #6C6ED1",
"%X c #6C73EE",
"&X c #83638A",
"*X c #8977B6",
"=X c #D77E83",
"-X c #8879CF",
";X c #8472E2",
":X c #4F888B",
">X c #72918D",
",X c #72A98D",
"<X c #6A9DA6",
"1X c #7EC082",
"2X c #718CD1",
"3X c #7287ED",
"4X c #95B88C",
"5X c #A990BD",
"6X c #95B8AD",
"7X c #AFA3AA",
"8X c #DA8A83",
"9X c #E49092",
"0X c #D5BC97",
"qX c #D3B4B5",
"wX c #F0B5B4",
"eX c #93CB8D",
"rX c #ACD699",
"tX c #93C3A4",
"yX c #D9D3AF",
"uX c #D8C7B0",
"iX c #ECC5AB",
"pX c #EECCB6",
"aX c #F8CABB",
"sX c #908FD4",
"dX c #8B8CF3",
"fX c #AA99F6",
"gX c #A6A2E0",
"hX c #B4B0F5",
"jX c #DDAFC8",
"kX c #F5B7C8",
"lX c #C199E0",
"zX c #CDB2ED",
"xX c #A7CACC",
"cX c #BDCEFF",
"vX c #D1CBCF",
"bX c #E6CAC8",
"nX c #F9CBC7",
"mX c #E8D6C8",
"MX c #FDD7C8",
"NX c #F2D0D7",
"BX c #FDD7D9",
"VX c #DFE1D7",
"CX c #F6E7D5",
"ZX c #D7C8EE",
"AX c #E4D9FC",
"SX c #FDEAE9",
"DX c #EFEFF2",
"FX c #F8ECF4",
"GX c #FEFCF5",
"HX c #FEF4FC",
"JX c #F8F8F8",
"KX c #FEFDFD",
/* pixels */
"I C z } L P A c J / N N n ` ^ *.2.S M x ! S A [ #.#.E E ) S ,.` *._ H K / V S ! ;.! S ^ ) <.C |  .! ' x C ` ^ ` ` X Y +.F N :.1.",
"x C C P } l v P Z F N N J @.^ I =.S *.^ B ! ^ ^ ) #.Q W #.S +.^ S I / +.M J ^ P B B W ] S S A ! ! ( A c V ^ l I +.I N H F / @.o.",
"x k P A C . ' ' =./ F +.>.D n ^ ] / Z ^ C B x M M ] Q V ) ^ J J B S ] W F +.+.C _ x C +.J C A c c ( ^ ^ ] M l I ` =.` n N +.F >.",
"P ] S c ' P B ( +./ / 2.:.N / S ^ #.k ] ! c z S #.F V W F ) S +.C S #.N Q H J ] ^ S / ) C M j _ C ^ ^ / ;.:.N H ^ S +.N n ^ V ;.",
"^ ' ! c B ^ B <.>.N K :.D K =.n :./ x ' ] S ] M 2.F :.1.n / ^ / Z +./ n n J M ] ^ c S ^ n ] C S ^ / N +.2.K m N :.H S +.V ;.] ( ",
"S ] R x S [ x M >.l N / H +./ @.+.F S ] ^ ] 7./ ) @.9.$.n / S M l O.1.@.Q ] c A ! e.-.-.3.] C ` J K b K 9.K K @.>.) V C R [ ! ! ",
"V ] W M W [ S W +.H / / K +.H / V M l M V +.:.) o.@.o.F ) / F F _ S xXhXfXdX;X%X#X#X+X+X+X@X#X$X3XhX1X-...:.N @.o.+.] M ^ S B ^ ",
"W W V ] [ ) / ) +.K ^ I n J +./ ^ +.^ F ) +.>.F N G N Q o.) #.tXdX3X+Xx.x.H.H.L.S.D.^.^.).L.L.G.A.m.b.y.3./ o.K W / +.,.^ B [ C ",
") ] M ) #.M M / / n ` +.J H / 2.2.^ #.<.#./ n >.+.K D N o.t.V.+XG.P.S.G.I.).^.`.!.!.|.].'.(.T.D.A.z.@ q.4.o.@.N Q / ) 8.' ) ' B ",
"^ 2.] +.M M ) ) C I *._ Z J ..:.I J :.#./ V C >.:.o./ -.>Xx.l.F.L.`.}.}.'.'.{.R.Q.~.R.|.{.^.D.z.b.y.q.@.N o.@.D / / @.F C S J +.",
"I ^ ] / F #.;.@.M k x U J J / H M ] ^ C V ^ S ) / 2.r.N.j.G.l.+XZ.S.Y.].{.[.[.~.~.~.|.R./.G.b.u.w.' / ) S / W Q Q H K H N l H +.",
"Z n / ) :.:./ @.k j C _ n n / F n S J ^ ;.S S _ x t.b.P.`.Z.B.hX+XJ.P./.'.{.W.|.W.~.R.`.I.V.p.n ] ' ;.,.^ +./ D / K / / +.:.^ K ",
"C J / / ) W +.] ^ C P _ P S Q / x n C ] ^ M C c q.b.P.T.Y.l.*XZXzXB.l.^.|.[.].].|.W.}.K.$Xe.,.] ^ ^ ^ W <./ @.n H +./ Y +.:.K o.",
"S J Q Q M E o./ ,.x n S _ ) W N Z +.C ^ C ( c L N.L.|.|.`.K.sXZXAXhX+XZ. XE.].].W.W.S.%XxXK / ] S S C ^ ^ / / Z I / N K :.+.) W ",
"I S @.$.N E N / ' A | _ S _ >.$.Z I ^ S ( B c p.z.[.[.'.(.).F.OX-XzXdXF.Z./.|.[.|.Y._.oX%XfX6X*.+.x ] ^ Z J I U _ H :.Y / #.o.W ",
"_ / +.1.$.) N W ^ C ^ Z S V $.8.=.C ;.^ S c 4.N._.W.[.'.^.(._.G.x.x.@XI.S.}.E.W.E.].`.L.G.z.M.:Xp.V M l +.J X I / Z I C N V V W ",
"I Z / @.>./ N N ` ` l n F ) #./ ,./ M k S ' p.b.(.[. X^.T.T._.^.L._.(./.`.!.].W.W.W.[./.T._.L.G.n.,XL n =.H J / =.+./ N ] n +.+.",
"U x I +.K C / ` ` I / +./ :.n #.:.S k V ) J ,Xz._.L.XXdX%XP.S. X].].[.W.!.!.].].W.W.[.[.~.Q.E.!.T.m.y.-.` J / @.K ] / C / S +.+.",
"} n ] ) M / 2.Y *.n / F N #.W ,.J J S ] W V <XP.A.XXcXJXDX%XL.'.[.[.[.W.!.!.].].!.].]. X!.E.].}.Y.D.XX@ -.H / N N / K / @.:.K N ",
"U m ;.^ S ] J Z H / ] ) W S ) ] H +.] ^ ) W n.A.z.dXJXJXJXhXI.{.].].].W.~.!.].].}.}./.].W.E.[.].!.!./.J.q.I K / m N K l :.+.K H ",
"X x ] M R R x ^ Z ,._ ^ x S *.M F #.7.Q N / N.z.B.AXKXKXKXFX+X^.`.`.].].W.W.[.].!.|.].[.[.[.{.'.].}.].`.m.} / / C ] ;.x ) ) W ;.",
"x C ' V M B ] ] x | S l R ' M n $.o.Q Q o./ q.g.V.KXKXKXKXJX%XS.T.!.].[.[.[.[.[.~.!.|.[.{.{.'.(.L.G._.S.A.0.W ] 8.) ] [ M 8.^ z ",
",.^ / ] / M ] _ _ M ^ J +.V k ^ #.o.) ) Q n r.+ # JXKXKXKXKX%X_.!.~.[.'.'.'.[.W.Q.Q.}.Y.L.L.Z.XX#X:X:X@ { ] ) Q #.( ) V B ' k B ",
"~ ' ^ H :.F B ! } A I +.=./ c S ` ..W W :.H t.# # GXKXKXKXJX%XZ.!.W.[.'.'.'.[.W.~.Q.!.S.C.C.j.+XxXC 8.S M J W +.Q N #.( V S l <.",
"A ' F Q #.M z ~ ! ! ` Z +.,.T S +.K M / 9.d.3.i.# KXKXKXKXDXB.F.(.[.R.{.}./.[.W.~.~.!.`.C.C.Z.h.2XS ;.O.N ..K ..K @.) 2.N M H / ",
"c c / Q o.V z } v C ` ;./ ^ ! ^ ] ^ S W ;.m / qXmXGXKXKXFXvX*X$X.X).].E.Y. XW.|.W.W.!./.`.S.C.j.m.,XO.:.@...@.1.+.1./ :.+.F =.O.",
"_ ^ W ) N M ! c A C P ^ ] V ] ] W G ^ S I I l uXpXMXSXNXqXqXbXZXgXB.Z.!.|.R.U.{.|.].}.Y.]./.Z.h.h.N.{ I / N @.K o./ / G @.@.+.I ",
"^ +.2.o.F #.M ^ C P S J S C S S / / V S J U X 3.iXiXbXnXMXMXaXpXNX-XJ.Y.].{. X].[.R.}. X[.|.S.XXB.c.q.+.` N >.1./ F n F @./ +.J ",
"S / Q o.>.7.^ P x M *.C n k W V ;.S V V W ) / ] pXiXaXnXMXnXaXMXbX5XJ.}.(.'.'.[.[.|./.].W.E.P.3Xp.q.P S / M / :.F ^ l n S ^ ^ J ",
"V N o.o.Q / _ B P S / N F Q ) ] 2.#.,.( ] ;./ #.r.iXaXnXnXnXMXiXnX*Xx.L.H.H.(.[.R.~.[.{.].}.P.#X-.A ^ V M M ) / ) :.S M J +.C ^ ",
"M V o.X.X.@.V C _ _ +.D 2.$.( ( B ) B W ) S ^ ^ Z qXbXmXmXbXaXnXqXc.l.@XfX$XI.E.~.~.[.'.].}.`.F.p.P S S M / $.H / / n / @.I J I ",
"S H G 7.$.@.B C C _ =.Y X.Q ^ [ ) V V V ) n ^ J ` GXHXKXGXCXuXqXqX5Xv.B.zXlXK.!.Q.~.[.'.oXG.L.J.:X! C ] ] +./ <.F n V / ` :.>.Y ",
"n F ..$.N ] W ^ . n X.X.D K V V W M S S S x ^ +.5.KXKXHXKXKXVXuXuXbX5X&XjXlXK.|.E.|.'.).%XdXOXg.u.! M ) 2.+.K +.S c A ' / +./ ..",
"V o.@.+.S ' ^ x V n D =.1./ S ^ C C K +.;.^ ^ I JXKXKXKXKXKXJXVXmXuXqXqXjX*XK.E.E.].{.).x.hX4X,Xp.] M / @.G I ^ A z A B _ / ) G ",
"W W +.N V R ;.,.[ / ....1./ I C S x n =.] x ^ ` KXKXKXKXKXKXKXVXGXpXiXqXlXOX^.~.~.E.].^.J.2X<.B ;.V ^ +.J ^ ^ _ S j ] ^ S ;.K G ",
"E W +.C M ] ^ ,.' W N / O.+.S V S V ^ S S C n a.JXKXKXKXGXGXJXDXGXmXiXqXM.F.^.`.P.G.I.G.F.#X-.S ^ C ;.;.) #.^ ;.C C ^ ^ Z / x ^ ",
"E / ) +.S +.k B B V #.2.@.^ C P ;.;.:._ S c C N KXKXKXKXKXKXFXFXGXmXwXjXv.I.Z.K.$XsX;XOXl.+X| B l +./ ^ ^ V V ;.] I I S x C M ] ",
") V M J :./ x B ^ S ] ] / :.] ^ ;.V ) ] c S ] S rXKXKXJXGXGXDXVXvXbXpXjX@XG.XXfX-.J =.zX$Xy.,.C I ] C M ^ #.) ^ <./ ` x ^ V B ,.",
"#.M x x >.+.^ M W S ^ 6.M ] J n S ] ] ) c S ^ N H eXJXJXGXFXO.7X7XbXnXZX.XI.$X-.N +.+.D r.xXC C S S ^ C M #.] ) ] I ^ S _ S ' ! ",
") S V ^ Y I M  .S M ( ( x N :.Z V ^ #.+.z B x ) 2.5.rXCXVXG ZXV.c.gXvX5XK.G.3X*.@.>.N F n 4.3.P ^ ] S M J #./ F V Z ^ _ C ;.S S ",
"W n ;.V H n ^ <.W k B c J / +.] V V ] ] B c M ,.#.V o.Q G 4X$Xz.z.m.sX2XF.G.B.xX;.@.n ] wXh g 8Xw.] ] l H H n V V V S A B z V ^ ",
"$.K / ^ N :._ ;.^ J z B M =.H ` J #.J S ;.[ W V H W V N 3.V.J.A.J.3X-.6XB.K.z.2Xt.S J eXf 2 w w a r.^ n n H / M ] ' z c ! k J ;.",
"1./ ) C I :.` C / +.S B M ` / / J ] / ;.x  .<.S N V V S >Xv.G.XX<Xe.;./ i.v.G.J.2X3.C vXvXwXg 9 9 ; d O.=.N ` _ V _ A ! ' M ] :.",
"/ F H C S _ *.J ` K ) #.J M I :.^ _ / / C A ] _ +.M ^ p.B.H.z.:Xw.+.2.:.=.u.z.J.k.N.sXVXKXSXwXw 7 6 ; y 3./ M ' ! C ' ' ^ x H @.",
"@.Y / S S S ' *.K M J ) ,.] S Z n ;.Z x ] S _ V J V p.N.P.G.u.4.V ) :.N +.*.<Xm.z.l.XXhXKXGXSXg 6 6 , u 0X_ l ' ' z ! B _ / / Q ",
"..m H ^ c B M ] l S >.] S ' ` S C Z / C c  .;.S / t.u.j.P.:Xp.S @./ / J C _ *.,X+XJ.k.$XHXGXSXh ; = 2 8X0XyX' _ A P | x S ^ o.Q ",
"X.Y J ,.c v k J ^ ^ / :.x R / ,.] I n ] P z ,.S 4X>Xk.z.@ eXx *.@.+.V F C C _ R ,XN.c.hXKXGXSXg < < f CXCX0Xf ' A C C l S ) $.Q ",
"../ / ;.T j V ^ #.^ N +.<.S &.s.s.s.w.e.-.t.d.bXSXAXB.b.,X' _ ^ #./ ) F S ^ ^ ' M p.hXDXKXSX=X, , s BXSXaXa , , P _ | I n @.1.G ",
"K N #.^ S M +...^ l &.i u y , , , > 0XyXmXf a 8XHXHXDX6X4.;.' [ E #.W o.+.^ ^ W S ] x eXbXh 1 w s kXSXCXg 9 e 0 q ' / ..F o./ N ",
"J ^ >.Q J V D / S %.y < 0 7 3 6 = 1 wXFXBXs , 2 kXHXHXDX3._ c ' #.Q F $.F / V V ;.I +.J ^ =Xw w wXFXSXh 6 e 5 r e y N @.$.Q / / ",
"+.] 2.+.^ ) N / ;.) O y : 3 6 6 3 < wXFXBXg 1 , s BXHXSX3.k A B R ( ) ^ l ;.^ M ,./ ,./ S ^ 9X9XrXFX9X2 6 t e r t 3 H +.@.V / 7.",
"/ Q / / ;.#.M ] R R J s.y & $ * = 2 wXHXBXs q = < s nXuX^ M S S M M x M C ^ J ` n / F W S C V ^ t.d.> ; 7 8 r r r 4 < V #.F / :.",
"/ n M / ;.[ R S B C ' 7.3.y % & & > wXSXBXs 9 5 0 9 2 s._ C x ] Z  .A c A S ] +.N / ) V V +.1...V s.2 q 0 e 7 e 5 5 e o :.N F / ",
"Q o.+.) W x M ' ' M S ;.] Z O % %   > 9XkX2 0 r 5 e 1 O A c C _ ^ | A ! C x ^ N K :.W Q Q o.$...+./ f.g q 9 3 6 3 e r 0 +./ F o.",
"@.>.#.V n M T B V Z ! x N H *.&.> - - - p ; 9 5 r e 1 &.M ] M ' _ P x _ P ^ ] M / / V ) 7.#.@.2.@.,.;.U s.O o < 6 t t 0 $.:.Q F ",
"D 1.+.n n +.' V ^ ^ ' C n Z Z C O.o - % & & * 3 e e 2 U ] S x ] ] P P ! C ^ ] ^ ] S X ) :.W @.$.N ;.;.R n x n H %.o w y +.G Q F ",
"F ..G / m m J +.Y H C x ^ Z z B V M 3.> % % $ $ * < y M ] ) c ^ ` S Z C Z M V ^ S / S C +.J F / / n S ^ C n / =.C W ) @.o.Q $.Q ",
":.F +.=.Y m =.+.=.m C S M c A B S ) V ) i   - - % - d V #.) E ) ] Z Z b I ^ _ ! S S ' x S ^ M V ,.Z S ] C / >.;.l ] @./ @.o.Q Q ",
"K @.+.=.Y ..O.J 1.=.Z ^ | B ,.;.W 8.F ) ] 3.d # d r.( S ( S E +.K J K Y / :.^ ^ S S ] J C ^ V ;.x I I I l ^ ] S M ] 7./ G o.V B ",
"I / n +.N O.1.Y K O.N ] ] B ] B +./ ) +.W C S +.x ^ [ S >.#.o.G J J m / J @.V ' B c ' *.Z x ] _ S ` l M n x I / C ] @.F N Q V E ",
"| S S S / ^ 2./ H J C / V ) V ^ +.G :.o.C C ^ <.c S [ <.#.) E ) :.m b +./ Z S S S ;.C S I x P I S ^ | ;.| x S ,.J H N H M F #.) ",
"] S _ ;.C ' +.^ V x K ,./ ) W / K / +.K Z Z z S B c _ <.N n V #.I H Y :.n S +.x _ S z C C k U J l U <.S _ ! B ` +.N / F l ) >.Q ",
"A c ! ! ! x ^ ;.! ' W / >.N F o.@.H J / ^ *.S C C x ^ l ^ V 1.) H Z H *.x C ] ] ] n V S ;.Z +.I b U | z v ! C I =.K @.M A ,.G ..",
"c C A ! c z ;.V ! [ F Q / N N / ..m N Z S | _ | ^ ^ B k ^ E :.2.O.=._ n P ' ] / >._ M ' _ ,.O.H =.` C z v  .;.n =.D V R [ ( G $."
};
