/* XPM */
static char *_7f8741259914ca09a18554cf32a511e[] = {
/* columns rows colors chars-per-pixel */
"64 64 256 2 ",
"   c #1A1219",
".  c #782216",
"X  c #0D7E00",
"o  c #137D00",
"O  c #396A24",
"+  c #60581E",
"@  c #735030",
"#  c #6E6F2C",
"$  c #26287B",
"%  c #367157",
"&  c #316571",
"*  c #5E625F",
"=  c #467272",
"-  c #8E1914",
";  c #B01819",
":  c #8C2414",
">  c #9F201D",
",  c #B21C28",
"<  c #982729",
"1  c #983331",
"2  c #B8262A",
"3  c #B72836",
"4  c #AE3331",
"5  c #C71619",
"6  c #D5141A",
"7  c #E41E1F",
"8  c #C91B25",
"9  c #D51C24",
"0  c #D0172D",
"q  c #E21B28",
"w  c #D82329",
"e  c #C72D36",
"r  c #CC2D31",
"t  c #EB2830",
"y  c #924F2F",
"u  c #A1593A",
"i  c #933D45",
"p  c #AE3B45",
"a  c #C93C42",
"s  c #B64F54",
"d  c #A15D5E",
"f  c #8E6F4A",
"g  c #AD6B47",
"h  c #CC4A4C",
"j  c #CE5B69",
"k  c #CE7379",
"l  c #E46C6E",
"z  c #0C8100",
"x  c #148500",
"c  c #1B8600",
"v  c #158A00",
"b  c #1C8C00",
"n  c #1D9303",
"m  c #1D9906",
"M  c #248702",
"N  c #228D01",
"B  c #2A8D01",
"V  c #249303",
"C  c #2B9404",
"Z  c #259905",
"A  c #2B9906",
"S  c #249509",
"D  c #2B950A",
"F  c #259A0B",
"G  c #2C9C0B",
"H  c #339506",
"J  c #329A06",
"K  c #32960B",
"L  c #339C0C",
"P  c #399D0E",
"I  c #318E1A",
"U  c #2A9713",
"Y  c #2C9D12",
"T  c #339D12",
"R  c #3A9E12",
"E  c #379918",
"W  c #26A20E",
"Q  c #2EA10D",
"!  c #30A007",
"~  c #34A10D",
"^  c #39A20E",
"/  c #2DA212",
"(  c #2EA81A",
")  c #34A313",
"_  c #3BA414",
"`  c #36A915",
"'  c #3CA916",
"]  c #34A519",
"[  c #3CA519",
"{  c #35AA1A",
"}  c #3CAB1B",
"|  c #3DB11C",
" . c #39942B",
".. c #38A723",
"X. c #3DAD21",
"o. c #3EB424",
"O. c #429415",
"+. c #41A515",
"@. c #42AA16",
"#. c #41A61A",
"$. c #43AC1C",
"%. c #4AAB1B",
"&. c #43B21D",
"*. c #4BB21E",
"=. c #4B992C",
"-. c #68933E",
";. c #47A627",
":. c #43AD21",
">. c #4AAD23",
",. c #44B322",
"<. c #4BB423",
"1. c #4CB926",
"2. c #47B828",
"3. c #4CBB2A",
"4. c #52B927",
"5. c #52BC2B",
"6. c #57AA39",
"7. c #52B030",
"8. c #65AD38",
"9. c #55C12C",
"0. c #5AC634",
"q. c #68CE3D",
"w. c #398643",
"e. c #49944D",
"r. c #709A52",
"t. c #54A947",
"y. c #56AB48",
"u. c #68AA4F",
"i. c #65B647",
"p. c #5F9573",
"a. c #6EAF68",
"s. c #77C65A",
"d. c #909B5A",
"f. c #AF946F",
"g. c #8BB569",
"h. c #D2866F",
"j. c #CF966D",
"k. c #85C56C",
"l. c #1F319F",
"z. c #2E3497",
"x. c #3230AE",
"c. c #2A2CB7",
"v. c #2936B9",
"b. c #4E3B94",
"n. c #4639B3",
"m. c #314B92",
"M. c #386B85",
"N. c #3147AF",
"B. c #535698",
"V. c #6B5284",
"C. c #4E6E8E",
"Z. c #70799C",
"A. c #4D4EAF",
"S. c #6754B9",
"D. c #6969B0",
"F. c #1D1EC6",
"G. c #1C2ECA",
"H. c #1D28D8",
"J. c #272AC8",
"K. c #2733C6",
"L. c #3438C8",
"P. c #2729D8",
"I. c #232DDC",
"U. c #2833D9",
"Y. c #3230D2",
"T. c #1C29E7",
"R. c #1C2CEC",
"E. c #1D31EC",
"W. c #1929F2",
"Q. c #1C2CF4",
"!. c #1C2CFA",
"~. c #1C32F2",
"^. c #1B31FB",
"/. c #222DE3",
"(. c #2829E7",
"). c #232CEB",
"_. c #2632E8",
"`. c #3338EA",
"'. c #232CF3",
"]. c #242CFB",
"[. c #292BF9",
"{. c #2732F7",
"}. c #2332FB",
"|. c #4338CE",
" X c #3B4FC5",
".X c #4D4FD1",
"XX c #675AC8",
"oX c #546CCB",
"OX c #6C6CCD",
"+X c #6C70E7",
"@X c #9378A6",
"#X c #8878D3",
"$X c #8C7DF2",
"%X c #719492",
"&X c #67A092",
"*X c #73A793",
"=X c #718CB5",
"-X c #7A8EEB",
";X c #AC908E",
":X c #86B491",
">X c #ADAF89",
",X c #939CAA",
"<X c #AD8EB7",
"1X c #B0B0AA",
"2X c #CF938D",
"3X c #F19898",
"4X c #CFB19B",
"5X c #E9BA9C",
"6X c #CABCA8",
"7X c #D9BAAA",
"8X c #D3B3B4",
"9X c #EAB1A9",
"0X c #8EC78A",
"qX c #A5D4A0",
"wX c #B3CCB0",
"eX c #EACD9A",
"rX c #F4CA9C",
"tX c #C8C8B7",
"yX c #D3CAB0",
"uX c #F9CAA9",
"iX c #E7D6A7",
"pX c #F0D1AC",
"aX c #E9C4B7",
"sX c #F4CBB7",
"dX c #9A8AD5",
"fX c #AB8CD6",
"gX c #8FA7D4",
"hX c #B1B4D0",
"jX c #8D8BED",
"kX c #A697E4",
"lX c #97A2F5",
"zX c #A8B0FB",
"xX c #C7ACCF",
"cX c #D8BAD7",
"vX c #E7BFC2",
"bX c #CFB6E9",
"nX c #BDC5FF",
"mX c #D4CBD0",
"MX c #E9CAC5",
"NX c #FAC8C7",
"BX c #F6D1C9",
"VX c #F2CFD4",
"CX c #D9EDD2",
"ZX c #F4E6D8",
"AX c #D3CDF2",
"SX c #E7CCF1",
"DX c #DDE4EC",
"FX c #E9ECE9",
"GX c #FAE9E6",
"HX c #FAF8EA",
"JX c #E5E9FB",
"KX c #EAF4FD",
"LX c #FCF5F6",
"PX c #FEFCF4",
"IX c #F6FDFD",
"UX c #FDFDFD",
/* pixels */
"T S v ..U Y F n L _ C C N [ ) :.5.G V b / G F | &.&.! ! ' G 2.[ :.[ J L _ A G / o./ A ) ' 3.Z X.o./ { b S [ ) [ [ o R $.K C 1.4.",
"b S S Y ..c n Y D K C C L $.) ) >.G :.) Z / ) ) ' &.^ ~ &.G $.) G T _ $.y.:X:X:Xa...~ } G A F / / ` F n A ) c T $.T C J J _ %.@.",
"b x Y F S X { { >._ L $.1.H N ) } ` D ) S Z b V V } ^ A ' ) L L wXzXjX+X.X.X X X.X.X+XjXt.Z F m n ` ) ) } V c T [ >.[ N C $.J 1.",
"Y } G n { Y Z ` $._ _ 5.<.C _ G ) $.x } / n v G &.J A ~ J y.zX-X XL.J.P.P././.T.T./.P.J.m.= w.7.A ) ) ' ,.<.C J ) G $.C N ) A ,.",
") { / n Z ) Z 3.1.C L <.H P >.N <.' b { } G } V 5.J *.5.,XXXL.H./.(.(.P.P.P.'.}.~.R.'.(.U.K.c.M.e.>.C $.5.L B C <.J G $.A ,.} ` ",
"G } Q b G | b V 1.c C _ J $._ $.$.J G } ) } 9.` ' $.s.%Xn.J.(.].!.[.P.J.J.F.).!.R.~.}.].{./.I.U.l.w.M L q.P P %.1.' A S Q | / / ",
"A } ~ V ~ | G ~ $.J _ _ P $.J _ A V c V A $.<.' >.a.C.c.J._.{.Q.].W.F..XOXx.(.].Q.~.W.Q.'.I.N.& % >.%.L +.<.C $.@.$.} V ) G Z ) ",
"~ ~ A } | ` ` ' $.L ) R M L $._ ) $.) J ' $.c.& = m.K.I._.T.R.{./.J.A.lXAXA.P.].Q.~.T.I.N.M.&Xy.C $.P K _ _ @.L ~ ` $.2.) Z | S ",
"' } V ' &.V V ' ' N [ $.L K _ 5.5.) &.3.$.` l.P.H.H.I._.'.'.}.H.c.A.hXSXSXS.J.].~.E.G.m.&X;.G G $.' _ ' _ @.%.C ^ _ ' 0.} ' { Z ",
") 5.} $.V V ' ' S T :.[ D L +.<.T L ,.&.` D m.H.W.}.~.R.'.].!.T.L.jXSXSXSX#XJ.W.~.T. XgXP _ T T } } C $.C @.*.J _ _ $.J D G L $.",
"T ) } _ J *.*.$.V x b T L L _ J V } ) S A ;.m.).].!.'.{.].].].}.P..XXXkXbX$XJ.'.Q.).oXzX>.~ M V ' } ' ' G _ L P ^ J L J D c J $.",
"D N _ ' <.<._ $.x z S [ N N _ J N G G ) ,.t.N.'.].W.}.'.T.].].W.{._.J.x.A..XP.T.'.'.P.L.Z.u.C M { ' &.2.) $._ H +.L _ _ } <.) L ",
"D L _ _ ' ~ $.} ) S Y ] Y G ^ _ b N S } ] p.J.'.].'.].'.R.R.[.[.).T._.I.P.P.[.[.[.'.).I.K.N.&Xt.) ) ) ~ 1.' $.M J $._ R $.<.L @.",
"G L ^ ^ V ! @._ 2.b N G ] ' ~ C D $.S ) =.C.P.'.W.{./.I.K.K.J.P.).R.{.Q.].'.[.'.'.'.}.R.E.I.K.C.t.G D ) ) _ _ D T _ C L <.$.' ~ ",
"T G %.*.C ! C _ { F X.] G ] 4.*.D T ) G a.m.U.).Q._.K..XlXnXlX X_.'.'.'.}.!.!.Q.~.~.~.R.)._.T.U.M. .} ) D K T T [ K <.R _ *.@.~ ",
"[ _ $.4.*.' C ~ ) S ) D G A *.0.>.V ,.) p.z.K.U.I.L.+XJXUXUXIXzXL.).'.].!.Q.}.Q.Q.~.~.~.).'.[.).I.& U c $.L o T [ D T C C A A ~ ",
"T D _ $.1._ C C [ [ c N J ' *.` 2.' V x e.= x.c.l.z.JXUXUXLXUXKX+XU.(.].Q.'.).'.}.!.^.!.!.].'.(.(.U.% N >.J L _ >.$.' C } M $.$.",
"E b T $.L D ' [ [ T _ $._ <.N $.<.G x A u.C.$ OXm.  mXLXPXUXUXIXjXJ.).].}.R.'.'.W.].!.!.].[./.U.U.J.x. .[ L _ $.L } ' D _ G $.$.",
"..N } ' V ` 5.R :.N ' J C &.~ 1.L L G } 7.* * UXZ.  mXUXPXUXUXKXlXG./.R.Q.!.}.].].].].].'.I.G.v.N.= e.I R K _ C C _ L ` $.<.L C ",
"E N ,.) G } L D K _ } ' ~ G ' } K $.} ) >.r.* UX1X  mXUXUXUXUXIX-XK.U.).Q.^.!.!.].).(.(.J..X=XgXa.,.C M #.K L _ B C L c <.$.L J ",
"o b } V Q Q b ) D 2.] ) b G :.V J %.9.>.=.g.ZXPXFX,XUXUXUXUXIXKXB.x.J.P.{.!.W.!.Q.).Y..XdX:X[ T 3.} S 1._ ' ` ' D } ,.b ' ' ~ ,.",
"b S { A V Z } } b X.G c Q ' V N *.@.' =.O * >XyXFXUXUXLXUXPXFXhXhXkX+Xx.H.W.}.}.}.T.Y.$XwXS ] b ] ) c S L } ~ } 0.' } | V 0.) v ",
"2.) ' } ` V } ] ] V ) L $.A x ) *.@.' r.O     6XMXGXUXLXGXaX4XyXtXmXcX#XY.).}.W.].(.J.|.fXu.] G F S { c G } ' ^ &.` ' A Z { x A ",
"( { ) J 1.J Z / ..F T $.$.' n G [ +.~ ~ i.u.4XaXsX7XMX8X8X9XaXiXeXyXBXxX|.(.)._.(.J.v.x.b.<XY ) ) S 0.G N J ~ $.^ C &.` A G c 1.",
"F { J ^ %.V v ( / / [ D $.2.W G $.L V ' 0.i.4XuXuXsXMXNXNXNXsXrXrXuXsXbXL.(.I.J.x.z.B.D.@X<XcX>Xu.T ,.#.C +.^ +.L %.' 5.C V J _ ",
"m n ` ^ @.A v ..m S [ ,.' ) ..mXtXwX6.) ,.V g.5XuXuXBXBXNXNXuXrXuXsXVXfXn.J..XXXdXbXxXSXSXSXSXVXaXpX7XwXk.i.8.4.$.4._ 1.%.K %.#.",
"] ) ~ ' C V / m F S Y ) } a.tXwXPXCXqXa.T L c >X4X7XMXMXNXBXsXpXBXcXdXn.b.dXxXVXMXBXBXVXSXSXSXcXMX7XyXPXFXJXIXUX8._ _ L $.$.$.T ",
") $.5.@.J &.V ) S Y G L T 0XCXUXUXUXFXqX6.T o D E a.MXaX9X9X2Xf.d V.x.x.kXSXVXMXMXMX8X8X@XV.V.V.;XVXUXHXDXIXUXPXPXJ M J $.' $.L ",
"G ` ^ @.4.9.) Y b V $.C y.u.IXUXUXUXIXCXwX' ' ' 2.` { D C 4X4X4X;XV.x.v.OXbXbXfXD.D.AX5.xX@Xb.z.Z.AXDXDXFXLXPXPXPXs.c N G ) ) L ",
"A C @.@.^ _ ] Z G G ' C 6.CXUXIXUXUXPXUXtX5.` *.A ) ! D 7X5XpXpXsXcXXXc.A.#XS.n.c.c.OXwX_ a.a.I % hXKXUXUXUXUXUXIXs.G V L $.D ) ",
"V A @.%.%.%.A S ] ] $.H s.FXUXUXUXUXUXFXmX6XwXwXg.;.) g.5XuXuXuXuXBXfXn.Y.P.P.U._.U.c.#X#.R M E Y ..0XUXUXUXUXUXUX` N _ $.T L T ",
"G J H 5.*.%.Z S m ] >.+.g.GXUXUXUXIXLXtXwXtX6XtXtX6X7X4X5XuXuXuXrXsXcXS.P.].].'.'.).I.n.,XL _ [ b / S >.CXUXUXwXJ N A ' [ <.<.R ",
"N J +.*.C } ~ ) X N %.>.8.MXGXUXIXKXmX;.G a.6X4X6XyXMXyXaXNXsXsXuXsXmXA.P.[.].Q.!.}.Q.J.D.T ' A x / V ' 5.$.L $.G n F { ' $._ +.",
"A @.%.$.G { ) b A D H i j 3Xg.yXmX0XL $.,.) ) ;.;.$.AX,X<X<X<X<XxXmXbXS.(.].'.)._.I.I.K.A.0XQ G { } V _ $.L T ) Z b F Z ] ` _ L ",
"~ ~ $.C A Q ,.2.| -.1 3 , h 3X=.G b M >.} b ) ) <.1XOXK.K.K.c.x.A..X.XJ.).}.[.Y.x.XXXXA.m.gX3.Z ,.A ) $.L ) ) ] G z } ) G ,.L L ",
"! ~ $.D V } ) 2.} d , 0 q 9 e k MXA ) G G S b $.1XS.Y.E.~.~._._.P.(._./.'.W.(.|.%X .6.wX=Xa.G G ) D ,.,.' &.) ,.S S ) ) D ' b ) ",
"! ` ' $.G $.x Z Z K , 0 9 t q r j 4Xi.] A S 6.xXS.J.I.T./.H.H.H.I./.T.R.E.T.`.oX;.C $.C } 2./ Z c $.' ) ) A A ,.} T T G b S V } ",
"} A V L <._ b Z ` A y r 9 6 6 8 < 9XHXtX;X;X1XJXOXc.U.J.|.=X+XK.U./.R.).E.H.I.L.*XL $.C L ' o.S T } S V ) &.' ' 1.' [ b ) A Z 2.",
"&.V b b 4.$.) V ~ G ) > 8 8 ; > u BXPXLXk i vXUXJXD.z.A.p.P :XOXL.U._.).I.U.I.U. X*X$.H V 2.S S G G ) S V &.} ' } T ) G ] G { / ",
"' G A ) R T V o.G V ` O.; ; , u j.eXHXGXh j LXUXUXJXgX:X_ K J i.,XoX.XL.N.A.L.K.G. X&XC N L L G ) } G V L *.` L A D ) ] S ,.A G ",
"~ N ,.A K M ) 3.~ o Z n < - : h.iXiXiX5X4 a sXPXUXUXqX6.L $.` ` } C [ $.#.K D D.K.U.L.p._ $.L 7.Y } } c J J N A A A G F A v G ) ",
"*.L ' ) C <.] ,._ L v Z V - : g eXZXeXh.2 2 j ZXPXFXJ C @.+.' ) A L C _ B M $.L e.c.L.x.A.Z.JXUXIX0X) =.N H _ V } { v m / x L ,.",
"4._ ' D T <.[ S _ $.A Z V [ - : g rXpXg ; w r l BX0XA J C $.` b A J ,._ C C C _ L D = z.z.A.JXUXPXPX9X# 8.C } ] A ] F / { V } 1.",
"_ K J V G ] :.L [ L ' &.L V O.. . g h.4 5 7 t r j V ) ) <._ D V J $.5.<.$.B _ $.G ~ } I C.lXUXPXLXNXs 1 @ =.V } / S { { ) b J $.",
"%.R _ G G G { :.L V L ' 2.} G + - - : > 5 q t t e A ~ ~ $.C N G G ' <.C $._ G ) ] G ) V <.T UXLXNXs , ; < @ c { ] v / Z ] ` _ ^ ",
"+.B J ) n Z V } c G 1.} G { [ K . > > ; w t 6 9 4 $.G V L 5.D G $._ _ L D ] :.A A ' ,.>.[ T E 2Xp < 3 4 k 2Xg.] S Y X.b G ~ @.P ",
"%.+.L 2.n m x L ) ) _ <.b Q ] 2.-.< 2 ; 8 5 9 , # $.} N _ $.b :.$.$.A L S S ] G V ) ' L T T ;.y < p k VXLXGXHX{ F S S c G ' *.^ ",
"+.+._ ,.W z A ) &.) C $.3.A G $.K f > 2 ; ; 2 @ c ) G ) L { ] ~ *._ ' J G ) ] { V $.N L T _ Y # f 9XLXLXGXNXh.d Y ] X.T N %.4.L ",
"L C $.) G V $.+.) c $.5.} Z ) C C r.f 1 < . . O.N ' ) { { 2.{ | ! &.~ ' $.) ) ~ G } b [ V [ Z / E 0XLXNXl e r e @ { _ +.J @.` C ",
"L ) 1.L L A H _ G J L 1.) A c ) <.L 8.f.f.d.-.,.$.V G A Z ` b { &.^ J <.J ` A A ,.T $.L ) ) { F m i.9Xh r w t 9 3 A C %.<.^ ` _ ",
"$.} 5.$.) ' C _ ,.' N } ,.) N $.~ 1.1.+.+.C _ ) } b T V A x F Z Q ` ' ) c ,.) V 2.' 2.' G ) x Z | f.h 8 5 5 9 8 3 ' J $.%.A ' 9.",
"_ ^ _ _ ,.&.V } Q Q L ' } L [ $.L $.*.$.$.G T S D ) } T ) V G G V V b V S ) L [ N _ J ~ G D A ~ d.2 w t 6 5 5 ; e *.` A *.J ` 1.",
"_ M V ` ,.| Q A Z S { 9.[ C L R $._ G L { ) ) ) N :.Y S ] S b } D o.F n F G $.$.C _ ' A A $.4.7.g t t 7 6 9 8 8 2 ' ' N <.C J +.",
"^ @.$.' ~ b V { { V G ,.} D T _ ' $.) V S } T L D T S v F n S ] ) X.F / S b ) C L <.~ ` ^ @.*.d.e t q 9 9 5 5 2 # ` ' G $.` J @.",
"%.1.*.A N V W Z D D ) b C K :.[ ) ) ) G V L G S T S X.S V } V { ] Y b ] Y ) } V _ _ A ' 9.&.i.i 3 w 0 w w w r y L ) J $.*.1.^ J ",
"H 4.$.M N $.{ A T T ] V N D D S ' V ) ,.V b ) } G ] 5.D } G b { } Y Y / S ) } ) } A o ` <.L >.f s p p 3 a h g K ` A J _ $.J ^ J ",
"K +.L _ B B L $.R K V b ) D x Z A V ' <.G V ] Z S S 3.V } ' n ) [ G D V D V A ) G ' G D $.L J ' [ E ;.u.r.E _ >.D ~ ' $.@.^ *.^ ",
"<.K $.>.R B >.$.>.B V G V n F Z A ' A ' ~ &.2.b G A ,.A &.` ! ' } D D M T ) ] / G G { b G ) V A 2.D G } V ' 4.,.c } $._ %.+.^ ^ ",
"L $.$.>.R +.#.L 4.>.D ) X.Z 3.,.~ 0.J ' } ' ~ A G ) ` A ` G ! $.L L P P _ <.) ) G A } L V ) A ,.b T Y T c ) } G V } 9._ J @.A Z ",
"T _ N $.C #.4.R P #.C } } Z { Z $._ ` } ~ S G $.b ) | A 1.&.@.L L L B _ L $.A { Z n { :.D b } ] G [ c V N b T ' D } %.K C ^ A ! ",
"} G G G ' ) 5._ J L D ' A ' A ) $.L 1.@.D D ) 2.n G &.1.*.' ! ' <.B M $._ D G G A ,.S G T b Y T G ) X.,.X.b G 2.L J C J V J *.} ",
"} G ] 2.S { $.) A b L 2.' ' ~ ` L _ $.P D D x G Z n ] 1.C N A &.T K R <.N G $.b ] G v S S x T L c T 3.G ] / Z [ $.C _ G c } 1.^ ",
"F S / / / b ) ,./ { ~ ' 1.C J +.%.J K _ ) :.G S S b ] c ) A 5.' K D K :.b S } } } N G G ,.D $.T M T X.v m / S T >.P $.V A 2.L +.",
"n S F / m v ,.A / | J _ ` C C _ +.B C D G X.] X.T ) Z x ) ! <.5.#.>.[ N Y { } ' 4.] V { ] 2.#.K >.[ S v m o.,.N >.H A Q | ` L *."
};
