/* XPM */
static char *_6389023f2ee4c62b278592e4d6d8f9e[] = {
/* columns rows colors chars-per-pixel */
"64 64 253 2 ",
"   c #1C0C29",
".  c #48362A",
"X  c #0D7E00",
"o  c #137C00",
"O  c #2F7C0C",
"+  c #5F6424",
"@  c #746D2F",
"#  c #2B3168",
"$  c #317C4D",
"%  c #37636E",
"&  c #505B4F",
"*  c #447279",
"=  c #B21417",
"-  c #B61A16",
";  c #A5251F",
":  c #A91A24",
">  c #B91D21",
",  c #962E2F",
"<  c #AA2629",
"1  c #B62529",
"2  c #AE3032",
"3  c #C30F0E",
"4  c #C7171A",
"5  c #D4161B",
"6  c #D2291E",
"7  c #CA1C26",
"8  c #D81A23",
"9  c #C62329",
"0  c #D72327",
"q  c #D02B34",
"w  c #E52628",
"e  c #E92435",
"r  c #8B522C",
"t  c #985C33",
"y  c #C14D2F",
"u  c #B53A43",
"i  c #A94A4E",
"p  c #A86962",
"a  c #C85353",
"s  c #CF625C",
"d  c #D06E71",
"f  c #0C8100",
"g  c #148500",
"h  c #1B8600",
"j  c #158A00",
"k  c #1C8C00",
"l  c #1D9302",
"z  c #1D9906",
"x  c #228703",
"c  c #228D01",
"v  c #2A8D01",
"b  c #249303",
"n  c #2B9504",
"m  c #259905",
"M  c #2B9906",
"N  c #249509",
"B  c #2B950A",
"V  c #259A0B",
"C  c #2C9C0B",
"Z  c #329506",
"A  c #329A06",
"S  c #32960C",
"D  c #39960A",
"F  c #339C0C",
"G  c #399D0E",
"H  c #308A15",
"J  c #2C9D12",
"K  c #299519",
"L  c #349D12",
"P  c #3A9E12",
"I  c #359F1C",
"U  c #26A20E",
"Y  c #2EA10D",
"T  c #30A007",
"R  c #34A10D",
"E  c #39A20E",
"W  c #2DA313",
"Q  c #2EA81A",
"!  c #34A313",
"~  c #3BA414",
"^  c #36A915",
"/  c #3CA916",
"(  c #34A519",
")  c #3CA519",
"_  c #35AA1A",
"`  c #3DAB1B",
"'  c #3DB11C",
"]  c #3A962C",
"[  c #38A821",
"{  c #3DAD22",
"}  c #3EB524",
"|  c #449917",
" . c #42A415",
".. c #4BA617",
"X. c #42AA16",
"o. c #41A61A",
"O. c #43AC1C",
"+. c #4AAD1C",
"@. c #43B11D",
"#. c #4AB21E",
"$. c #4B972E",
"%. c #6A9134",
"&. c #48A727",
"*. c #43AD21",
"=. c #4BAD22",
"-. c #54AC2A",
";. c #44B322",
":. c #4BB423",
">. c #4CB926",
",. c #47B828",
"<. c #4CBA2A",
"1. c #52BA25",
"2. c #55B729",
"3. c #52BC2B",
"4. c #48A635",
"5. c #58A433",
"6. c #57B835",
"7. c #62BC36",
"8. c #4BC02B",
"9. c #55C12C",
"0. c #5AC634",
"q. c #68CF3C",
"w. c #3A884F",
"e. c #56994E",
"r. c #56A946",
"t. c #5AB247",
"y. c #57AA58",
"u. c #6CB24D",
"i. c #4F916B",
"p. c #65936F",
"a. c #74B766",
"s. c #73B274",
"d. c #66C34F",
"f. c #868953",
"g. c #939E7D",
"h. c #8BB173",
"j. c #E69769",
"k. c #85C279",
"l. c #353493",
"z. c #2E1BB3",
"x. c #1C2AB8",
"c. c #2C2FAE",
"v. c #3435A6",
"b. c #3429BA",
"n. c #2A37B8",
"m. c #3434B7",
"M. c #473599",
"N. c #4735AC",
"B. c #324F95",
"V. c #386992",
"C. c #3149AF",
"Z. c #3245B9",
"A. c #59599C",
"S. c #4A7492",
"D. c #5150AE",
"F. c #6857B1",
"G. c #7170B9",
"H. c #1B31CB",
"J. c #1A2AD7",
"K. c #282CC8",
"L. c #2935C6",
"P. c #3438C7",
"I. c #282AD7",
"U. c #242CDB",
"Y. c #2733D8",
"T. c #3630D3",
"R. c #1A29E6",
"E. c #1C2BEB",
"W. c #1730E9",
"Q. c #1C29F7",
"!. c #1C2CF4",
"~. c #1E32F5",
"^. c #272AE6",
"/. c #232CED",
"(. c #2933E5",
"). c #2332EC",
"_. c #323AE7",
"`. c #2628F6",
"'. c #232CF4",
"]. c #242DFA",
"[. c #292DFC",
"{. c #2232F4",
"}. c #2333FB",
"|. c #2A35FD",
" X c #493AD1",
".X c #3A48C9",
"XX c #3747D6",
"oX c #2342EB",
"OX c #4E53C9",
"+X c #6C59D9",
"@X c #5065CC",
"#X c #6F72D0",
"$X c #4E59E3",
"%X c #6D70EA",
"&X c #94769F",
"*X c #9178D5",
"=X c #639496",
"-X c #6AAD8E",
";X c #7C90CB",
":X c #88BA90",
">X c #838EAF",
",X c #A198A0",
"<X c #98B1B3",
"1X c #B4B4AF",
"2X c #D68D87",
"3X c #E89492",
"4X c #CEAD91",
"5X c #E8AB94",
"6X c #D1B8B1",
"7X c #F4B7B6",
"8X c #99CE8D",
"9X c #ACD2B0",
"0X c #D3C49B",
"qX c #E7C797",
"wX c #F7CB9C",
"eX c #D6C4B1",
"rX c #F9C9A9",
"tX c #F0D1AE",
"yX c #E9C9B9",
"uX c #F6CAB7",
"iX c #E1E8B7",
"pX c #908BD1",
"aX c #A098CC",
"sX c #B3ACD4",
"dX c #8E91F0",
"fX c #A994ED",
"gX c #90A5EC",
"hX c #B0B1F7",
"jX c #CAB0D1",
"kX c #FFBFC3",
"lX c #CCB1EA",
"zX c #A7C7DE",
"xX c #DAC5C7",
"cX c #CED4CE",
"vX c #E6CBC6",
"bX c #F3CECB",
"nX c #F7D6D4",
"mX c #D1E9CC",
"MX c #F8EECE",
"NX c #CECCF6",
"BX c #E8D3EB",
"VX c #DDE6F6",
"CX c #EBECE9",
"ZX c #FEE8E5",
"AX c #FDF5EB",
"SX c #EAEBFF",
"DX c #F9ECF8",
"FX c #EDF3FD",
"GX c #F7F4F7",
"HX c #FCFDF4",
"JX c #FEF4FD",
"KX c #F5FCFE",
"LX c #FDFCFE",
/* pixels */
"L N j [ J J V l F ~ n n c ) ! *.3.C b k W C V ' @.@.T T / M ,.) *.) F G ~ M C W ;.W C ! / ,.N { } W ^ k N ) ! ) ) o P O.S n :.1.",
"k N N J [ h l J B S n n F O.! ! =.C *.! V W ! ! / @.E R @.C O.! J L / O.b F ! J V V R ` C C V W W ^ V l M ! h L O.L n A A ~ +.X.",
"k g J V N X _ _ =.~ F O.>.Z c ! ` ^ B ! N V k b b ` E M / ! F F V C ` G A O.O.N ( k N O.R m V z l ^ ! ! ` b h L ) =.) c n O.F >.",
"J ` C l _ J m ^ O.~ ~ 3.:.n ~ C ! O.g ` W l j C @.F M R A / C O.b C O.n E A F ` ! C ^ / N b f _ N ! ! / ;.:.n A ! C O.n c ! M :.",
"! ` W l m ! V <.>.n G :.Z G =.c :./ k ` ` C ` b 9.A :.1.c ~ ! ~ B ) a.lXfXfXdXgXgXhXhXs.c ` N C ! ~ n O.2.G v n :.A C O.M ;.` ^ ",
"C ` Y k C ' k b >.h n ~ A O.~ O.O.F C ` ! ` 9.^ / O.q.#.c ^ C B zXgXD.N.N.N.L.x.L.n.N.F.G.p.e.&.F G x G q.G G +.>./ M N Y ' W W ",
"M ` R b R ' C R O.A ~ ~ G O.A ~ M b h b M O.:./ X.+.X.A / -.hX%XXXY.Y.I.K.I.^.R.R.^.^.I.K.m.B.S.e.t.=.A  .:.n O.X.O.` b ! C V ! ",
"R R M ` ' ^ ^ / O.G ! P c F O.~ ! O.! F / O.>.A n A n E zX#XP.I.'.Q.^.U.K.U./.!.!.'.`.[.[.^.U.L.% &.| S ~ ~ X.G R ^ O.,.! m ' N ",
"/ ` c / @.b b / / c ) O.F S ~ 2.3.! O.<.@.^ c >.-.G &.;X.XH.U.'.]./.K.P.%XL.J./.R././.[./.U.B.$ 4.&.~ / ~ X.+.n E ~ / 0.` / ` V ",
"! 3.` O.b b / / N L *.( B F  .:.L F :.O.( M ] B.p.s.G.n.Y.R.~.].`.I.v.fXhXv.T.J.(.J.J.I.v.S.=X4.` ` n O.n X.#.A ~ ~ O.F N C F O.",
"L ! ` ~ A #.#.O.b g k L F F ~ A b ` R N M ! w.K.v.C.Y.(.).E.}.{.^.b.&XlXBXF.z.^.R.(.K.OXdXr.c N / / / / C ~ G G E A G A N h A O.",
"B c ~ / :.:.~ O.g f N ( c c ~ A c C C ! ;.C i.J.H.H.).}.'.'.~.E.I.+XlXjXjX*Xz.^.R.J.$XhXO.~ v c / / ;.,.! O.~ Z ~ G ~ ~ ` :.! G ",
"N F ~ ~ / R O.` ! N J ( J C E ~ k c N ` ^ N * J.J.oXW.E.'.[.}./.I.%XfXaXlXfX X^.~.E.Y.%XhX~ ,.` ! ! ! R <./ O.c A O.~ P O.:.G X.",
"C F E E b T X.~ ,.k c C ( / R n B *.N ! m { * U.W.R.~.}.[.[.E.).Y.K.N.M.F.+XT.^.E.!.^.K.D.pXr.` C C N ! ! ~ ~ B L ~ n G :.O./ R ",
"L C +.#.n T n ~ _ V { ( C ( 1.#.B L ! C ^ y.V.J.E.Q.|.Q.`.|.J.(.R.^.(.(.I.I.(./.'./.!.^.K.v.* a.O.k ` ! B S L L ( S :.P ~ #.X.R ",
"( ~ O.1.#./ n ! ! N ! B C M #.0.=.N ;.! C p.B.).].]./.(.(.XX$X.XY.R.].Q.Q.!.'.'./.'.'.'.)._.K.% r.M b h O.F o L ~ B L n n M M R ",
"L B ~ O.>.~ n n / / h c F / #.^ ,./ b g C =XY.E.Q.{.Y.n.#XNXSXVX%XK.[.].'.E.'.'.`.|.'.{.}.).(.Y.$ 4.k c =.A F ~ =.O./ n ` c O.O.",
"I k L O.G N / ) ) L ~ O.~ :.c O.:.C X M t.S.H.).{.Y.Z.gXSXKXLXLXVXOX^.].{.).R.'.[.Q.E.}.~.~.|./.U.$ C ! ) F ~ O.G ` / N ~ C O.O.",
"[ x ` / b ~ 3.P *.c / F n @.R ,.F F C ` r.* n.K.K.n.gXKXKXLXLXKXKX#XY.'.R.~.~.{.}.Q.~.}.~.}.|.].[.I.H n P S ~ n n ~ G ^ O.:.G n ",
"I c ;.! C ` F B S ~ ` / R C / ` S O.` ! / p.# v.v.# lXLXGXLXGXLXKXdXK.'.}.!.~.E.!.}.Q.Q.).(.U.U.C.w.N c o.A G ~ v n G h ;.O.G A ",
"o k ` b Y Y k ! B ,.( ! k C *.b A @.9.E n u.. sXA.  sXJXGXGXLXKXKX#XJ.Q.}.!.].].!.|.[.`.T.b.N.S.-Xy.N <.~ / ^ / N ` :.k / / R :.",
"k N _ M b m ` ` k { C h Y ` b c #.X.E E X.-.& jX,X  xXDXGXGXKXKXFXD.Y./.E.].].'.|.Q.Q.^. X*XaXK ( ! h N F ` R ` 0./ ` ' b 0.! j ",
",.! / ` ^ b ` ( ( b ! F O.M g ! #.X./ / E S =.CX1X& BXJXGXGXLXFXsXl.c.U.'.[.].].Q.|.'.Y.dX:X( V V N _ h C ` / E @.^ / M m _ g M ",
"Q _ R A :.F V W [ V L O.=./ l C )  .&.a.7.A mXAXCXCXJXDXLXZXMXcX6XaXpXOXI.`.[.Q.}.R.).H.v.pXa.( Q N 0.C c F R O.E n @.^ M C k <.",
"V _ F E +.b j Q W W ) B O.,.U C O.F t.& & & & 1XvXAXAXLXHXnX0XtXuXuXvXlX+XI.'.'.E.).J.H.x.n.hX4.C B ;.o.n  .E X.G +./ 3.n b A ~ ",
"z l ^ E X.M j [ z N ) ;./ ! W ! ) ! L y.$.O . 4XyX6XnXZXnXyXtXrXrXrXuXBXdXT.|./.Y.x..X@XXXZ.B.<Xb *.o.:.+. .+.2.X.1.~ :.O.S =.o.",
"( ! R / n b W z V N J ! ` M ` ` R A ^ C L F H uXrXuXyXvXvXbXrXrXrXrXuXBX%XI.^.I.c.#XNXFXVXhXD.A.s.! h G ~ n +.G  .~ ~ A +.O.O.L ",
"! O.3.X.A @.b ! N J C F C N C C ^ ^ M C L L H | 4XtXyXbXbXnXrXrXrXbXxXpXm.I.I.b.#XDXJXJXKXKXSXF.A.4.C O.) n >.1.~ A c A O.~ O.F ",
"C ^ E X.1.9.! J k b *.N c g R M ;.C M M ! / ^ =.d.9XeXyXuXrXrXtX6X,XF.c.T.U.x.OXSXJXJXJXJXJXJXNX% ] N C / b ~ :.F ! h c C ! ! F ",
"M n X.X.E ~ ( V J C / n Z ^ ^ ` 3.@.,./ ` ;.^ #.M ;.vX7X5X5X4X4X4X&XM.b.K.P.#XhXJXJXJXJXJXJXLXcXi.K ! M b b / ^ ^ :.C b F O.N ! ",
"b M X.....+.M N ( ( O.Z 2.#.^ ^ m ^ m ) 6.o.u.a.] m nXuX2X5XqXqX0XxX*XM.N.fXsXBXJXLXLXHXHXLXHXmXs.J C C b ~ #.A ^ ^ c ~ =.L F L ",
"M A D 7.#.+.m N N ( =. ...E ! ' / M F &.6.HXLX9Xk.cXyX6X5XrXqXqXqXeXjXA.N.*XsXBXJXLXHXHXHXHXLX9Xk W N ` ` O.~ <.F c M / ) :.:.P ",
"b A  .#.n ` R ! X c ....Z G M M R b C ~ HXLXHXHXHXeXeXyX6XuXwXqXwXuXxXF.b. X#XhXJXLXLXLXKXKXCXh.g W b / 3.O.G O.C l V _ / O.~  .",
"M X.+.O.C _ ! k M c Z -.2.~ C ! N N G 9XLXLXHXHXHXCXxXxX6XyXrXwXwXyXBXG.K.I.L.C.pXVXDXLXSXNXcXC ` _ b ~ O.G L ! V k V V ( ^ ~ A ",
"R R O.n M Y ;.,.' ^  . .2.~ L N C k k 8XLXLXLXJXLXCXcX9Xa.cXwXwXwXuXBXF.K.).Y.K.v.D.#XG.D.gXd.M ;.M ! O.F ! ! ( C f ` ! C ;.G A ",
"T R O.N b ` ! ,._ R n ~ o.O.C M C M ! C KXLXJXJXLXcXcX^ ~ cXbXuXuXbXfXm.K.U.Y.OX#XfXdX#XD.G.9XY ! N O.:./ @.! :.N N ! ! B / k ! ",
"T ^ / O.C O.g m m M @.3.O.! N J ;.:.:.( mXLXLXLX8XcX#.#.>.a.jXsXjX*X.XY.Y.P.pX<XB n -.:XzX<X9Xg.d s 5.R ! M M :.` L L C k N b ` ",
"` M b F :.~ k m ! C ` ` / :.` ! ;.M / ` l C u.k.a.n @.^ :X>XD.l.M.v.Y.).J.@Xt.B / F O.n a.9XVXvXi < , S ! @./ ! <./ ) k ! M m ,.",
"@.b k k >.O.! [ @ C ! 8.b ` F c C ' ` / l C ) F A X.2.<XF.P.T.K.m.m.T.U.^.@X[ k n O.O.S $.sXSXJX7X, < 1 N @.` / ` L ! C ( C _ W ",
"/ C M ! P L b u.t q t $.k n :.B M ^ #.O.j m k / 3.k.>XN.T.I.I.P.%X<X=XK.U.Y.4.O.O.:.4.=XD.M.lXJXnXi 1 7 q O./ R M N ! ( N ;.C C ",
"R c ;.M B c ! 6.t q 0 q @ | O.` M M ` ` m l b ,.zX#XP.T.I.P.@XhXt.n *.S.Y.Y.S.3.;.-X.XP.P.v.aXJXZXi > 5 0 q c M M M C V V j M ! ",
"#.G / ! n :.( ;.%.9 8 8 7 , @ 5.F @.C C ;.' R NX@Xx.(.U.XXdXt.! M F n &.Z.H.L.V.Z.n.L.L.n.D.sXJXZXu > 4 9 1 d b ` _ j z W g F ;.",
"2.~ / N L :.) N o.r > = 7 1 : @ F / / :.k ;.<XA.L.Y.H.@X-XO.^ k M F ;.~ i.C.x.Y.Y.K.n.OXgX9XGXJX7X2 > = < 3XAXmXM ( V W _ b ` >.",
"~ S A N C ( *.F ` %.< 9 - = 2 2Xt./ O./ N :XhXl.x.L.%Xs.:.~ N b F O.3.:.O.i.Z.x.m.OX;X:X~ h.e.&Xu : 1 2 5XAXAXZXf.N _ _ ! k A O.",
"+.P ~ C C C ` *.R b @ ; - ; s MXHXmX:Xp xXVXFX>Xl.#X9XF O.n c C C / :.n O.~ L $.4.( ( b :.L $.S , < , 2XAXHXZX3Xu O Q V ( / ~ E ",
" .v A ! l m b ` h F 2.r 2 s 4XMXAXZXd i 7XJXLXFXNXNXM b G 3.B C O.~ ~ F B ~ *.M M / ;.;.) L L P N + p ZXAXAX7Xu 7 9 { k C ! X.G ",
".. .F ,.l z g F R ! E :.p wXiX0XMX5X1 q 3XZXHXLXJXJX/ b ~ O.k *.O.O.M C N N ( C b ! ~ G L L ` B =.F L mXAXkXa e 8 4 + h M / #.E ",
" .~ ~ ;.U f M ! @.R n O.8.tXMXiX5Xy w w 1 d ZXLXJXxXC R C ` ( R #.~ / F F ! ( _ b ` c G L ! J c ! ` ,.O.L a q e 5 4 < F c +.1.A ",
"G n #.! C b O. .! h O.1.` ) iXMXj.y w w 0 1 a 7XnXxX! _ _ ,._ ' T @.R X.O.! ! R C ` k ) N ) V W l Y E v 1.~ 2 e 8 3 4 @ A / E n ",
"F ! >.G F M Z ~ C F F <.! C $.tXj.6 0 w w 7 1 2 i h.C M m ^ k _ @.E A #.F ^ M M ;.L O.F ! ! _ V m m #.2.+.n S @ < > 7 < #.E E ~ ",
"O.` 3.O.! / n ~ ;./ c ` ;.! c u.a 4 4 5 5 0 7 1 2 %.L b C g V m Y ^ / ! h ;.! b ,./ ,./ C ! g m ' m >.#. .G c C | %.D %.+.M / 9.",
"~ E ~ ~ ;.@.b ` Y Y F / ` F ) O.@ 1 7 4 3 5 0 9 a &.` L ! N C C b b k b b ! F ) c ~ A R C N M R ! b ` ~ O.#.^ k F #.^ M @.F ~ :.",
"~ c b ^ :.' Y C V N _ 9.) n F P -.@ : 7 5 5 w 9 s *.J N ( N k ` B { V l V C O.O.n ~ / M M O.1. .M b F / ! / 0.G / / / c :.n A  .",
"E X.O./ R k b _ _ b C ;.` B L ~ ^ O.%.< - 0 7 1 2XL N j V l N ( ! { V Q N k ! n G :.R E E X.#. .O./ ! R M ;.:.o.~ ^ / C O.~ A X.",
"+.>.#.M c b U m B B ! k n S *.) ^ ^ ! %.i 2 2 , h.N { N b ` b ` ( J k ( J ! ` b ~ ~ M ` 9.@.+.3.O.,.:.C C :.v Z G ! F O.#.:.E A ",
"Z 2.O.k c O.` M L L ( b c B B N / b ! ;.P f.p f.C ( 3.B ` C k ` ` J J W N ! ` ! ` C X ^ :.R +.#.n ;.;.Y c k x S ^ M F ~ X.A E F ",
"S  .A ~ v v F O.P S N k ! B g V M b X.:.C b ( V N N <.b ` / l ! ) C B N B b M ! C / C N O.F F / ~ b C ! N c ~ =.N R / O.X.E #.E ",
":.S O.=.P v O.O.=.v N C b l V m M / M / R @.,.k C C :.M @./ T / ` B B x L ! ( W C C ` k C ! b M ,.B C ` N / >.;.h ` O.~ +.X.E E ",
"G O.O.=.P  .o.F 2.=.B ! { V ,.;.R 0.F / ` / R M C ! ^ C ^ C T O.G F G P ~ :.! ! C C ` F N ! M ;.k L L ! h ! ` C b ` 9.~ A X.M m ",
"L ~ c O.n o.2.P G o.N ` ` m ` m O.~ ^ O.R N C O.k ! ' M ,.@.X.A F F v ~ F O.M _ m l ` *.B k ` ( C ) h b c k L / N ` +.S n E M T ",
"{ C C C / ! 6.~ A F N / M / M ! O.A :.X.N N ! <.l C @.<.#./ T / :.v x O.~ B C C C ;.N C L k J L C ! { ;.{ k C ;.F A n A b A #.` ",
"` C ( ;.N ` O.! M k G ,./ / R ^ G ~ O.G B B h C V l ( <.n c M @.L S P :.c C O.k ( C j N N g L F h L <.C ( W V ) O.n ~ F h ` >.E ",
"V N W W W k ! ;.W _ R ^ >.n A  .+.S A ~ ! *.C N N h ( h ! M 1./ S B S *.k N ` ` ` c M C ;.B O.L x L { j z Q N L =.G O.b M ,.A  .",
"l N V W z j ;.M W ' F E ^ n n ~  .v n B C { ( { L ! V g ! T :.3.o.=.( c J ` ` / >.( b _ ( ,.o.S =.) N j z } ;.c =.Z M Y ' ^ A #."
};
