/* XPM */
static char *d9a6c2614728444abd47465873bf4363[] = {
/* columns rows colors chars-per-pixel */
"64 64 247 2 ",
"   c #1A0204",
".  c #233027",
"X  c #0D7E00",
"o  c #137D00",
"O  c #37783D",
"+  c #625C27",
"@  c #78592E",
"#  c #73712F",
"$  c #243750",
"%  c #2B585E",
"&  c #33656B",
"*  c #70605C",
"=  c #B41D1C",
"-  c #9A271A",
";  c #B01C23",
":  c #952B2E",
">  c #B82527",
",  c #AC2B30",
"<  c #A63439",
"1  c #B93235",
"2  c #CD0D1C",
"3  c #C8151B",
"4  c #D5121A",
"5  c #CB1823",
"6  c #D71925",
"7  c #E91B26",
"8  c #C7232B",
"9  c #D6252B",
"0  c #C92A34",
"q  c #CE3137",
"w  c #E7262B",
"e  c #EB252F",
"r  c #975232",
"t  c #C7463A",
"y  c #A53B43",
"u  c #96504B",
"i  c #BA4848",
"p  c #B04D51",
"a  c #AF6658",
"s  c #BA5E65",
"d  c #9E6B60",
"f  c #C65555",
"g  c #D76266",
"h  c #D36E6E",
"j  c #0C8100",
"k  c #148500",
"l  c #1B8600",
"z  c #158A00",
"x  c #1C8C00",
"c  c #1D9202",
"v  c #1C9807",
"b  c #248603",
"n  c #228D01",
"m  c #2A8D01",
"M  c #249303",
"N  c #2B9504",
"B  c #259905",
"V  c #2B9906",
"C  c #249509",
"Z  c #2C960A",
"A  c #259A0B",
"S  c #2C9C0B",
"D  c #329506",
"F  c #329A06",
"G  c #389906",
"H  c #31960C",
"J  c #339C0C",
"K  c #399D0E",
"L  c #2B8B13",
"P  c #2A9611",
"I  c #2C9D11",
"U  c #339D12",
"Y  c #3A9E12",
"T  c #379A1C",
"R  c #26A20E",
"E  c #2EA10D",
"W  c #30A007",
"Q  c #34A20D",
"!  c #3AA20E",
"~  c #2DA212",
"^  c #2EA81A",
"/  c #34A313",
"(  c #3BA414",
")  c #36A915",
"_  c #3CA916",
"`  c #34A518",
"'  c #3CA519",
"]  c #35AA1A",
"[  c #3CAB1B",
"{  c #3DB11C",
"}  c #39912C",
"|  c #38A920",
" . c #3DAD21",
".. c #3DB323",
"X. c #479619",
"o. c #42A515",
"O. c #4BA617",
"+. c #42AA16",
"@. c #42A61A",
"#. c #43AC1C",
"$. c #4AAD1C",
"%. c #44B11D",
"&. c #4AB11E",
"*. c #51962F",
"=. c #679237",
"-. c #43AD21",
";. c #4AAD22",
":. c #4BA72D",
">. c #44B323",
",. c #4BB423",
"<. c #4CB826",
"1. c #47B828",
"2. c #4CBB2A",
"3. c #51BA25",
"4. c #55B829",
"5. c #52BC2B",
"6. c #52A932",
"7. c #55BC37",
"8. c #67B137",
"9. c #55C12D",
"0. c #5AC533",
"q. c #68CF3C",
"w. c #3B8055",
"e. c #468F52",
"r. c #768A51",
"t. c #5BA951",
"y. c #6EAE4D",
"u. c #54906F",
"i. c #699773",
"p. c #5FAE67",
"a. c #6FAD6C",
"s. c #6ED15D",
"d. c #899454",
"f. c #93A66C",
"g. c #CD8D6E",
"h. c #9FC37C",
"j. c #2D3093",
"k. c #393799",
"l. c #1725B3",
"z. c #3736A9",
"x. c #292ABB",
"c. c #312AB0",
"v. c #2937B6",
"b. c #3537B8",
"n. c #4F3F91",
"m. c #335387",
"M. c #304AAD",
"N. c #3E65AD",
"B. c #4A4F95",
"V. c #4A6F8A",
"C. c #4A4AB1",
"Z. c #6B5CAE",
"A. c #4D6FAD",
"S. c #746AAD",
"D. c #1929CA",
"F. c #1C36CA",
"G. c #1D28D9",
"H. c #1C32DA",
"J. c #272BC8",
"K. c #322CCB",
"L. c #2937C8",
"P. c #3538C8",
"I. c #262AD9",
"U. c #2933DA",
"Y. c #3639D6",
"T. c #1B2AE6",
"R. c #1C2CEC",
"E. c #1D32E9",
"W. c #1827F3",
"Q. c #1C2BF4",
"!. c #1D2DFB",
"~. c #1D31F6",
"^. c #242BE4",
"/. c #272AE9",
"(. c #232CED",
"). c #312EE6",
"_. c #2832E7",
"`. c #2628F5",
"'. c #232CF4",
"]. c #242CFB",
"[. c #2B2CFD",
"{. c #2332F3",
"}. c #2432FA",
"|. c #2A31F8",
" X c #3747D1",
".X c #3D44EA",
"XX c #4D4CCD",
"oX c #5B6ACC",
"OX c #6E70CF",
"+X c #6A66E0",
"@X c #8C7AAD",
"#X c #D27D80",
"$X c #8474E9",
"%X c #568386",
"&X c #719C91",
"*X c #74A88B",
"=X c #7093A9",
"-X c #788FD1",
";X c #7A8AEA",
":X c #929093",
">X c #88BA96",
",X c #9490B3",
"<X c #B496B0",
"1X c #8AAFB2",
"2X c #D28F8C",
"3X c #EC9693",
"4X c #CFAB90",
"5X c #EAA99A",
"6X c #E99FA6",
"7X c #D6AAA5",
"8X c #D1B8AC",
"9X c #D7BAB9",
"0X c #E3B4A6",
"qX c #EDB0B0",
"wX c #91CC8B",
"eX c #B6D3B4",
"rX c #C8C3B6",
"tX c #DBC8B9",
"yX c #F8C8A7",
"uX c #E6C7B7",
"iX c #F0D3B1",
"pX c #FFECBC",
"aX c #8C8CC6",
"sX c #B4AFCB",
"dX c #9E99EC",
"fX c #98A6EF",
"gX c #ACABF3",
"hX c #C8B6D7",
"jX c #C4B6F2",
"kX c #A9CCCE",
"lX c #D7C8CD",
"zX c #F0CCCC",
"xX c #FED7D7",
"cX c #D4E9D3",
"vX c #FFE8D9",
"bX c #D3CEF5",
"nX c #E6D6EC",
"mX c #FDDDE4",
"MX c #DBE8FF",
"NX c #EAEFED",
"BX c #FCE6E7",
"VX c #FBF4E7",
"CX c #F8EDF7",
"ZX c #FBF7F5",
"AX c #FDF5FC",
"SX c #F4FDFF",
"DX c #FDFDFD",
/* pixels */
"U C z | I I A c J ( N N n ' / -.5.S M x ~ S A { %.%.W W _ V 1.' -.' J K ( V S ~ >.~ S / [ 1.C  ...~ ] x C ' / ' ' o Y #.H N ,.3.",
"x C C I | l v I Z H N N J #./ / ;.S -./ B ~ ` / _ %.Q Q %.J #./ S U ( #.M J / I B B Q [ S S A R ~ ) A c V / l U #.U N F D ( $.+.",
"x k I A C X ] ] ;.( J #.<.D n / [ ) Z / C B x M M [ Q V _ / J J C S #.K F #.#.C ` x C #.S C A v c ) / / [ M l U ' ;.' n N #.J <.",
"I [ S c [ I B ) #.( ( 5.,.N ( S / $.k [ ~ c z S %.J V Q F _ S #.C S ;.N ! F J [ / S ) _ C M j ] C / / ( >.,.N F / S #.N n / V >.",
"/ [ ~ c B / B 2.<.N K ,.D K ;.n ,.( x [ [ S [ M 5.F ,.3.n ( / ( Z #.} O M.F.D.H.D.J.J.L.F.M.& } T ( N #.4.K m N ,.F S #.V >.[ ) ",
"S [ E x S { x M <.l N ( F #.( $.#.J S [ / [ 9.) +.$.q.&.n ) S L m.J.I.E.R.~.!.!.~.}.~.Q.Q.{.I.J.v.& O K q.K K $.<._ V C E { ~ ~ ",
"V [ Q M Q { S Q #.F ( ( K #.F ( V M l M V #.,._ +.$.+.F _ ( j.P.J.I.{.R.R.{.].'.!.!.!.].[.).z.w.P ,.$.G o.,.N $.+.#.[ M / S B / ",
"Q Q V [ { ) ) _ #.K / U n J #.( / #./ J _ #.<.F N G N ! m.K.c.XXXXJ.G.(.'.'.'.[.].Q.'.{.I.k.u.6.M $.K H ( ( +.K Q ) #.1./ B { C ",
"_ [ n _ %.M M ( ( n ' #.J H ( 4.5./ %.2.%.) n <.#.K H I.U.J.k.dXdXC.J./.(.`.`.`.Q.~.E.v.B.u.S S #._ ( +.( +.$.N ! ( _ 0.[ _ [ B ",
"/ 5.[ #.M M _ _ C U -.` Z J o.,.U J ,.%.( V C <.,.e._.Q.(.J.C.jXbXaXc.I.(.`.[.|.}.E.D.A.6.( U U [ [ N $.N +.$.F ( ( $.J C S J #.",
"U / [ ( F &.&.$.M k x U J J ( F M [ / C V / V _ } K.T.}.(.D.oXbXnXbXoXI.(.'.'.'.(.I.P.-XwXK n M ( [ ( _ S ( Q ! ! F K F C l F #.",
"Z n ( _ ,.,.( $.k j C ` n n ( F n S J / >.S S ` c.I.(.}.'._.L.M.S.dX+XD.T.].'.'.(._.J.b.A.=Xp.n [ _ >.1./ #.( D ( K ( ( [ ,./ K ",
"C J ( ( _ Q #.[ / C I ` I S ! ( x n C [ / M C m.I.(.].W.'.R.(.U.x.P..XG.Q.].`.[.(._._.E.^.F.N.&X| / Q Q <.( ;.n F #.( Y #.,.K +.",
"S J ! ! M W +.( 1.x n S ` _ Q N Z #.C / C ) u.x._./.I.U._.(.].].`./.T.|.Q.Q.].].R.R.~.Q.].|.G.b.V.t.C / / ( ( Z U ( N K ,.#._ Q ",
"U S $.&.N W N ( ] A  .` S ` 3.&.Z U / S ) B oXI.U.L.OXOXP.U.(.].].|.W.}.R.Q.[.].|.R.'.{.W.Q.'.U.F.N.p./ Z Z U U ` H ,.Y ( &.+.Q ",
"` ( #.3.&._ N / ` C / Z S V &.0.;.C >./ S T XXU.L.fXSXSXgXP._.'.].].].Q.}.Q.].].'.}.'.'.].].].R.H.F.M.e.[ J o U ( Z U N N V V Q ",
"U Z ( $.<.( N N ( ( l n J _ &.) 1.( M k S a.b.x.-XSXAXAXAXoXU.R.'.`.].].`.].].!.~.{.Q.`.|.`.'.{.{.T.U.P.p.F J ( ;.#.( N [ n #.#.",
"T x U #.K C ( ' ' U ( #.( ,.n #.,.S k V [ sXz.XXMXSXDXAXDXgXL.R.}.].`.(.'.].!.!.Q.Q.].`././.(.^.I.U.^.U.z.*.( $.K [ ( C ( S #.#.",
"| n [ _ M ) 5.Y -.n ( J N %.Q 1.J J S [ / kXj.gXSXSXDXDXSXbXY.{.Q.!.].(.(.'.!.!.].'.].(.^._.H.U.b.c.x.c.z.M.:.N N ( K ) $.,.K N ",
"T n >./ S [ J Z H ( [ _ Q S _ [ H #.[ / _ kX$ ,XSXDXDXDXSXbX X/.'.Q.'.{.{.R.Q.].].].'.G.G.D. X;X1X=Xi.u.p.e.' ( m N K l ,.#.K F ",
"o x [ M E E x / Z 1.` / x S -.M F %.9.Q N wX$ :XDXZXDXAXSXbXP./.|.'.T.T.{.{.'.'.'.'.'.T.D.l.L.;X7. .C <.( ( ( ( C [ >.x _ _ Q >.",
"x C ] V M B [ [ x  .S l E [ M n &.+.! ! +.eX. :XDXZXDXDXDXbXz.J.I.(._.E.R.].[.`.|.W.'.'.G.l.l.j.aX` l C J [ Q #.0._ [ { M 0./ z ",
"1./ ( [ ) M [ ` ` M / J #.V k / &.+._ :.r.a.* rXDXDXDXZXxX<XZ.C.Y./._.|.Q.Q.[.`.[.`.[.|.G.D.l.l.k.>X] l S [ _ Q %.) _ V B ] k B ",
"^ ] / F ,.J B ~ | A U #.;.( c S ' o.Q +     * rXnXCXBXzX0X7XhXgX+XY.G.].].!.].].`.[.].].{.G.D.l.j.%Xs.S n J Q #.Q N %.) V S l <.",
"A ] J ! $.M z ^ ~ ~ ' Z #.1.R S #.K M _ 8.* d tX8X8X7X5X3X5X7XhXgXC.).`.}.~.W.}.].'.].].].^.Y.V.& & a.@.N o.! +.K $._ 5.N M F ( ",
"v c ) ! +.V z | v C ' >.( / ~ ` [ / S / >.f.tX8XuXuX0X5X3X5X0X9XhXOXI.`.Q.~.~.W.R.{.'.].'./.x.u.a.*X6.,.$.o.$.4.#.4.( ,.#.H ;.@.",
"` / Q _ N M ~ v A C I / [ V [ [ Q Q / S J y.NXZXZXZXBXzX0X0XqXlXbXOXI.[.!.R.~.{.T.{.T.(.(._._.& t./ l U ( N $.K o.( ( G $.$.#.U ",
"/ #.5.+.F %.M / C I S J S C S S ) ) V S J t.DXZXDXDXDXDXmXBXmXlXsXB.J./.(.{.{.^._.D.U.I.I.I.(.m.t./ S #.' N 4.3.( F n F $.( #.J ",
"S ) ! +.3.9./ I x M -.C n k Q V >.S V V / 7.DXDXDXDXDXAXCXAXnX@XB.j.Z.XXJ._.|.^.J.XXC.C.M.M.G.v.>.c C S ( M / ,.J / l n S / / J ",
"V N +.+.! ( ` B I S ( N D ! ) [ 5.%.1.) [ 5.ZXDXDXDXSXSXNXDXnX,XS.@XhXjX+XI.(._.K.aX>X>X>X&XT L I A ` S M M _ ) ) ,.S M J #.C / ",
"M S +.O.O.$.V C ` ` #.D 4.&.) ) B ) B Q [ S DXDXDXSXSXDXNXZXVX9XzXzXzXnX$X).R.'.T.XXa.+.o.K L T I I S S M ( &.F ) ) n ( $.U J U ",
"S J G 4.&.$.B C C ` ;.o.O.! / { _ V V V ) M / DXDXZXNXVXVXVXvX4X5X0X4X@XXXI._.Q.}.J.=X#.;.J ( ` x ~ C [ [ #.( <.J n V ( ' ,.,.Y ",
"M F o.&.N [ Q / X n O.O.D K V V Q M S S S x / #.wXNXrXtXtXuXiX0XyXuXsXk.J.).I.I.].G.A.:.S S ( S k ~ M _ 5.#.K #.S c A ] ( #.( o.",
"V +.$.#.S ] / x V n D ;.4.( S / C C K #.>./ / U ( eX9XlXiXuX0XyXyXzXgXC.U.U.oXXXI._.M.a.B / E S ] [ M ( $.K U / B z A B ` ) _ G ",
"Q Q +.N V E >.1.{ ) o.o.4.( U C S x n ;.[ x / ( ,.' L hXzXyXyXyXyXzXhXz.I.Y.1X1XXXx.b.p.x c 2.B >.V / #.J / / ` S j [ / S >.K G ",
"W Q #.N M [ / 1.] Q N ( @.#.S V S V / S S C n #.,.#.z.S.lXiXyXyXyXzX@Xc.U..X*X( *XC.k.p.` / S S / C >.>._ %./ >.C C / / Z ( x / ",
"W ) _ #.S #.k B B V %.5.$./ C I >.>.,.` S c C N ! D.D.b.S.lXuXuX0X:Xk.J.E.U.fX[ U :Xn.i.( 1.~ C l #.( / / V V >.[ U U S x C M [ ",
"[ V M J ,.( x B / S [ [ ( ,.[ / >.V _ [ c S [ U L Y.L.;XbXnXtX8X7X<XS.P.H.D.oXp.( y.<Xt.J (  .C U [ C M / %._ / <.( ' x / V B 1.",
"%.M x x <.#./ M Q S / 2.M [ J n S [ [ _ c S / N F k.dXAXAXDXvX4X6X8X( gX XF.v.dXN #.#.D M 1.C C S S / C M %.[ _ [ U / S ` S ] ~ ",
"_ S V / Y U M ..S M ) ) x N ,.Z V / &.#.z B x _ 5.$.cXDXDXZXvXa < 3X#.;.fXv.L.b.fX<.N N n J J I / [ S M J &.) J V Z / ` C >.S S ",
"Q n >.V Z n / 2.Q k B c J ( #.[ V V [ [ B c M 1.&.F wXAXZXxXg > ; i 8X#.-.aXb.J. XgXn _ ) #.U -.I ] [ l F F n V V V S A B z V / ",
"&.K ( / N ,.` >./ Q z B M ;.H ' J %.J S >.{ Q V J Q 9XCXxXs 8 5 3 , u 4Xm *.$Xx.L. X1XeXrX' J U I  ./ n n F ( M [ ] z v ~ k J >.",
"4.( _ C U ,.' C ( #.S B M ' ( ( J [ ( >.x ..2.S N : 6XxXg 9 e 6 3 = : s N N a.Z.J.J.C.1XcXeX6.U ` B C ' ;.Z [ ` V ` A ~ ] M [ ,.",
"( H F C S ` -.J ' K _ %.J M U ,./ ` ( ' C A [ ` @ : u f 8 6 e 2 3 > < s #.m ( sXC.v.k.gXSXCXwXy.I ~ V [ ' ( M [ ~ C ] ] / x F $.",
"$.Y ( S S S [ -.K M J _ 1.[ S Z n >.Z x [ S ` S 7X2Xa : > 5 3 5 ; y 2XX.[ ( S / 1X% =XMXSXAXBX=.X./ [ / U S l ] ` z ^ B ` ) ( ! ",
"o.m F / c B M [ l S <.[ S [ ' S C Z ( C c  .>.h.ZXVXxXh , > > ; i 4X( K Z / >.V rXlXSXSXDXAXxXu @ S [ M S C ] ` C I  .x S / +.K ",
"O.o.J 1.c v k J / / ( ,.x E ( 1.[ U n [ I z 1.xXmXZXZXZX3X: : s y.+.V S M C ` S 2X9XBXCXAXAX3X, ; # V S v z ~ ] A C C l S _ &.! ",
"o.( ( >.R j V / %./ N #.2.S S #.C ( n 2.S *.u p s qXAXDXmX=.r./ &.! _ J S / ` f.u #XxXmXCXqX1 5 5 ; 1.[ C C ~ A I /  .U n $.3.G ",
"K N &./ S M #.o./ l #.3.[ B / N N N #.$.n d., > 8 1 6XAX] 1.] { W %.Q +.#.Q t.d.: : i g g q 9 e 6 > ( m 4.( E B B [ ( o.F +.) N ",
"J / <.K J V D ( S J J <./ S l / ,.G G +.8.f > 3 3 ; u V B ) x ] %.Q F &.J #.y.mX6Xf : > 9 e 7 7 9 ; ,.4.$.N M / M V N $.,.! ) ( ",
"#.[ 5.#./ _ N ( >._ n [ >./ n #.Q <.<.o.8.i 8 3 3 > @ M V k A B E ) _ / *.f.xXBXVXvX5X< 9 e e e 5 @ 3.,.o.K n V M ( F #.$.F ( 9.",
"( ! ( ( >.%.M [ E E J ' [ J ' #.J #.&.#.8.i 8 3 > r [ U U M S S M M x r.i 1 i h qXvXVX5Xt w w 9 < M [ ( #.&.) x J &.) V &.J ( ,.",
"( n M ) >.{ E S B C ] 9.' N J Y $.( S J [ u 8 9 - -.I C ` v x [ Z y.i 8 5 9 8 > 1 3XvXiXg.t > < =.M J _ / ( 0.J ( ( _ n ,.N F ( ",
"! +.#._ Q x M ] ] M S >.[ Z U ( ( #./ M C =., 0 X.U C z A c C d.t q w 7 4 2 2 9 8 t 4XiXpXa r O.#.( / Q C ,.,.@.( ) _ S #.( F +.",
"$.<.&.V n M R B Z Z / x N H -.' / / / S M J y # U C  .C M [ # 1 9 w e 4 2 5 2 6 9 t 5XpXiXh.6.5.$.1.>.S S ,.m D K / J #.&.,.! F ",
"D 4.#.n n #.[ V U U ` M n N Z C _ M / >.M x *.[ S ` 5.Z [ S : q w w e 7 2 5 5 5 0 < g.h.y.Q $.&.N >.>.E n x b H ) V J ( +.G ! J ",
"H o.G ( m m J #.Y H C x / Z k B V M _ ,.S M ` B C C 2.M [ _ r 1 0 9 6 6 6 5 8 > < p d.:.#.J J ( ( M S / C n ( ;.C Q _ $.+.! &.Q ",
",.H #.;.Y m $.#.;.m C S M c A B V _ V _ Q %.1.x S S >.V %._ ( =.u < , 0 q q f h d.:.[ x S / M V 1.Z S [ C ( <.>.l [ $.( $.+.! Q ",
"K $.#.;.Y o.@.J 4.;.Z /  .B 1.>.Q 0.J _ [ _ Q V S / ) S ) S W #.K K K K 8.8.@./ A S  .J C / V >.x U J U l / [ S M [ 0.( G +.V B ",
"U ( n #.N @.4.Y K @.N [ [ B [ B #.( ) [ Q C S #.x / { V 1.%.+.G K J m ( J $.V ] A c [ -.Z x [ ` S ' l M n x U ( C [ $.H N ! V W ",
" .S S S ( / 7.( F J C ( V _ V / #.G ,.+.C C / 2.c S %.<.&._ W _ <.m b #.( Z S S S >.C S U x I U S /  .>. .x S 1.J F N F M V &.[ ",
"[ S ` >.C [ #./ V x K 1.( _ Q ) G ( #.K Z Z z S B c ` <.V n V %.U H U ,.n S #.x ` S z C C k U J l U 2.S ` ~ B ' #.N ( J l [ <.! ",
"A v ~ ~ ~ x / >.~ ] Q ) <.N F +.$.F F ( / -.S C C l ` l / V 3._ H Z H -.x C [ [ [ n V S >.Z #.U b U  .z v ^ C U ;.K $.M B 1.G o.",
"c C A ~ v z >.V ~ { J ! ) N N ( o.m N Z S  .`  .U / B k / W ,.5.@.;.` n I [ [ ( <.` M ] ` 1.@.H ;.' C z v ..>.n ;.D V E { ) G &."
};
